assets/luts/bw_2k.cube
TITLE "2000s BY2K"
LUT_3D_SIZE 9
0.072500 0.072500 0.072500
0.104456 0.104456 0.104456
0.136411 0.136411 0.136411
0.168367 0.168367 0.168367
0.200322 0.200322 0.200322
0.232278 0.232278 0.232278
0.264234 0.264234 0.264234
0.296189 0.296189 0.296189
0.328145 0.328145 0.328145
0.135236 0.135236 0.135236
0.167191 0.167191 0.167191
0.199147 0.199147 0.199147
0.231103 0.231103 0.231103
0.263058 0.263058 0.263058
0.295014 0.295014 0.295014
0.326969 0.326969 0.326969
0.358925 0.358925 0.358925
0.390881 0.390881 0.390881
0.197971 0.197971 0.197971
0.229927 0.229927 0.229927
0.261882 0.261882 0.261882
0.293838 0.293838 0.293838
0.325794 0.325794 0.325794
0.357749 0.357749 0.357749
0.389705 0.389705 0.389705
0.421661 0.421661 0.421661
0.453616 0.453616 0.453616
0.260707 0.260707 0.260707
0.292662 0.292662 0.292662
0.324618 0.324618 0.324618
0.356574 0.356574 0.356574
0.388529 0.388529 0.388529
0.420485 0.420485 0.420485
0.452441 0.452441 0.452441
0.484396 0.484396 0.484396
0.516352 0.516352 0.516352
0.323442 0.323442 0.323442
0.355398 0.355398 0.355398
0.387354 0.387354 0.387354
0.419309 0.419309 0.419309
0.451265 0.451265 0.451265
0.483221 0.483221 0.483221
0.515176 0.515176 0.515176
0.547132 0.547132 0.547132
0.579088 0.579088 0.579088
0.386178 0.386178 0.386178
0.418134 0.418134 0.418134
0.450089 0.450089 0.450089
0.482045 0.482045 0.482045
0.514001 0.514001 0.514001
0.545956 0.545956 0.545956
0.577912 0.577912 0.577912
0.609868 0.609868 0.609868
0.641823 0.641823 0.641823
0.448914 0.448914 0.448914
0.480869 0.480869 0.480869
0.512825 0.512825 0.512825
0.544781 0.544781 0.544781
0.576736 0.576736 0.576736
0.608692 0.608692 0.608692
0.640648 0.640648 0.640648
0.672603 0.672603 0.672603
0.704559 0.704559 0.704559
0.511649 0.511649 0.511649
0.543605 0.543605 0.543605
0.575561 0.575561 0.575561
0.607516 0.607516 0.607516
0.639472 0.639472 0.639472
0.671428 0.671428 0.671428
0.703383 0.703383 0.703383
0.735339 0.735339 0.735339
0.767294 0.767294 0.767294
0.574385 0.574385 0.574385
0.606341 0.606341 0.606341
0.638296 0.638296 0.638296
0.670252 0.670252 0.670252
0.702207 0.702207 0.702207
0.734163 0.734163 0.734163
0.766119 0.766119 0.766119
0.798074 0.798074 0.798074
0.830030 0.830030 0.830030
0.084684 0.084684 0.084684
0.116639 0.116639 0.116639
0.148595 0.148595 0.148595
0.180551 0.180551 0.180551
0.212506 0.212506 0.212506
0.244462 0.244462 0.244462
0.276417 0.276417 0.276417
0.308373 0.308373 0.308373
0.340329 0.340329 0.340329
0.147419 0.147419 0.147419
0.179375 0.179375 0.179375
0.211331 0.211331 0.211331
0.243286 0.243286 0.243286
0.275242 0.275242 0.275242
0.307198 0.307198 0.307198
0.339153 0.339153 0.339153
0.371109 0.371109 0.371109
0.403064 0.403064 0.403064
0.210155 0.210155 0.210155
0.242111 0.242111 0.242111
0.274066 0.274066 0.274066
0.306022 0.306022 0.306022
0.337978 0.337978 0.337978
0.369933 0.369933 0.369933
0.401889 0.401889 0.401889
0.433844 0.433844 0.433844
0.465800 0.465800 0.465800
0.272891 0.272891 0.272891
0.304846 0.304846 0.304846
0.336802 0.336802 0.336802
0.368757 0.368757 0.368757
0.400713 0.400713 0.400713
0.432669 0.432669 0.432669
0.464624 0.464624 0.464624
0.496580 0.496580 0.496580
0.528536 0.528536 0.528536
0.335626 0.335626 0.335626
0.367582 0.367582 0.367582
0.399537 0.399537 0.399537
0.431493 0.431493 0.431493
0.463449 0.463449 0.463449
0.495404 0.495404 0.495404
0.527360 0.527360 0.527360
0.559316 0.559316 0.559316
0.591271 0.591271 0.591271
0.398362 0.398362 0.398362
0.430317 0.430317 0.430317
0.462273 0.462273 0.462273
0.494229 0.494229 0.494229
0.526184 0.526184 0.526184
0.558140 0.558140 0.558140
0.590096 0.590096 0.590096
0.622051 0.622051 0.622051
0.654007 0.654007 0.654007
0.461097 0.461097 0.461097
0.493053 0.493053 0.493053
0.525009 0.525009 0.525009
0.556964 0.556964 0.556964
0.588920 0.588920 0.588920
0.620876 0.620876 0.620876
0.652831 0.652831 0.652831
0.684787 0.684787 0.684787
0.716742 0.716742 0.716742
0.523833 0.523833 0.523833
0.555789 0.555789 0.555789
0.587744 0.587744 0.587744
0.619700 0.619700 0.619700
0.651656 0.651656 0.651656
0.683611 0.683611 0.683611
0.715567 0.715567 0.715567
0.747523 0.747523 0.747523
0.779478 0.779478 0.779478
0.586569 0.586569 0.586569
0.618524 0.618524 0.618524
0.650480 0.650480 0.650480
0.682436 0.682436 0.682436
0.714391 0.714391 0.714391
0.746347 0.746347 0.746347
0.778303 0.778303 0.778303
0.810258 0.810258 0.810258
0.842214 0.842214 0.842214
0.096867 0.096867 0.096867
0.128823 0.128823 0.128823
0.160779 0.160779 0.160779
0.192734 0.192734 0.192734
0.224690 0.224690 0.224690
0.256646 0.256646 0.256646
0.288601 0.288601 0.288601
0.320557 0.320557 0.320557
0.352513 0.352513 0.352513
0.159603 0.159603 0.159603
0.191559 0.191559 0.191559
0.223514 0.223514 0.223514
0.255470 0.255470 0.255470
0.287426 0.287426 0.287426
0.319381 0.319381 0.319381
0.351337 0.351337 0.351337
0.383292 0.383292 0.383292
0.415248 0.415248 0.415248
0.222339 0.222339 0.222339
0.254294 0.254294 0.254294
0.286250 0.286250 0.286250
0.318206 0.318206 0.318206
0.350161 0.350161 0.350161
0.382117 0.382117 0.382117
0.414073 0.414073 0.414073
0.446028 0.446028 0.446028
0.477984 0.477984 0.477984
0.285074 0.285074 0.285074
0.317030 0.317030 0.317030
0.348986 0.348986 0.348986
0.380941 0.380941 0.380941
0.412897 0.412897 0.412897
0.444852 0.444852 0.444852
0.476808 0.476808 0.476808
0.508764 0.508764 0.508764
0.540719 0.540719 0.540719
0.347810 0.347810 0.347810
0.379766 0.379766 0.379766
0.411721 0.411721 0.411721
0.443677 0.443677 0.443677
0.475633 0.475633 0.475633
0.507588 0.507588 0.507588
0.539544 0.539544 0.539544
0.571499 0.571499 0.571499
0.603455 0.603455 0.603455
0.410546 0.410546 0.410546
0.442501 0.442501 0.442501
0.474457 0.474457 0.474457
0.506413 0.506413 0.506413
0.538368 0.538368 0.538368
0.570324 0.570324 0.570324
0.602279 0.602279 0.602279
0.634235 0.634235 0.634235
0.666191 0.666191 0.666191
0.473281 0.473281 0.473281
0.505237 0.505237 0.505237
0.537192 0.537192 0.537192
0.569148 0.569148 0.569148
0.601104 0.601104 0.601104
0.633059 0.633059 0.633059
0.665015 0.665015 0.665015
0.696971 0.696971 0.696971
0.728926 0.728926 0.728926
0.536017 0.536017 0.536017
0.567973 0.567973 0.567973
0.599928 0.599928 0.599928
0.631884 0.631884 0.631884
0.663839 0.663839 0.663839
0.695795 0.695795 0.695795
0.727751 0.727751 0.727751
0.759706 0.759706 0.759706
0.791662 0.791662 0.791662
0.598753 0.598753 0.598753
0.630708 0.630708 0.630708
0.662664 0.662664 0.662664
0.694619 0.694619 0.694619
0.726575 0.726575 0.726575
0.758531 0.758531 0.758531
0.790486 0.790486 0.790486
0.822442 0.822442 0.822442
0.854398 0.854398 0.854398
0.109051 0.109051 0.109051
0.141007 0.141007 0.141007
0.172962 0.172962 0.172962
0.204918 0.204918 0.204918
0.236874 0.236874 0.236874
0.268829 0.268829 0.268829
0.300785 0.300785 0.300785
0.332741 0.332741 0.332741
0.364696 0.364696 0.364696
0.171787 0.171787 0.171787
0.203742 0.203742 0.203742
0.235698 0.235698 0.235698
0.267654 0.267654 0.267654
0.299609 0.299609 0.299609
0.331565 0.331565 0.331565
0.363521 0.363521 0.363521
0.395476 0.395476 0.395476
0.427432 0.427432 0.427432
0.234522 0.234522 0.234522
0.266478 0.266478 0.266478
0.298434 0.298434 0.298434
0.330389 0.330389 0.330389
0.362345 0.362345 0.362345
0.394301 0.394301 0.394301
0.426256 0.426256 0.426256
0.458212 0.458212 0.458212
0.490167 0.490167 0.490167
0.297258 0.297258 0.297258
0.329214 0.329214 0.329214
0.361169 0.361169 0.361169
0.393125 0.393125 0.393125
0.425081 0.425081 0.425081
0.457036 0.457036 0.457036
0.488992 0.488992 0.488992
0.520948 0.520948 0.520948
0.552903 0.552903 0.552903
0.359994 0.359994 0.359994
0.391949 0.391949 0.391949
0.423905 0.423905 0.423905
0.455861 0.455861 0.455861
0.487816 0.487816 0.487816
0.519772 0.519772 0.519772
0.551728 0.551728 0.551728
0.583683 0.583683 0.583683
0.615639 0.615639 0.615639
0.422729 0.422729 0.422729
0.454685 0.454685 0.454685
0.486641 0.486641 0.486641
0.518596 0.518596 0.518596
0.550552 0.550552 0.550552
0.582507 0.582507 0.582507
0.614463 0.614463 0.614463
0.646419 0.646419 0.646419
0.678374 0.678374 0.678374
0.485465 0.485465 0.485465
0.517421 0.517421 0.517421
0.549376 0.549376 0.549376
0.581332 0.581332 0.581332
0.613287 0.613287 0.613287
0.645243 0.645243 0.645243
0.677199 0.677199 0.677199
0.709154 0.709154 0.709154
0.741110 0.741110 0.741110
0.548201 0.548201 0.548201
0.580156 0.580156 0.580156
0.612112 0.612112 0.612112
0.644068 0.644068 0.644068
0.676023 0.676023 0.676023
0.707979 0.707979 0.707979
0.739934 0.739934 0.739934
0.771890 0.771890 0.771890
0.803846 0.803846 0.803846
0.610936 0.610936 0.610936
0.642892 0.642892 0.642892
0.674847 0.674847 0.674847
0.706803 0.706803 0.706803
0.738759 0.738759 0.738759
0.770714 0.770714 0.770714
0.802670 0.802670 0.802670
0.834626 0.834626 0.834626
0.866581 0.866581 0.866581
0.121235 0.121235 0.121235
0.153191 0.153191 0.153191
0.185146 0.185146 0.185146
0.217102 0.217102 0.217102
0.249057 0.249057 0.249057
0.281013 0.281013 0.281013
0.312969 0.312969 0.312969
0.344924 0.344924 0.344924
0.376880 0.376880 0.376880
0.183971 0.183971 0.183971
0.215926 0.215926 0.215926
0.247882 0.247882 0.247882
0.279838 0.279838 0.279838
0.311793 0.311793 0.311793
0.343749 0.343749 0.343749
0.375704 0.375704 0.375704
0.407660 0.407660 0.407660
0.439616 0.439616 0.439616
0.246706 0.246706 0.246706
0.278662 0.278662 0.278662
0.310617 0.310617 0.310617
0.342573 0.342573 0.342573
0.374529 0.374529 0.374529
0.406484 0.406484 0.406484
0.438440 0.438440 0.438440
0.470396 0.470396 0.470396
0.502351 0.502351 0.502351
0.309442 0.309442 0.309442
0.341398 0.341398 0.341398
0.373353 0.373353 0.373353
0.405309 0.405309 0.405309
0.437264 0.437264 0.437264
0.469220 0.469220 0.469220
0.501176 0.501176 0.501176
0.533131 0.533131 0.533131
0.565087 0.565087 0.565087
0.372177 0.372177 0.372177
0.404133 0.404133 0.404133
0.436089 0.436089 0.436089
0.468044 0.468044 0.468044
0.500000 0.500000 0.500000
0.531956 0.531956 0.531956
0.563911 0.563911 0.563911
0.595867 0.595867 0.595867
0.627823 0.627823 0.627823
0.434913 0.434913 0.434913
0.466869 0.466869 0.466869
0.498824 0.498824 0.498824
0.530780 0.530780 0.530780
0.562736 0.562736 0.562736
0.594691 0.594691 0.594691
0.626647 0.626647 0.626647
0.658602 0.658602 0.658602
0.690558 0.690558 0.690558
0.497649 0.497649 0.497649
0.529604 0.529604 0.529604
0.561560 0.561560 0.561560
0.593516 0.593516 0.593516
0.625471 0.625471 0.625471
0.657427 0.657427 0.657427
0.689383 0.689383 0.689383
0.721338 0.721338 0.721338
0.753294 0.753294 0.753294
0.560384 0.560384 0.560384
0.592340 0.592340 0.592340
0.624296 0.624296 0.624296
0.656251 0.656251 0.656251
0.688207 0.688207 0.688207
0.720163 0.720163 0.720163
0.752118 0.752118 0.752118
0.784074 0.784074 0.784074
0.816029 0.816029 0.816029
0.623120 0.623120 0.623120
0.655076 0.655076 0.655076
0.687031 0.687031 0.687031
0.718987 0.718987 0.718987
0.750942 0.750942 0.750942
0.782898 0.782898 0.782898
0.814854 0.814854 0.814854
0.846809 0.846809 0.846809
0.878765 0.878765 0.878765
0.133419 0.133419 0.133419
0.165374 0.165374 0.165374
0.197330 0.197330 0.197330
0.229286 0.229286 0.229286
0.261241 0.261241 0.261241
0.293197 0.293197 0.293197
0.325153 0.325153 0.325153
0.357108 0.357108 0.357108
0.389064 0.389064 0.389064
0.196154 0.196154 0.196154
0.228110 0.228110 0.228110
0.260066 0.260066 0.260066
0.292021 0.292021 0.292021
0.323977 0.323977 0.323977
0.355932 0.355932 0.355932
0.387888 0.387888 0.387888
0.419844 0.419844 0.419844
0.451799 0.451799 0.451799
0.258890 0.258890 0.258890
0.290846 0.290846 0.290846
0.322801 0.322801 0.322801
0.354757 0.354757 0.354757
0.386713 0.386713 0.386713
0.418668 0.418668 0.418668
0.450624 0.450624 0.450624
0.482579 0.482579 0.482579
0.514535 0.514535 0.514535
0.321626 0.321626 0.321626
0.353581 0.353581 0.353581
0.385537 0.385537 0.385537
0.417492 0.417492 0.417492
0.449448 0.449448 0.449448
0.481404 0.481404 0.481404
0.513359 0.513359 0.513359
0.545315 0.545315 0.545315
0.577271 0.577271 0.577271
0.384361 0.384361 0.384361
0.416317 0.416317 0.416317
0.448273 0.448273 0.448273
0.480228 0.480228 0.480228
0.512184 0.512184 0.512184
0.544139 0.544139 0.544139
0.576095 0.576095 0.576095
0.608051 0.608051 0.608051
0.640006 0.640006 0.640006
0.447097 0.447097 0.447097
0.479052 0.479052 0.479052
0.511008 0.511008 0.511008
0.542964 0.542964 0.542964
0.574919 0.574919 0.574919
0.606875 0.606875 0.606875
0.638831 0.638831 0.638831
0.670786 0.670786 0.670786
0.702742 0.702742 0.702742
0.509832 0.509832 0.509832
0.541788 0.541788 0.541788
0.573744 0.573744 0.573744
0.605699 0.605699 0.605699
0.637655 0.637655 0.637655
0.669611 0.669611 0.669611
0.701566 0.701566 0.701566
0.733522 0.733522 0.733522
0.765478 0.765478 0.765478
0.572568 0.572568 0.572568
0.604524 0.604524 0.604524
0.636479 0.636479 0.636479
0.668435 0.668435 0.668435
0.700391 0.700391 0.700391
0.732346 0.732346 0.732346
0.764302 0.764302 0.764302
0.796258 0.796258 0.796258
0.828213 0.828213 0.828213
0.635304 0.635304 0.635304
0.667259 0.667259 0.667259
0.699215 0.699215 0.699215
0.731171 0.731171 0.731171
0.763126 0.763126 0.763126
0.795082 0.795082 0.795082
0.827038 0.827038 0.827038
0.858993 0.858993 0.858993
0.890949 0.890949 0.890949
0.145602 0.145602 0.145602
0.177558 0.177558 0.177558
0.209514 0.209514 0.209514
0.241469 0.241469 0.241469
0.273425 0.273425 0.273425
0.305381 0.305381 0.305381
0.337336 0.337336 0.337336
0.369292 0.369292 0.369292
0.401248 0.401248 0.401248
0.208338 0.208338 0.208338
0.240294 0.240294 0.240294
0.272249 0.272249 0.272249
0.304205 0.304205 0.304205
0.336161 0.336161 0.336161
0.368116 0.368116 0.368116
0.400072 0.400072 0.400072
0.432028 0.432028 0.432028
0.463983 0.463983 0.463983
0.271074 0.271074 0.271074
0.303029 0.303029 0.303029
0.334985 0.334985 0.334985
0.366941 0.366941 0.366941
0.398896 0.398896 0.398896
0.430852 0.430852 0.430852
0.462808 0.462808 0.462808
0.494763 0.494763 0.494763
0.526719 0.526719 0.526719
0.333809 0.333809 0.333809
0.365765 0.365765 0.365765
0.397721 0.397721 0.397721
0.429676 0.429676 0.429676
0.461632 0.461632 0.461632
0.493587 0.493587 0.493587
0.525543 0.525543 0.525543
0.557499 0.557499 0.557499
0.589454 0.589454 0.589454
0.396545 0.396545 0.396545
0.428501 0.428501 0.428501
0.460456 0.460456 0.460456
0.492412 0.492412 0.492412
0.524367 0.524367 0.524367
0.556323 0.556323 0.556323
0.588279 0.588279 0.588279
0.620234 0.620234 0.620234
0.652190 0.652190 0.652190
0.459281 0.459281 0.459281
0.491236 0.491236 0.491236
0.523192 0.523192 0.523192
0.555148 0.555148 0.555148
0.587103 0.587103 0.587103
0.619059 0.619059 0.619059
0.651014 0.651014 0.651014
0.682970 0.682970 0.682970
0.714926 0.714926 0.714926
0.522016 0.522016 0.522016
0.553972 0.553972 0.553972
0.585928 0.585928 0.585928
0.617883 0.617883 0.617883
0.649839 0.649839 0.649839
0.681794 0.681794 0.681794
0.713750 0.713750 0.713750
0.745706 0.745706 0.745706
0.777661 0.777661 0.777661
0.584752 0.584752 0.584752
0.616708 0.616708 0.616708
0.648663 0.648663 0.648663
0.680619 0.680619 0.680619
0.712574 0.712574 0.712574
0.744530 0.744530 0.744530
0.776486 0.776486 0.776486
0.808441 0.808441 0.808441
0.840397 0.840397 0.840397
0.647487 0.647487 0.647487
0.679443 0.679443 0.679443
0.711399 0.711399 0.711399
0.743354 0.743354 0.743354
0.775310 0.775310 0.775310
0.807266 0.807266 0.807266
0.839221 0.839221 0.839221
0.871177 0.871177 0.871177
0.903133 0.903133 0.903133
0.157786 0.157786 0.157786
0.189742 0.189742 0.189742
0.221697 0.221697 0.221697
0.253653 0.253653 0.253653
0.285609 0.285609 0.285609
0.317564 0.317564 0.317564
0.349520 0.349520 0.349520
0.381476 0.381476 0.381476
0.413431 0.413431 0.413431
0.220522 0.220522 0.220522
0.252478 0.252478 0.252478
0.284433 0.284433 0.284433
0.316389 0.316389 0.316389
0.348344 0.348344 0.348344
0.380300 0.380300 0.380300
0.412256 0.412256 0.412256
0.444211 0.444211 0.444211
0.476167 0.476167 0.476167
0.283257 0.283257 0.283257
0.315213 0.315213 0.315213
0.347169 0.347169 0.347169
0.379124 0.379124 0.379124
0.411080 0.411080 0.411080
0.443036 0.443036 0.443036
0.474991 0.474991 0.474991
0.506947 0.506947 0.506947
0.538903 0.538903 0.538903
0.345993 0.345993 0.345993
0.377949 0.377949 0.377949
0.409904 0.409904 0.409904
0.441860 0.441860 0.441860
0.473816 0.473816 0.473816
0.505771 0.505771 0.505771
0.537727 0.537727 0.537727
0.569682 0.569682 0.569682
0.601638 0.601638 0.601638
0.408729 0.408729 0.408729
0.440684 0.440684 0.440684
0.472640 0.472640 0.472640
0.504596 0.504596 0.504596
0.536551 0.536551 0.536551
0.568507 0.568507 0.568507
0.600463 0.600463 0.600463
0.632418 0.632418 0.632418
0.664374 0.664374 0.664374
0.471464 0.471464 0.471464
0.503420 0.503420 0.503420
0.535376 0.535376 0.535376
0.567331 0.567331 0.567331
0.599287 0.599287 0.599287
0.631243 0.631243 0.631243
0.663198 0.663198 0.663198
0.695154 0.695154 0.695154
0.727109 0.727109 0.727109
0.534200 0.534200 0.534200
0.566156 0.566156 0.566156
0.598111 0.598111 0.598111
0.630067 0.630067 0.630067
0.662023 0.662023 0.662023
0.693978 0.693978 0.693978
0.725934 0.725934 0.725934
0.757889 0.757889 0.757889
0.789845 0.789845 0.789845
0.596936 0.596936 0.596936
0.628891 0.628891 0.628891
0.660847 0.660847 0.660847
0.692803 0.692803 0.692803
0.724758 0.724758 0.724758
0.756714 0.756714 0.756714
0.788669 0.788669 0.788669
0.820625 0.820625 0.820625
0.852581 0.852581 0.852581
0.659671 0.659671 0.659671
0.691627 0.691627 0.691627
0.723583 0.723583 0.723583
0.755538 0.755538 0.755538
0.787494 0.787494 0.787494
0.819449 0.819449 0.819449
0.851405 0.851405 0.851405
0.883361 0.883361 0.883361
0.915316 0.915316 0.915316
0.169970 0.169970 0.169970
0.201926 0.201926 0.201926
0.233881 0.233881 0.233881
0.265837 0.265837 0.265837
0.297793 0.297793 0.297793
0.329748 0.329748 0.329748
0.361704 0.361704 0.361704
0.393659 0.393659 0.393659
0.425615 0.425615 0.425615
0.232706 0.232706 0.232706
0.264661 0.264661 0.264661
0.296617 0.296617 0.296617
0.328572 0.328572 0.328572
0.360528 0.360528 0.360528
0.392484 0.392484 0.392484
0.424439 0.424439 0.424439
0.456395 0.456395 0.456395
0.488351 0.488351 0.488351
0.295441 0.295441 0.295441
0.327397 0.327397 0.327397
0.359353 0.359353 0.359353
0.391308 0.391308 0.391308
0.423264 0.423264 0.423264
0.455219 0.455219 0.455219
0.487175 0.487175 0.487175
0.519131 0.519131 0.519131
0.551086 0.551086 0.551086
0.358177 0.358177 0.358177
0.390132 0.390132 0.390132
0.422088 0.422088 0.422088
0.454044 0.454044 0.454044
0.485999 0.485999 0.485999
0.517955 0.517955 0.517955
0.549911 0.549911 0.549911
0.581866 0.581866 0.581866
0.613822 0.613822 0.613822
0.420912 0.420912 0.420912
0.452868 0.452868 0.452868
0.484824 0.484824 0.484824
0.516779 0.516779 0.516779
0.548735 0.548735 0.548735
0.580691 0.580691 0.580691
0.612646 0.612646 0.612646
0.644602 0.644602 0.644602
0.676558 0.676558 0.676558
0.483648 0.483648 0.483648
0.515604 0.515604 0.515604
0.547559 0.547559 0.547559
0.579515 0.579515 0.579515
0.611471 0.611471 0.611471
0.643426 0.643426 0.643426
0.675382 0.675382 0.675382
0.707338 0.707338 0.707338
0.739293 0.739293 0.739293
0.546384 0.546384 0.546384
0.578339 0.578339 0.578339
0.610295 0.610295 0.610295
0.642251 0.642251 0.642251
0.674206 0.674206 0.674206
0.706162 0.706162 0.706162
0.738117 0.738117 0.738117
0.770073 0.770073 0.770073
0.802029 0.802029 0.802029
0.609119 0.609119 0.609119
0.641075 0.641075 0.641075
0.673031 0.673031 0.673031
0.704986 0.704986 0.704986
0.736942 0.736942 0.736942
0.768898 0.768898 0.768898
0.800853 0.800853 0.800853
0.832809 0.832809 0.832809
0.864764 0.864764 0.864764
0.671855 0.671855 0.671855
0.703811 0.703811 0.703811
0.735766 0.735766 0.735766
0.767722 0.767722 0.767722
0.799678 0.799678 0.799678
0.831633 0.831633 0.831633
0.863589 0.863589 0.863589
0.895544 0.895544 0.895544
0.927500 0.927500 0.927500
