assets/luts/bw_2k.cube
TITLE "2000s BY2K"
LUT_3D_SIZE 5
0.072500 0.072500 0.072500
0.136411 0.136411 0.136411
0.200322 0.200322 0.200322
0.264234 0.264234 0.264234
0.328145 0.328145 0.328145
0.197971 0.197971 0.197971
0.261882 0.261882 0.261882
0.325794 0.325794 0.325794
0.389705 0.389705 0.389705
0.453616 0.453616 0.453616
0.323442 0.323442 0.323442
0.387354 0.387354 0.387354
0.451265 0.451265 0.451265
0.515176 0.515176 0.515176
0.579088 0.579088 0.579088
0.448914 0.448914 0.448914
0.512825 0.512825 0.512825
0.576736 0.576736 0.576736
0.640648 0.640648 0.640648
0.704559 0.704559 0.704559
0.574385 0.574385 0.574385
0.638296 0.638296 0.638296
0.702207 0.702207 0.702207
0.766119 0.766119 0.766119
0.830030 0.830030 0.830030
0.096867 0.096867 0.096867
0.160779 0.160779 0.160779
0.224690 0.224690 0.224690
0.288601 0.288601 0.288601
0.352513 0.352513 0.352513
0.222339 0.222339 0.222339
0.286250 0.286250 0.286250
0.350161 0.350161 0.350161
0.414073 0.414073 0.414073
0.477984 0.477984 0.477984
0.347810 0.347810 0.347810
0.411721 0.411721 0.411721
0.475633 0.475633 0.475633
0.539544 0.539544 0.539544
0.603455 0.603455 0.603455
0.473281 0.473281 0.473281
0.537192 0.537192 0.537192
0.601104 0.601104 0.601104
0.665015 0.665015 0.665015
0.728926 0.728926 0.728926
0.598753 0.598753 0.598753
0.662664 0.662664 0.662664
0.726575 0.726575 0.726575
0.790486 0.790486 0.790486
0.854398 0.854398 0.854398
0.121235 0.121235 0.121235
0.185146 0.185146 0.185146
0.249057 0.249057 0.249057
0.312969 0.312969 0.312969
0.376880 0.376880 0.376880
0.246706 0.246706 0.246706
0.310617 0.310617 0.310617
0.374529 0.374529 0.374529
0.438440 0.438440 0.438440
0.502351 0.502351 0.502351
0.372177 0.372177 0.372177
0.436089 0.436089 0.436089
0.500000 0.500000 0.500000
0.563911 0.563911 0.563911
0.627823 0.627823 0.627823
0.497649 0.497649 0.497649
0.561560 0.561560 0.561560
0.625471 0.625471 0.625471
0.689383 0.689383 0.689383
0.753294 0.753294 0.753294
0.623120 0.623120 0.623120
0.687031 0.687031 0.687031
0.750942 0.750942 0.750942
0.814854 0.814854 0.814854
0.878765 0.878765 0.878765
0.145602 0.145602 0.145602
0.209514 0.209514 0.209514
0.273425 0.273425 0.273425
0.337336 0.337336 0.337336
0.401248 0.401248 0.401248
0.271074 0.271074 0.271074
0.334985 0.334985 0.334985
0.398896 0.398896 0.398896
0.462808 0.462808 0.462808
0.526719 0.526719 0.526719
0.396545 0.396545 0.396545
0.460456 0.460456 0.460456
0.524367 0.524367 0.524367
0.588279 0.588279 0.588279
0.652190 0.652190 0.652190
0.522016 0.522016 0.522016
0.585928 0.585928 0.585928
0.649839 0.649839 0.649839
0.713750 0.713750 0.713750
0.777661 0.777661 0.777661
0.647487 0.647487 0.647487
0.711399 0.711399 0.711399
0.775310 0.775310 0.775310
0.839221 0.839221 0.839221
0.903133 0.903133 0.903133
0.169970 0.169970 0.169970
0.233881 0.233881 0.233881
0.297793 0.297793 0.297793
0.361704 0.361704 0.361704
0.425615 0.425615 0.425615
0.295441 0.295441 0.295441
0.359353 0.359353 0.359353
0.423264 0.423264 0.423264
0.487175 0.487175 0.487175
0.551086 0.551086 0.551086
0.420912 0.420912 0.420912
0.484824 0.484824 0.484824
0.548735 0.548735 0.548735
0.612646 0.612646 0.612646
0.676558 0.676558 0.676558
0.546384 0.546384 0.546384
0.610295 0.610295 0.610295
0.674206 0.674206 0.674206
0.738117 0.738117 0.738117
0.802029 0.802029 0.802029
0.671855 0.671855 0.671855
0.735766 0.735766 0.735766
0.799678 0.799678 0.799678
0.863589 0.863589 0.863589
0.927500 0.927500 0.927500
