assets/luts/bw_2k.cube
TITLE "2000s BY2K"
LUT_3D_SIZE 17
0.072500 0.072500 0.072500
0.088478 0.088478 0.088478
0.104456 0.104456 0.104456
0.120433 0.120433 0.120433
0.136411 0.136411 0.136411
0.152389 0.152389 0.152389
0.168367 0.168367 0.168367
0.184345 0.184345 0.184345
0.200322 0.200322 0.200322
0.216300 0.216300 0.216300
0.232278 0.232278 0.232278
0.248256 0.248256 0.248256
0.264234 0.264234 0.264234
0.280212 0.280212 0.280212
0.296189 0.296189 0.296189
0.312167 0.312167 0.312167
0.328145 0.328145 0.328145
0.103868 0.103868 0.103868
0.119846 0.119846 0.119846
0.135823 0.135823 0.135823
0.151801 0.151801 0.151801
0.167779 0.167779 0.167779
0.183757 0.183757 0.183757
0.199735 0.199735 0.199735
0.215712 0.215712 0.215712
0.231690 0.231690 0.231690
0.247668 0.247668 0.247668
0.263646 0.263646 0.263646
0.279624 0.279624 0.279624
0.295602 0.295602 0.295602
0.311579 0.311579 0.311579
0.327557 0.327557 0.327557
0.343535 0.343535 0.343535
0.359513 0.359513 0.359513
0.135236 0.135236 0.135236
0.151213 0.151213 0.151213
0.167191 0.167191 0.167191
0.183169 0.183169 0.183169
0.199147 0.199147 0.199147
0.215125 0.215125 0.215125
0.231103 0.231103 0.231103
0.247080 0.247080 0.247080
0.263058 0.263058 0.263058
0.279036 0.279036 0.279036
0.295014 0.295014 0.295014
0.310992 0.310992 0.310992
0.326969 0.326969 0.326969
0.342947 0.342947 0.342947
0.358925 0.358925 0.358925
0.374903 0.374903 0.374903
0.390881 0.390881 0.390881
0.166603 0.166603 0.166603
0.182581 0.182581 0.182581
0.198559 0.198559 0.198559
0.214537 0.214537 0.214537
0.230515 0.230515 0.230515
0.246492 0.246492 0.246492
0.262470 0.262470 0.262470
0.278448 0.278448 0.278448
0.294426 0.294426 0.294426
0.310404 0.310404 0.310404
0.326382 0.326382 0.326382
0.342359 0.342359 0.342359
0.358337 0.358337 0.358337
0.374315 0.374315 0.374315
0.390293 0.390293 0.390293
0.406271 0.406271 0.406271
0.422248 0.422248 0.422248
0.197971 0.197971 0.197971
0.213949 0.213949 0.213949
0.229927 0.229927 0.229927
0.245905 0.245905 0.245905
0.261882 0.261882 0.261882
0.277860 0.277860 0.277860
0.293838 0.293838 0.293838
0.309816 0.309816 0.309816
0.325794 0.325794 0.325794
0.341772 0.341772 0.341772
0.357749 0.357749 0.357749
0.373727 0.373727 0.373727
0.389705 0.389705 0.389705
0.405683 0.405683 0.405683
0.421661 0.421661 0.421661
0.437638 0.437638 0.437638
0.453616 0.453616 0.453616
0.229339 0.229339 0.229339
0.245317 0.245317 0.245317
0.261295 0.261295 0.261295
0.277273 0.277273 0.277273
0.293250 0.293250 0.293250
0.309228 0.309228 0.309228
0.325206 0.325206 0.325206
0.341184 0.341184 0.341184
0.357162 0.357162 0.357162
0.373139 0.373139 0.373139
0.389117 0.389117 0.389117
0.405095 0.405095 0.405095
0.421073 0.421073 0.421073
0.437051 0.437051 0.437051
0.453028 0.453028 0.453028
0.469006 0.469006 0.469006
0.484984 0.484984 0.484984
0.260707 0.260707 0.260707
0.276685 0.276685 0.276685
0.292662 0.292662 0.292662
0.308640 0.308640 0.308640
0.324618 0.324618 0.324618
0.340596 0.340596 0.340596
0.356574 0.356574 0.356574
0.372552 0.372552 0.372552
0.388529 0.388529 0.388529
0.404507 0.404507 0.404507
0.420485 0.420485 0.420485
0.436463 0.436463 0.436463
0.452441 0.452441 0.452441
0.468418 0.468418 0.468418
0.484396 0.484396 0.484396
0.500374 0.500374 0.500374
0.516352 0.516352 0.516352
0.292075 0.292075 0.292075
0.308053 0.308053 0.308053
0.324030 0.324030 0.324030
0.340008 0.340008 0.340008
0.355986 0.355986 0.355986
0.371964 0.371964 0.371964
0.387942 0.387942 0.387942
0.403919 0.403919 0.403919
0.419897 0.419897 0.419897
0.435875 0.435875 0.435875
0.451853 0.451853 0.451853
0.467831 0.467831 0.467831
0.483808 0.483808 0.483808
0.499786 0.499786 0.499786
0.515764 0.515764 0.515764
0.531742 0.531742 0.531742
0.547720 0.547720 0.547720
0.323442 0.323442 0.323442
0.339420 0.339420 0.339420
0.355398 0.355398 0.355398
0.371376 0.371376 0.371376
0.387354 0.387354 0.387354
0.403332 0.403332 0.403332
0.419309 0.419309 0.419309
0.435287 0.435287 0.435287
0.451265 0.451265 0.451265
0.467243 0.467243 0.467243
0.483221 0.483221 0.483221
0.499198 0.499198 0.499198
0.515176 0.515176 0.515176
0.531154 0.531154 0.531154
0.547132 0.547132 0.547132
0.563110 0.563110 0.563110
0.579088 0.579088 0.579088
0.354810 0.354810 0.354810
0.370788 0.370788 0.370788
0.386766 0.386766 0.386766
0.402744 0.402744 0.402744
0.418722 0.418722 0.418722
0.434699 0.434699 0.434699
0.450677 0.450677 0.450677
0.466655 0.466655 0.466655
0.482633 0.482633 0.482633
0.498611 0.498611 0.498611
0.514588 0.514588 0.514588
0.530566 0.530566 0.530566
0.546544 0.546544 0.546544
0.562522 0.562522 0.562522
0.578500 0.578500 0.578500
0.594477 0.594477 0.594477
0.610455 0.610455 0.610455
0.386178 0.386178 0.386178
0.402156 0.402156 0.402156
0.418134 0.418134 0.418134
0.434112 0.434112 0.434112
0.450089 0.450089 0.450089
0.466067 0.466067 0.466067
0.482045 0.482045 0.482045
0.498023 0.498023 0.498023
0.514001 0.514001 0.514001
0.529978 0.529978 0.529978
0.545956 0.545956 0.545956
0.561934 0.561934 0.561934
0.577912 0.577912 0.577912
0.593890 0.593890 0.593890
0.609868 0.609868 0.609868
0.625845 0.625845 0.625845
0.641823 0.641823 0.641823
0.417546 0.417546 0.417546
0.433524 0.433524 0.433524
0.449502 0.449502 0.449502
0.465479 0.465479 0.465479
0.481457 0.481457 0.481457
0.497435 0.497435 0.497435
0.513413 0.513413 0.513413
0.529391 0.529391 0.529391
0.545368 0.545368 0.545368
0.561346 0.561346 0.561346
0.577324 0.577324 0.577324
0.593302 0.593302 0.593302
0.609280 0.609280 0.609280
0.625258 0.625258 0.625258
0.641235 0.641235 0.641235
0.657213 0.657213 0.657213
0.673191 0.673191 0.673191
0.448914 0.448914 0.448914
0.464892 0.464892 0.464892
0.480869 0.480869 0.480869
0.496847 0.496847 0.496847
0.512825 0.512825 0.512825
0.528803 0.528803 0.528803
0.544781 0.544781 0.544781
0.560758 0.560758 0.560758
0.576736 0.576736 0.576736
0.592714 0.592714 0.592714
0.608692 0.608692 0.608692
0.624670 0.624670 0.624670
0.640648 0.640648 0.640648
0.656625 0.656625 0.656625
0.672603 0.672603 0.672603
0.688581 0.688581 0.688581
0.704559 0.704559 0.704559
0.480282 0.480282 0.480282
0.496259 0.496259 0.496259
0.512237 0.512237 0.512237
0.528215 0.528215 0.528215
0.544193 0.544193 0.544193
0.560171 0.560171 0.560171
0.576148 0.576148 0.576148
0.592126 0.592126 0.592126
0.608104 0.608104 0.608104
0.624082 0.624082 0.624082
0.640060 0.640060 0.640060
0.656038 0.656038 0.656038
0.672015 0.672015 0.672015
0.687993 0.687993 0.687993
0.703971 0.703971 0.703971
0.719949 0.719949 0.719949
0.735927 0.735927 0.735927
0.511649 0.511649 0.511649
0.527627 0.527627 0.527627
0.543605 0.543605 0.543605
0.559583 0.559583 0.559583
0.575561 0.575561 0.575561
0.591538 0.591538 0.591538
0.607516 0.607516 0.607516
0.623494 0.623494 0.623494
0.639472 0.639472 0.639472
0.655450 0.655450 0.655450
0.671428 0.671428 0.671428
0.687405 0.687405 0.687405
0.703383 0.703383 0.703383
0.719361 0.719361 0.719361
0.735339 0.735339 0.735339
0.751317 0.751317 0.751317
0.767294 0.767294 0.767294
0.543017 0.543017 0.543017
0.558995 0.558995 0.558995
0.574973 0.574973 0.574973
0.590951 0.590951 0.590951
0.606928 0.606928 0.606928
0.622906 0.622906 0.622906
0.638884 0.638884 0.638884
0.654862 0.654862 0.654862
0.670840 0.670840 0.670840
0.686817 0.686817 0.686817
0.702795 0.702795 0.702795
0.718773 0.718773 0.718773
0.734751 0.734751 0.734751
0.750729 0.750729 0.750729
0.766707 0.766707 0.766707
0.782684 0.782684 0.782684
0.798662 0.798662 0.798662
0.574385 0.574385 0.574385
0.590363 0.590363 0.590363
0.606341 0.606341 0.606341
0.622318 0.622318 0.622318
0.638296 0.638296 0.638296
0.654274 0.654274 0.654274
0.670252 0.670252 0.670252
0.686230 0.686230 0.686230
0.702207 0.702207 0.702207
0.718185 0.718185 0.718185
0.734163 0.734163 0.734163
0.750141 0.750141 0.750141
0.766119 0.766119 0.766119
0.782097 0.782097 0.782097
0.798074 0.798074 0.798074
0.814052 0.814052 0.814052
0.830030 0.830030 0.830030
0.078592 0.078592 0.078592
0.094570 0.094570 0.094570
0.110547 0.110547 0.110547
0.126525 0.126525 0.126525
0.142503 0.142503 0.142503
0.158481 0.158481 0.158481
0.174459 0.174459 0.174459
0.190437 0.190437 0.190437
0.206414 0.206414 0.206414
0.222392 0.222392 0.222392
0.238370 0.238370 0.238370
0.254348 0.254348 0.254348
0.270326 0.270326 0.270326
0.286303 0.286303 0.286303
0.302281 0.302281 0.302281
0.318259 0.318259 0.318259
0.334237 0.334237 0.334237
0.109960 0.109960 0.109960
0.125938 0.125938 0.125938
0.141915 0.141915 0.141915
0.157893 0.157893 0.157893
0.173871 0.173871 0.173871
0.189849 0.189849 0.189849
0.205827 0.205827 0.205827
0.221804 0.221804 0.221804
0.237782 0.237782 0.237782
0.253760 0.253760 0.253760
0.269738 0.269738 0.269738
0.285716 0.285716 0.285716
0.301693 0.301693 0.301693
0.317671 0.317671 0.317671
0.333649 0.333649 0.333649
0.349627 0.349627 0.349627
0.365605 0.365605 0.365605
0.141327 0.141327 0.141327
0.157305 0.157305 0.157305
0.173283 0.173283 0.173283
0.189261 0.189261 0.189261
0.205239 0.205239 0.205239
0.221217 0.221217 0.221217
0.237194 0.237194 0.237194
0.253172 0.253172 0.253172
0.269150 0.269150 0.269150
0.285128 0.285128 0.285128
0.301106 0.301106 0.301106
0.317083 0.317083 0.317083
0.333061 0.333061 0.333061
0.349039 0.349039 0.349039
0.365017 0.365017 0.365017
0.380995 0.380995 0.380995
0.396973 0.396973 0.396973
0.172695 0.172695 0.172695
0.188673 0.188673 0.188673
0.204651 0.204651 0.204651
0.220629 0.220629 0.220629
0.236607 0.236607 0.236607
0.252584 0.252584 0.252584
0.268562 0.268562 0.268562
0.284540 0.284540 0.284540
0.300518 0.300518 0.300518
0.316496 0.316496 0.316496
0.332473 0.332473 0.332473
0.348451 0.348451 0.348451
0.364429 0.364429 0.364429
0.380407 0.380407 0.380407
0.396385 0.396385 0.396385
0.412362 0.412362 0.412362
0.428340 0.428340 0.428340
0.204063 0.204063 0.204063
0.220041 0.220041 0.220041
0.236019 0.236019 0.236019
0.251997 0.251997 0.251997
0.267974 0.267974 0.267974
0.283952 0.283952 0.283952
0.299930 0.299930 0.299930
0.315908 0.315908 0.315908
0.331886 0.331886 0.331886
0.347863 0.347863 0.347863
0.363841 0.363841 0.363841
0.379819 0.379819 0.379819
0.395797 0.395797 0.395797
0.411775 0.411775 0.411775
0.427752 0.427752 0.427752
0.443730 0.443730 0.443730
0.459708 0.459708 0.459708
0.235431 0.235431 0.235431
0.251409 0.251409 0.251409
0.267387 0.267387 0.267387
0.283364 0.283364 0.283364
0.299342 0.299342 0.299342
0.315320 0.315320 0.315320
0.331298 0.331298 0.331298
0.347276 0.347276 0.347276
0.363253 0.363253 0.363253
0.379231 0.379231 0.379231
0.395209 0.395209 0.395209
0.411187 0.411187 0.411187
0.427165 0.427165 0.427165
0.443142 0.443142 0.443142
0.459120 0.459120 0.459120
0.475098 0.475098 0.475098
0.491076 0.491076 0.491076
0.266799 0.266799 0.266799
0.282777 0.282777 0.282777
0.298754 0.298754 0.298754
0.314732 0.314732 0.314732
0.330710 0.330710 0.330710
0.346688 0.346688 0.346688
0.362666 0.362666 0.362666
0.378643 0.378643 0.378643
0.394621 0.394621 0.394621
0.410599 0.410599 0.410599
0.426577 0.426577 0.426577
0.442555 0.442555 0.442555
0.458532 0.458532 0.458532
0.474510 0.474510 0.474510
0.490488 0.490488 0.490488
0.506466 0.506466 0.506466
0.522444 0.522444 0.522444
0.298167 0.298167 0.298167
0.314144 0.314144 0.314144
0.330122 0.330122 0.330122
0.346100 0.346100 0.346100
0.362078 0.362078 0.362078
0.378056 0.378056 0.378056
0.394033 0.394033 0.394033
0.410011 0.410011 0.410011
0.425989 0.425989 0.425989
0.441967 0.441967 0.441967
0.457945 0.457945 0.457945
0.473922 0.473922 0.473922
0.489900 0.489900 0.489900
0.505878 0.505878 0.505878
0.521856 0.521856 0.521856
0.537834 0.537834 0.537834
0.553812 0.553812 0.553812
0.329534 0.329534 0.329534
0.345512 0.345512 0.345512
0.361490 0.361490 0.361490
0.377468 0.377468 0.377468
0.393446 0.393446 0.393446
0.409423 0.409423 0.409423
0.425401 0.425401 0.425401
0.441379 0.441379 0.441379
0.457357 0.457357 0.457357
0.473335 0.473335 0.473335
0.489312 0.489312 0.489312
0.505290 0.505290 0.505290
0.521268 0.521268 0.521268
0.537246 0.537246 0.537246
0.553224 0.553224 0.553224
0.569202 0.569202 0.569202
0.585179 0.585179 0.585179
0.360902 0.360902 0.360902
0.376880 0.376880 0.376880
0.392858 0.392858 0.392858
0.408836 0.408836 0.408836
0.424813 0.424813 0.424813
0.440791 0.440791 0.440791
0.456769 0.456769 0.456769
0.472747 0.472747 0.472747
0.488725 0.488725 0.488725
0.504702 0.504702 0.504702
0.520680 0.520680 0.520680
0.536658 0.536658 0.536658
0.552636 0.552636 0.552636
0.568614 0.568614 0.568614
0.584592 0.584592 0.584592
0.600569 0.600569 0.600569
0.616547 0.616547 0.616547
0.392270 0.392270 0.392270
0.408248 0.408248 0.408248
0.424226 0.424226 0.424226
0.440203 0.440203 0.440203
0.456181 0.456181 0.456181
0.472159 0.472159 0.472159
0.488137 0.488137 0.488137
0.504115 0.504115 0.504115
0.520092 0.520092 0.520092
0.536070 0.536070 0.536070
0.552048 0.552048 0.552048
0.568026 0.568026 0.568026
0.584004 0.584004 0.584004
0.599982 0.599982 0.599982
0.615959 0.615959 0.615959
0.631937 0.631937 0.631937
0.647915 0.647915 0.647915
0.423638 0.423638 0.423638
0.439616 0.439616 0.439616
0.455593 0.455593 0.455593
0.471571 0.471571 0.471571
0.487549 0.487549 0.487549
0.503527 0.503527 0.503527
0.519505 0.519505 0.519505
0.535483 0.535483 0.535483
0.551460 0.551460 0.551460
0.567438 0.567438 0.567438
0.583416 0.583416 0.583416
0.599394 0.599394 0.599394
0.615372 0.615372 0.615372
0.631349 0.631349 0.631349
0.647327 0.647327 0.647327
0.663305 0.663305 0.663305
0.679283 0.679283 0.679283
0.455006 0.455006 0.455006
0.470983 0.470983 0.470983
0.486961 0.486961 0.486961
0.502939 0.502939 0.502939
0.518917 0.518917 0.518917
0.534895 0.534895 0.534895
0.550873 0.550873 0.550873
0.566850 0.566850 0.566850
0.582828 0.582828 0.582828
0.598806 0.598806 0.598806
0.614784 0.614784 0.614784
0.630762 0.630762 0.630762
0.646739 0.646739 0.646739
0.662717 0.662717 0.662717
0.678695 0.678695 0.678695
0.694673 0.694673 0.694673
0.710651 0.710651 0.710651
0.486373 0.486373 0.486373
0.502351 0.502351 0.502351
0.518329 0.518329 0.518329
0.534307 0.534307 0.534307
0.550285 0.550285 0.550285
0.566263 0.566263 0.566263
0.582240 0.582240 0.582240
0.598218 0.598218 0.598218
0.614196 0.614196 0.614196
0.630174 0.630174 0.630174
0.646152 0.646152 0.646152
0.662129 0.662129 0.662129
0.678107 0.678107 0.678107
0.694085 0.694085 0.694085
0.710063 0.710063 0.710063
0.726041 0.726041 0.726041
0.742018 0.742018 0.742018
0.517741 0.517741 0.517741
0.533719 0.533719 0.533719
0.549697 0.549697 0.549697
0.565675 0.565675 0.565675
0.581653 0.581653 0.581653
0.597630 0.597630 0.597630
0.613608 0.613608 0.613608
0.629586 0.629586 0.629586
0.645564 0.645564 0.645564
0.661542 0.661542 0.661542
0.677519 0.677519 0.677519
0.693497 0.693497 0.693497
0.709475 0.709475 0.709475
0.725453 0.725453 0.725453
0.741431 0.741431 0.741431
0.757408 0.757408 0.757408
0.773386 0.773386 0.773386
0.549109 0.549109 0.549109
0.565087 0.565087 0.565087
0.581065 0.581065 0.581065
0.597043 0.597043 0.597043
0.613020 0.613020 0.613020
0.628998 0.628998 0.628998
0.644976 0.644976 0.644976
0.660954 0.660954 0.660954
0.676932 0.676932 0.676932
0.692909 0.692909 0.692909
0.708887 0.708887 0.708887
0.724865 0.724865 0.724865
0.740843 0.740843 0.740843
0.756821 0.756821 0.756821
0.772798 0.772798 0.772798
0.788776 0.788776 0.788776
0.804754 0.804754 0.804754
0.580477 0.580477 0.580477
0.596455 0.596455 0.596455
0.612433 0.612433 0.612433
0.628410 0.628410 0.628410
0.644388 0.644388 0.644388
0.660366 0.660366 0.660366
0.676344 0.676344 0.676344
0.692322 0.692322 0.692322
0.708299 0.708299 0.708299
0.724277 0.724277 0.724277
0.740255 0.740255 0.740255
0.756233 0.756233 0.756233
0.772211 0.772211 0.772211
0.788188 0.788188 0.788188
0.804166 0.804166 0.804166
0.820144 0.820144 0.820144
0.836122 0.836122 0.836122
0.084684 0.084684 0.084684
0.100662 0.100662 0.100662
0.116639 0.116639 0.116639
0.132617 0.132617 0.132617
0.148595 0.148595 0.148595
0.164573 0.164573 0.164573
0.180551 0.180551 0.180551
0.196528 0.196528 0.196528
0.212506 0.212506 0.212506
0.228484 0.228484 0.228484
0.244462 0.244462 0.244462
0.260440 0.260440 0.260440
0.276417 0.276417 0.276417
0.292395 0.292395 0.292395
0.308373 0.308373 0.308373
0.324351 0.324351 0.324351
0.340329 0.340329 0.340329
0.116052 0.116052 0.116052
0.132029 0.132029 0.132029
0.148007 0.148007 0.148007
0.163985 0.163985 0.163985
0.179963 0.179963 0.179963
0.195941 0.195941 0.195941
0.211918 0.211918 0.211918
0.227896 0.227896 0.227896
0.243874 0.243874 0.243874
0.259852 0.259852 0.259852
0.275830 0.275830 0.275830
0.291807 0.291807 0.291807
0.307785 0.307785 0.307785
0.323763 0.323763 0.323763
0.339741 0.339741 0.339741
0.355719 0.355719 0.355719
0.371697 0.371697 0.371697
0.147419 0.147419 0.147419
0.163397 0.163397 0.163397
0.179375 0.179375 0.179375
0.195353 0.195353 0.195353
0.211331 0.211331 0.211331
0.227308 0.227308 0.227308
0.243286 0.243286 0.243286
0.259264 0.259264 0.259264
0.275242 0.275242 0.275242
0.291220 0.291220 0.291220
0.307198 0.307198 0.307198
0.323175 0.323175 0.323175
0.339153 0.339153 0.339153
0.355131 0.355131 0.355131
0.371109 0.371109 0.371109
0.387087 0.387087 0.387087
0.403064 0.403064 0.403064
0.178787 0.178787 0.178787
0.194765 0.194765 0.194765
0.210743 0.210743 0.210743
0.226721 0.226721 0.226721
0.242698 0.242698 0.242698
0.258676 0.258676 0.258676
0.274654 0.274654 0.274654
0.290632 0.290632 0.290632
0.306610 0.306610 0.306610
0.322587 0.322587 0.322587
0.338565 0.338565 0.338565
0.354543 0.354543 0.354543
0.370521 0.370521 0.370521
0.386499 0.386499 0.386499
0.402477 0.402477 0.402477
0.418454 0.418454 0.418454
0.434432 0.434432 0.434432
0.210155 0.210155 0.210155
0.226133 0.226133 0.226133
0.242111 0.242111 0.242111
0.258088 0.258088 0.258088
0.274066 0.274066 0.274066
0.290044 0.290044 0.290044
0.306022 0.306022 0.306022
0.322000 0.322000 0.322000
0.337978 0.337978 0.337978
0.353955 0.353955 0.353955
0.369933 0.369933 0.369933
0.385911 0.385911 0.385911
0.401889 0.401889 0.401889
0.417867 0.417867 0.417867
0.433844 0.433844 0.433844
0.449822 0.449822 0.449822
0.465800 0.465800 0.465800
0.241523 0.241523 0.241523
0.257501 0.257501 0.257501
0.273478 0.273478 0.273478
0.289456 0.289456 0.289456
0.305434 0.305434 0.305434
0.321412 0.321412 0.321412
0.337390 0.337390 0.337390
0.353367 0.353367 0.353367
0.369345 0.369345 0.369345
0.385323 0.385323 0.385323
0.401301 0.401301 0.401301
0.417279 0.417279 0.417279
0.433257 0.433257 0.433257
0.449234 0.449234 0.449234
0.465212 0.465212 0.465212
0.481190 0.481190 0.481190
0.497168 0.497168 0.497168
0.272891 0.272891 0.272891
0.288868 0.288868 0.288868
0.304846 0.304846 0.304846
0.320824 0.320824 0.320824
0.336802 0.336802 0.336802
0.352780 0.352780 0.352780
0.368757 0.368757 0.368757
0.384735 0.384735 0.384735
0.400713 0.400713 0.400713
0.416691 0.416691 0.416691
0.432669 0.432669 0.432669
0.448647 0.448647 0.448647
0.464624 0.464624 0.464624
0.480602 0.480602 0.480602
0.496580 0.496580 0.496580
0.512558 0.512558 0.512558
0.528536 0.528536 0.528536
0.304258 0.304258 0.304258
0.320236 0.320236 0.320236
0.336214 0.336214 0.336214
0.352192 0.352192 0.352192
0.368170 0.368170 0.368170
0.384147 0.384147 0.384147
0.400125 0.400125 0.400125
0.416103 0.416103 0.416103
0.432081 0.432081 0.432081
0.448059 0.448059 0.448059
0.464037 0.464037 0.464037
0.480014 0.480014 0.480014
0.495992 0.495992 0.495992
0.511970 0.511970 0.511970
0.527948 0.527948 0.527948
0.543926 0.543926 0.543926
0.559903 0.559903 0.559903
0.335626 0.335626 0.335626
0.351604 0.351604 0.351604
0.367582 0.367582 0.367582
0.383560 0.383560 0.383560
0.399537 0.399537 0.399537
0.415515 0.415515 0.415515
0.431493 0.431493 0.431493
0.447471 0.447471 0.447471
0.463449 0.463449 0.463449
0.479427 0.479427 0.479427
0.495404 0.495404 0.495404
0.511382 0.511382 0.511382
0.527360 0.527360 0.527360
0.543338 0.543338 0.543338
0.559316 0.559316 0.559316
0.575293 0.575293 0.575293
0.591271 0.591271 0.591271
0.366994 0.366994 0.366994
0.382972 0.382972 0.382972
0.398950 0.398950 0.398950
0.414928 0.414928 0.414928
0.430905 0.430905 0.430905
0.446883 0.446883 0.446883
0.462861 0.462861 0.462861
0.478839 0.478839 0.478839
0.494817 0.494817 0.494817
0.510794 0.510794 0.510794
0.526772 0.526772 0.526772
0.542750 0.542750 0.542750
0.558728 0.558728 0.558728
0.574706 0.574706 0.574706
0.590683 0.590683 0.590683
0.606661 0.606661 0.606661
0.622639 0.622639 0.622639
0.398362 0.398362 0.398362
0.414340 0.414340 0.414340
0.430317 0.430317 0.430317
0.446295 0.446295 0.446295
0.462273 0.462273 0.462273
0.478251 0.478251 0.478251
0.494229 0.494229 0.494229
0.510207 0.510207 0.510207
0.526184 0.526184 0.526184
0.542162 0.542162 0.542162
0.558140 0.558140 0.558140
0.574118 0.574118 0.574118
0.590096 0.590096 0.590096
0.606073 0.606073 0.606073
0.622051 0.622051 0.622051
0.638029 0.638029 0.638029
0.654007 0.654007 0.654007
0.429730 0.429730 0.429730
0.445708 0.445708 0.445708
0.461685 0.461685 0.461685
0.477663 0.477663 0.477663
0.493641 0.493641 0.493641
0.509619 0.509619 0.509619
0.525597 0.525597 0.525597
0.541574 0.541574 0.541574
0.557552 0.557552 0.557552
0.573530 0.573530 0.573530
0.589508 0.589508 0.589508
0.605486 0.605486 0.605486
0.621463 0.621463 0.621463
0.637441 0.637441 0.637441
0.653419 0.653419 0.653419
0.669397 0.669397 0.669397
0.685375 0.685375 0.685375
0.461097 0.461097 0.461097
0.477075 0.477075 0.477075
0.493053 0.493053 0.493053
0.509031 0.509031 0.509031
0.525009 0.525009 0.525009
0.540987 0.540987 0.540987
0.556964 0.556964 0.556964
0.572942 0.572942 0.572942
0.588920 0.588920 0.588920
0.604898 0.604898 0.604898
0.620876 0.620876 0.620876
0.636853 0.636853 0.636853
0.652831 0.652831 0.652831
0.668809 0.668809 0.668809
0.684787 0.684787 0.684787
0.700765 0.700765 0.700765
0.716742 0.716742 0.716742
0.492465 0.492465 0.492465
0.508443 0.508443 0.508443
0.524421 0.524421 0.524421
0.540399 0.540399 0.540399
0.556377 0.556377 0.556377
0.572354 0.572354 0.572354
0.588332 0.588332 0.588332
0.604310 0.604310 0.604310
0.620288 0.620288 0.620288
0.636266 0.636266 0.636266
0.652243 0.652243 0.652243
0.668221 0.668221 0.668221
0.684199 0.684199 0.684199
0.700177 0.700177 0.700177
0.716155 0.716155 0.716155
0.732133 0.732133 0.732133
0.748110 0.748110 0.748110
0.523833 0.523833 0.523833
0.539811 0.539811 0.539811
0.555789 0.555789 0.555789
0.571767 0.571767 0.571767
0.587744 0.587744 0.587744
0.603722 0.603722 0.603722
0.619700 0.619700 0.619700
0.635678 0.635678 0.635678
0.651656 0.651656 0.651656
0.667633 0.667633 0.667633
0.683611 0.683611 0.683611
0.699589 0.699589 0.699589
0.715567 0.715567 0.715567
0.731545 0.731545 0.731545
0.747523 0.747523 0.747523
0.763500 0.763500 0.763500
0.779478 0.779478 0.779478
0.555201 0.555201 0.555201
0.571179 0.571179 0.571179
0.587157 0.587157 0.587157
0.603134 0.603134 0.603134
0.619112 0.619112 0.619112
0.635090 0.635090 0.635090
0.651068 0.651068 0.651068
0.667046 0.667046 0.667046
0.683023 0.683023 0.683023
0.699001 0.699001 0.699001
0.714979 0.714979 0.714979
0.730957 0.730957 0.730957
0.746935 0.746935 0.746935
0.762912 0.762912 0.762912
0.778890 0.778890 0.778890
0.794868 0.794868 0.794868
0.810846 0.810846 0.810846
0.586569 0.586569 0.586569
0.602547 0.602547 0.602547
0.618524 0.618524 0.618524
0.634502 0.634502 0.634502
0.650480 0.650480 0.650480
0.666458 0.666458 0.666458
0.682436 0.682436 0.682436
0.698413 0.698413 0.698413
0.714391 0.714391 0.714391
0.730369 0.730369 0.730369
0.746347 0.746347 0.746347
0.762325 0.762325 0.762325
0.778303 0.778303 0.778303
0.794280 0.794280 0.794280
0.810258 0.810258 0.810258
0.826236 0.826236 0.826236
0.842214 0.842214 0.842214
0.090776 0.090776 0.090776
0.106753 0.106753 0.106753
0.122731 0.122731 0.122731
0.138709 0.138709 0.138709
0.154687 0.154687 0.154687
0.170665 0.170665 0.170665
0.186643 0.186643 0.186643
0.202620 0.202620 0.202620
0.218598 0.218598 0.218598
0.234576 0.234576 0.234576
0.250554 0.250554 0.250554
0.266532 0.266532 0.266532
0.282509 0.282509 0.282509
0.298487 0.298487 0.298487
0.314465 0.314465 0.314465
0.330443 0.330443 0.330443
0.346421 0.346421 0.346421
0.122143 0.122143 0.122143
0.138121 0.138121 0.138121
0.154099 0.154099 0.154099
