assets/luts/bw_dust.cube
TITLE "Film Dust"
LUT_3D_SIZE 17
0.067464 0.067464 0.067464
0.087140 0.087140 0.087140
0.106329 0.106329 0.106329
0.125139 0.125139 0.125139
0.143638 0.143638 0.143638
0.161876 0.161876 0.161876
0.179888 0.179888 0.179888
0.197701 0.197701 0.197701
0.215337 0.215337 0.215337
0.232814 0.232814 0.232814
0.250146 0.250146 0.250146
0.267346 0.267346 0.267346
0.284423 0.284423 0.284423
0.301387 0.301387 0.301387
0.318246 0.318246 0.318246
0.335006 0.335006 0.335006
0.351674 0.351674 0.351674
0.105630 0.105630 0.105630
0.124453 0.124453 0.124453
0.142963 0.142963 0.142963
0.161209 0.161209 0.161209
0.179229 0.179229 0.179229
0.197048 0.197048 0.197048
0.214691 0.214691 0.214691
0.232173 0.232173 0.232173
0.249511 0.249511 0.249511
0.266715 0.266715 0.266715
0.283797 0.283797 0.283797
0.300765 0.300765 0.300765
0.317628 0.317628 0.317628
0.334391 0.334391 0.334391
0.351062 0.351062 0.351062
0.367645 0.367645 0.367645
0.384146 0.384146 0.384146
0.142287 0.142287 0.142287
0.160542 0.160542 0.160542
0.178569 0.178569 0.178569
0.196396 0.196396 0.196396
0.214045 0.214045 0.214045
0.231533 0.231533 0.231533
0.248875 0.248875 0.248875
0.266084 0.266084 0.266084
0.283171 0.283171 0.283171
0.300143 0.300143 0.300143
0.317009 0.317009 0.317009
0.333776 0.333776 0.333776
0.350450 0.350450 0.350450
0.367037 0.367037 0.367037
0.383540 0.383540 0.383540
0.399965 0.399965 0.399965
0.416315 0.416315 0.416315
0.177910 0.177910 0.177910
0.195744 0.195744 0.195744
0.213398 0.213398 0.213398
0.230892 0.230892 0.230892
0.248240 0.248240 0.248240
0.265454 0.265454 0.265454
0.282544 0.282544 0.282544
0.299520 0.299520 0.299520
0.316390 0.316390 0.316390
0.333161 0.333161 0.333161
0.349838 0.349838 0.349838
0.366428 0.366428 0.366428
0.382934 0.382934 0.382934
0.399362 0.399362 0.399362
0.415715 0.415715 0.415715
0.431996 0.431996 0.431996
0.448210 0.448210 0.448210
0.212752 0.212752 0.212752
0.230251 0.230251 0.230251
0.247604 0.247604 0.247604
0.264822 0.264822 0.264822
0.281917 0.281917 0.281917
0.298898 0.298898 0.298898
0.315772 0.315772 0.315772
0.332546 0.332546 0.332546
0.349226 0.349226 0.349226
0.365819 0.365819 0.365819
0.382328 0.382328 0.382328
0.398759 0.398759 0.398759
0.415114 0.415114 0.415114
0.431399 0.431399 0.431399
0.447615 0.447615 0.447615
0.463766 0.463766 0.463766
0.479855 0.479855 0.479855
0.246968 0.246968 0.246968
0.264191 0.264191 0.264191
0.281291 0.281291 0.281291
0.298275 0.298275 0.298275
0.315153 0.315153 0.315153
0.331930 0.331930 0.331930
0.348614 0.348614 0.348614
0.365210 0.365210 0.365210
0.381722 0.381722 0.381722
0.398156 0.398156 0.398156
0.414514 0.414514 0.414514
0.430801 0.430801 0.430801
0.447019 0.447019 0.447019
0.463173 0.463173 0.463173
0.479264 0.479264 0.479264
0.495295 0.495295 0.495295
0.511269 0.511269 0.511269
0.280664 0.280664 0.280664
0.297652 0.297652 0.297652
0.314534 0.314534 0.314534
0.331315 0.331315 0.331315
0.348002 0.348002 0.348002
0.364601 0.364601 0.364601
0.381116 0.381116 0.381116
0.397552 0.397552 0.397552
0.413913 0.413913 0.413913
0.430203 0.430203 0.430203
0.446424 0.446424 0.446424
0.462580 0.462580 0.462580
0.478673 0.478673 0.478673
0.494707 0.494707 0.494707
0.510683 0.510683 0.510683
0.526603 0.526603 0.526603
0.542470 0.542470 0.542470
0.313914 0.313914 0.313914
0.330699 0.330699 0.330699
0.347390 0.347390 0.347390
0.363992 0.363992 0.363992
0.380510 0.380510 0.380510
0.396949 0.396949 0.396949
0.413313 0.413313 0.413313
0.429605 0.429605 0.429605
0.445828 0.445828 0.445828
0.461986 0.461986 0.461986
0.478082 0.478082 0.478082
0.494118 0.494118 0.494118
0.510096 0.510096 0.510096
0.526018 0.526018 0.526018
0.541888 0.541888 0.541888
0.557705 0.557705 0.557705
0.573473 0.573473 0.573473
0.346777 0.346777 0.346777
0.363383 0.363383 0.363383
0.379904 0.379904 0.379904
0.396346 0.396346 0.396346
0.412712 0.412712 0.412712
0.429007 0.429007 0.429007
0.445233 0.445233 0.445233
0.461393 0.461393 0.461393
0.477491 0.477491 0.477491
0.493529 0.493529 0.493529
0.509509 0.509509 0.509509
0.525434 0.525434 0.525434
0.541305 0.541305 0.541305
0.557124 0.557124 0.557124
0.572894 0.572894 0.572894
0.588616 0.588616 0.588616
0.604291 0.604291 0.604291
0.379298 0.379298 0.379298
0.395742 0.395742 0.395742
0.412111 0.412111 0.412111
0.428408 0.428408 0.428408
0.444637 0.444637 0.444637
0.460800 0.460800 0.460800
0.476900 0.476900 0.476900
0.492940 0.492940 0.492940
0.508922 0.508922 0.508922
0.524849 0.524849 0.524849
0.540722 0.540722 0.540722
0.556543 0.556543 0.556543
0.572315 0.572315 0.572315
0.588038 0.588038 0.588038
0.603715 0.603715 0.603715
0.619347 0.619347 0.619347
0.634935 0.634935 0.634935
0.411510 0.411510 0.411510
0.427810 0.427810 0.427810
0.444041 0.444041 0.444041
0.460206 0.460206 0.460206
0.476309 0.476309 0.476309
0.492351 0.492351 0.492351
0.508335 0.508335 0.508335
0.524264 0.524264 0.524264
0.540139 0.540139 0.540139
0.555962 0.555962 0.555962
0.571735 0.571735 0.571735
0.587461 0.587461 0.587461
0.603139 0.603139 0.603139
0.618773 0.618773 0.618773
0.634362 0.634362 0.634362
0.649910 0.649910 0.649910
0.665416 0.665416 0.665416
0.443445 0.443445 0.443445
0.459613 0.459613 0.459613
0.475717 0.475717 0.475717
0.491762 0.491762 0.491762
0.507748 0.507748 0.507748
0.523679 0.523679 0.523679
0.539556 0.539556 0.539556
0.555381 0.555381 0.555381
0.571156 0.571156 0.571156
0.586883 0.586883 0.586883
0.602563 0.602563 0.602563
0.618198 0.618198 0.618198
0.633790 0.633790 0.633790
0.649338 0.649338 0.649338
0.664846 0.664846 0.664846
0.680313 0.680313 0.680313
0.695742 0.695742 0.695742
0.475126 0.475126 0.475126
0.491172 0.491172 0.491172
0.507161 0.507161 0.507161
0.523094 0.523094 0.523094
0.538972 0.538972 0.538972
0.554800 0.554800 0.554800
0.570577 0.570577 0.570577
0.586305 0.586305 0.586305
0.601987 0.601987 0.601987
0.617624 0.617624 0.617624
0.633217 0.633217 0.633217
0.648767 0.648767 0.648767
0.664276 0.664276 0.664276
0.679745 0.679745 0.679745
0.695175 0.695175 0.695175
0.710567 0.710567 0.710567
0.725921 0.725921 0.725921
0.506574 0.506574 0.506574
0.522508 0.522508 0.522508
0.538389 0.538389 0.538389
0.554218 0.554218 0.554218
0.569997 0.569997 0.569997
0.585727 0.585727 0.585727
0.601411 0.601411 0.601411
0.617049 0.617049 0.617049
0.632644 0.632644 0.632644
0.648196 0.648196 0.648196
0.663706 0.663706 0.663706
0.679177 0.679177 0.679177
0.694608 0.694608 0.694608
0.710001 0.710001 0.710001
0.725357 0.725357 0.725357
0.740677 0.740677 0.740677
0.755962 0.755962 0.755962
0.537806 0.537806 0.537806
0.553637 0.553637 0.553637
0.569417 0.569417 0.569417
0.585150 0.585150 0.585150
0.600835 0.600835 0.600835
0.616475 0.616475 0.616475
0.632071 0.632071 0.632071
0.647624 0.647624 0.647624
0.663136 0.663136 0.663136
0.678608 0.678608 0.678608
0.694041 0.694041 0.694041
0.709435 0.709435 0.709435
0.724793 0.724793 0.724793
0.740114 0.740114 0.740114
0.755401 0.755401 0.755401
0.770653 0.770653 0.770653
0.785871 0.785871 0.785871
0.568838 0.568838 0.568838
0.584572 0.584572 0.584572
0.600259 0.600259 0.600259
0.615900 0.615900 0.615900
0.631498 0.631498 0.631498
0.647053 0.647053 0.647053
0.662566 0.662566 0.662566
0.678040 0.678040 0.678040
0.693474 0.693474 0.693474
0.708870 0.708870 0.708870
0.724229 0.724229 0.724229
0.739551 0.739551 0.739551
0.754839 0.754839 0.754839
0.770092 0.770092 0.770092
0.785312 0.785312 0.785312
0.800499 0.800499 0.800499
0.815654 0.815654 0.815654
0.599682 0.599682 0.599682
0.615326 0.615326 0.615326
0.630925 0.630925 0.630925
0.646481 0.646481 0.646481
0.661996 0.661996 0.661996
0.677471 0.677471 0.677471
0.692907 0.692907 0.692907
0.708304 0.708304 0.708304
0.723664 0.723664 0.723664
0.738988 0.738988 0.738988
0.754277 0.754277 0.754277
0.769532 0.769532 0.769532
0.784753 0.784753 0.784753
0.799941 0.799941 0.799941
0.815097 0.815097 0.815097
0.830222 0.830222 0.830222
0.845317 0.845317 0.845317
0.075032 0.075032 0.075032
0.094506 0.094506 0.094506
0.113541 0.113541 0.113541
0.132226 0.132226 0.132226
0.150620 0.150620 0.150620
0.168768 0.168768 0.168768
0.186701 0.186701 0.186701
0.204445 0.204445 0.204445
0.222018 0.222018 0.222018
0.239438 0.239438 0.239438
0.256719 0.256719 0.256719
0.273871 0.273871 0.273871
0.290904 0.290904 0.290904
0.307827 0.307827 0.307827
0.324648 0.324648 0.324648
0.341372 0.341372 0.341372
0.358005 0.358005 0.358005
0.112847 0.112847 0.112847
0.131544 0.131544 0.131544
0.149948 0.149948 0.149948
0.168105 0.168105 0.168105
0.186045 0.186045 0.186045
0.203795 0.203795 0.203795
0.221374 0.221374 0.221374
0.238800 0.238800 0.238800
0.256085 0.256085 0.256085
0.273242 0.273242 0.273242
0.290279 0.290279 0.290279
0.307206 0.307206 0.307206
0.324031 0.324031 0.324031
0.340758 0.340758 0.340758
0.357395 0.357395 0.357395
0.373946 0.373946 0.373946
0.390416 0.390416 0.390416
0.149276 0.149276 0.149276
0.167441 0.167441 0.167441
0.185388 0.185388 0.185388
0.203145 0.203145 0.203145
0.220731 0.220731 0.220731
0.238162 0.238162 0.238162
0.255452 0.255452 0.255452
0.272613 0.272613 0.272613
0.289655 0.289655 0.289655
0.306586 0.306586 0.306586
0.323413 0.323413 0.323413
0.340144 0.340144 0.340144
0.356784 0.356784 0.356784
0.373338 0.373338 0.373338
0.389811 0.389811 0.389811
0.406207 0.406207 0.406207
0.422530 0.422530 0.422530
0.184732 0.184732 0.184732
0.202495 0.202495 0.202495
0.220086 0.220086 0.220086
0.237523 0.237523 0.237523
0.254818 0.254818 0.254818
0.271984 0.271984 0.271984
0.289030 0.289030 0.289030
0.305965 0.305965 0.305965
0.322796 0.322796 0.322796
0.339530 0.339530 0.339530
0.356174 0.356174 0.356174
0.372731 0.372731 0.372731
0.389207 0.389207 0.389207
0.405605 0.405605 0.405605
0.421931 0.421931 0.421931
0.438186 0.438186 0.438186
0.454375 0.454375 0.454375
0.219442 0.219442 0.219442
0.236884 0.236884 0.236884
0.254184 0.254184 0.254184
0.271354 0.271354 0.271354
0.288405 0.288405 0.288405
0.305343 0.305343 0.305343
0.322179 0.322179 0.322179
0.338916 0.338916 0.338916
0.355563 0.355563 0.355563
0.372123 0.372123 0.372123
0.388602 0.388602 0.388602
0.405003 0.405003 0.405003
0.421331 0.421331 0.421331
0.437589 0.437589 0.437589
0.453780 0.453780 0.453780
0.469907 0.469907 0.469907
0.485973 0.485973 0.485973
0.253550 0.253550 0.253550
0.270725 0.270725 0.270725
0.287779 0.287779 0.287779
0.304722 0.304722 0.304722
0.321561 0.321561 0.321561
0.338302 0.338302 0.338302
0.354952 0.354952 0.354952
0.371515 0.371515 0.371515
0.387997 0.387997 0.387997
0.404401 0.404401 0.404401
0.420732 0.420732 0.420732
0.436992 0.436992 0.436992
0.453186 0.453186 0.453186
0.469315 0.469315 0.469315
0.485383 0.485383 0.485383
0.501392 0.501392 0.501392
0.517345 0.517345 0.517345
0.287154 0.287154 0.287154
0.304101 0.304101 0.304101
0.320943 0.320943 0.320943
0.337688 0.337688 0.337688
0.354341 0.354341 0.354341
0.370907 0.370907 0.370907
0.387392 0.387392 0.387392
0.403799 0.403799 0.403799
0.420132 0.420132 0.420132
0.436395 0.436395 0.436395
0.452591 0.452591 0.452591
0.468723 0.468723 0.468723
0.484793 0.484793 0.484793
0.500804 0.500804 0.500804
0.516759 0.516759 0.516759
0.532659 0.532659 0.532659
0.548507 0.548507 0.548507
0.320325 0.320325 0.320325
0.337074 0.337074 0.337074
0.353730 0.353730 0.353730
0.370299 0.370299 0.370299
0.386787 0.386787 0.386787
0.403197 0.403197 0.403197
0.419533 0.419533 0.419533
0.435798 0.435798 0.435798
0.451996 0.451996 0.451996
0.468131 0.468131 0.468131
0.484203 0.484203 0.484203
0.500216 0.500216 0.500216
0.516173 0.516173 0.516173
0.532075 0.532075 0.532075
0.547924 0.547924 0.547924
0.563723 0.563723 0.563723
0.579473 0.579473 0.579473
0.353119 0.353119 0.353119
0.369691 0.369691 0.369691
0.386182 0.386182 0.386182
0.402594 0.402594 0.402594
0.418933 0.418933 0.418933
0.435201 0.435201 0.435201
0.451402 0.451402 0.451402
0.467538 0.467538 0.467538
0.483613 0.483613 0.483613
0.499628 0.499628 0.499628
0.515587 0.515587 0.515587
0.531491 0.531491 0.531491
0.547342 0.547342 0.547342
0.563143 0.563143 0.563143
0.578894 0.578894 0.578894
0.594598 0.594598 0.594598
0.610256 0.610256 0.610256
0.385577 0.385577 0.385577
0.401992 0.401992 0.401992
0.418333 0.418333 0.418333
0.434604 0.434604 0.434604
0.450807 0.450807 0.450807
0.466946 0.466946 0.466946
0.483022 0.483022 0.483022
0.499040 0.499040 0.499040
0.515001 0.515001 0.515001
0.530907 0.530907 0.530907
0.546760 0.546760 0.546760
0.562562 0.562562 0.562562
0.578315 0.578315 0.578315
0.594021 0.594021 0.594021
0.609680 0.609680 0.609680
0.625295 0.625295 0.625295
0.640867 0.640867 0.640867
0.417733 0.417733 0.417733
0.434006 0.434006 0.434006
0.450212 0.450212 0.450212
0.466353 0.466353 0.466353
0.482432 0.482432 0.482432
0.498452 0.498452 0.498452
0.514415 0.514415 0.514415
0.530323 0.530323 0.530323
0.546178 0.546178 0.546178
0.561982 0.561982 0.561982
0.577737 0.577737 0.577737
0.593444 0.593444 0.593444
0.609105 0.609105 0.609105
0.624722 0.624722 0.624722
0.640295 0.640295 0.640295
0.655826 0.655826 0.655826
0.671317 0.671317 0.671317
0.449617 0.449617 0.449617
0.465760 0.465760 0.465760
0.481842 0.481842 0.481842
0.497864 0.497864 0.497864
0.513828 0.513828 0.513828
0.529738 0.529738 0.529738
0.545595 0.545595 0.545595
0.561401 0.561401 0.561401
0.577158 0.577158 0.577158
0.592867 0.592867 0.592867
0.608530 0.608530 0.608530
0.624148 0.624148 0.624148
0.639723 0.639723 0.639723
0.655256 0.655256 0.655256
0.670748 0.670748 0.670748
0.686200 0.686200 0.686200
0.701614 0.701614 0.701614
0.481251 0.481251 0.481251
0.497275 0.497275 0.497275
0.513242 0.513242 0.513242
0.529154 0.529154 0.529154
0.545013 0.545013 0.545013
0.560821 0.560821 0.560821
0.576579 0.576579 0.576579
0.592290 0.592290 0.592290
0.607954 0.607954 0.607954
0.623574 0.623574 0.623574
0.639151 0.639151 0.639151
0.654685 0.654685 0.654685
0.670179 0.670179 0.670179
0.685632 0.685632 0.685632
0.701048 0.701048 0.701048
0.716425 0.716425 0.716425
0.731766 0.731766 0.731766
0.512656 0.512656 0.512656
0.528570 0.528570 0.528570
0.544430 0.544430 0.544430
0.560240 0.560240 0.560240
0.576000 0.576000 0.576000
0.591713 0.591713 0.591713
0.607379 0.607379 0.607379
0.623000 0.623000 0.623000
0.638578 0.638578 0.638578
0.654114 0.654114 0.654114
0.669609 0.669609 0.669609
0.685065 0.685065 0.685065
0.700481 0.700481 0.700481
0.715860 0.715860 0.715860
0.731203 0.731203 0.731203
0.746509 0.746509 0.746509
0.761781 0.761781 0.761781
0.543848 0.543848 0.543848
0.559659 0.559659 0.559659
0.575421 0.575421 0.575421
0.591135 0.591135 0.591135
0.606803 0.606803 0.606803
0.622426 0.622426 0.622426
0.638006 0.638006 0.638006
0.653543 0.653543 0.653543
0.669040 0.669040 0.669040
0.684497 0.684497 0.684497
0.699915 0.699915 0.699915
0.715295 0.715295 0.715295
0.730639 0.730639 0.730639
0.745947 0.745947 0.745947
0.761220 0.761220 0.761220
0.776459 0.776459 0.776459
0.791665 0.791665 0.791665
0.574842 0.574842 0.574842
0.590558 0.590558 0.590558
0.606228 0.606228 0.606228
0.621852 0.621852 0.621852
0.637434 0.637434 0.637434
0.652973 0.652973 0.652973
0.668471 0.668471 0.668471
0.683929 0.683929 0.683929
0.699348 0.699348 0.699348
0.714730 0.714730 0.714730
0.730075 0.730075 0.730075
0.745384 0.745384 0.745384
0.760659 0.760659 0.760659
0.775899 0.775899 0.775899
0.791106 0.791106 0.791106
0.806281 0.806281 0.806281
0.821424 0.821424 0.821424
0.605652 0.605652 0.605652
0.621278 0.621278 0.621278
0.636861 0.636861 0.636861
0.652402 0.652402 0.652402
0.667901 0.667901 0.667901
0.683361 0.683361 0.683361
0.698782 0.698782 0.698782
0.714165 0.714165 0.714165
0.729511 0.729511 0.729511
0.744822 0.744822 0.744822
0.760097 0.760097 0.760097
0.775339 0.775339 0.775339
0.790547 0.790547 0.790547
0.805723 0.805723 0.805723
0.820868 0.820868 0.820868
0.835981 0.835981 0.835981
0.851064 0.851064 0.851064
0.082517 0.082517 0.082517
0.101810 0.101810 0.101810
0.120703 0.120703 0.120703
0.139271 0.139271 0.139271
0.157567 0.157567 0.157567
0.175629 0.175629 0.175629
0.193487 0.193487 0.193487
0.211164 0.211164 0.211164
0.228677 0.228677 0.228677
0.246043 0.246043 0.246043
0.263273 0.263273 0.263273
0.280379 0.280379 0.280379
0.297369 0.297369 0.297369
0.314252 0.314252 0.314252
0.331035 0.331035 0.331035
0.347724 0.347724 0.347724
0.364324 0.364324 0.364324
0.120014 0.120014 0.120014
0.138593 0.138593 0.138593
0.156898 0.156898 0.156898
0.174969 0.174969 0.174969
0.192834 0.192834 0.192834
0.210517 0.210517 0.210517
0.228036 0.228036 0.228036
0.245406 0.245406 0.245406
0.262641 0.262641 0.262641
0.279751 0.279751 0.279751
0.296746 0.296746 0.296746
0.313633 0.313633 0.313633
0.330419 0.330419 0.330419
0.347111 0.347111 0.347111
0.363715 0.363715 0.363715
0.380235 0.380235 0.380235
0.396675 0.396675 0.396675
0.156229 0.156229 0.156229
0.174308 0.174308 0.174308
0.192180 0.192180 0.192180
0.209869 0.209869 0.209869
0.227394 0.227394 0.227394
0.244770 0.244770 0.244770
0.262009 0.262009 0.262009
0.279124 0.279124 0.279124
0.296123 0.296123 0.296123
0.313013 0.313013 0.313013
0.329803 0.329803 0.329803
0.346499 0.346499 0.346499
0.363106 0.363106 0.363106
0.379628 0.379628 0.379628
0.396071 0.396071 0.396071
0.412439 0.412439 0.412439
0.428735 0.428735 0.428735
0.191526 0.191526 0.191526
0.209221 0.209221 0.209221
0.226752 0.226752 0.226752
0.244133 0.244133 0.244133
0.261377 0.261377 0.261377
0.278496 0.278496 0.278496
0.295499 0.295499 0.295499
0.312394 0.312394 0.312394
0.329187 0.329187 0.329187
0.345886 0.345886 0.345886
0.362496 0.362496 0.362496
0.379022 0.379022 0.379022
0.395468 0.395468 0.395468
0.411838 0.411838 0.411838
0.428136 0.428136 0.428136
0.444366 0.444366 0.444366
0.460530 0.460530 0.460530
0.226110 0.226110 0.226110
0.243496 0.243496 0.243496
0.260745 0.260745 0.260745
0.277869 0.277869 0.277869
0.294876 0.294876 0.294876
0.311774 0.311774 0.311774
0.328571 0.328571 0.328571
0.345274 0.345274 0.345274
0.361887 0.361887 0.361887
0.378415 0.378415 0.378415
0.394864 0.394864 0.394864
0.411237 0.411237 0.411237
0.427538 0.427538 0.427538
0.443770 0.443770 0.443770
0.459936 0.459936 0.459936
0.476040 0.476040 0.476040
0.492083 0.492083 0.492083
0.260113 0.260113 0.260113
0.277241 0.277241 0.277241
0.294252 0.294252 0.294252
0.311154 0.311154 0.311154
0.327955 0.327955 0.327955
0.344661 0.344661 0.344661
0.361277 0.361277 0.361277
0.377809 0.377809 0.377809
0.394260 0.394260 0.394260
0.410636 0.410636 0.410636
0.426940 0.426940 0.426940
0.443174 0.443174 0.443174
0.459343 0.459343 0.459343
0.475449 0.475449 0.475449
0.491494 0.491494 0.491494
0.507481 0.507481 0.507481
0.523413 0.523413 0.523413
0.293628 0.293628 0.293628
0.310534 0.310534 0.310534
0.327339 0.327339 0.327339
0.344048 0.344048 0.344048
0.360667 0.360667 0.360667
0.377202 0.377202 0.377202
0.393656 0.393656 0.393656
0.410035 0.410035 0.410035
0.426341 0.426341 0.426341
0.442578 0.442578 0.442578
0.458749 0.458749 0.458749
0.474857 0.474857 0.474857
0.490905 0.490905 0.490905
0.506894 0.506894 0.506894
0.522828 0.522828 0.522828
0.538707 0.538707 0.538707
0.554535 0.554535 0.554535
0.326722 0.326722 0.326722
0.343435 0.343435 0.343435
0.360057 0.360057 0.360057
0.376595 0.376595 0.376595
0.393053 0.393053 0.393053
0.409434 0.409434 0.409434
0.425742 0.425742 0.425742
0.441982 0.441982 0.441982
0.458155 0.458155 0.458155
0.474266 0.474266 0.474266
0.490315 0.490315 0.490315
0.506307 0.506307 0.506307
0.522242 0.522242 0.522242
0.538124 0.538124 0.538124
0.553954 0.553954 0.553954
0.569734 0.569734 0.569734
0.585465 0.585465 0.585465
0.359447 0.359447 0.359447
0.375988 0.375988 0.375988
0.392448 0.392448 0.392448
0.408832 0.408832 0.408832
0.425144 0.425144 0.425144
0.441386 0.441386 0.441386
0.457561 0.457561 0.457561
0.473674 0.473674 0.473674
0.489726 0.489726 0.489726
0.505719 0.505719 0.505719
0.521657 0.521657 0.521657
0.537541 0.537541 0.537541
0.553372 0.553372 0.553372
0.569154 0.569154 0.569154
0.584887 0.584887 0.584887
0.600573 0.600573 0.600573
0.616214 0.616214 0.616214
0.391844 0.391844 0.391844
0.408231 0.408231 0.408231
0.424545 0.424545 0.424545
0.440789 0.440789 0.440789
0.456968 0.456968 0.456968
0.473082 0.473082 0.473082
0.489136 0.489136 0.489136
0.505132 0.505132 0.505132
0.521072 0.521072 0.521072
0.536957 0.536957 0.536957
0.552791 0.552791 0.552791
0.568574 0.568574 0.568574
0.584309 0.584309 0.584309
0.599997 0.599997 0.599997
0.615639 0.615639 0.615639
0.631237 0.631237 0.631237
0.646793 0.646793 0.646793
0.423946 0.423946 0.423946
0.440193 0.440193 0.440193
0.456373 0.456373 0.456373
0.472491 0.472491 0.472491
0.488547 0.488547 0.488547
0.504545 0.504545 0.504545
0.520486 0.520486 0.520486
0.536374 0.536374 0.536374
0.552209 0.552209 0.552209
0.567994 0.567994 0.567994
0.583731 0.583731 0.583731
0.599420 0.599420 0.599420
0.615064 0.615064 0.615064
0.630664 0.630664 0.630664
0.646222 0.646222 0.646222
0.661737 0.661737 0.661737
0.677213 0.677213 0.677213
0.455779 0.455779 0.455779
0.471899 0.471899 0.471899
0.487957 0.487957 0.487957
0.503957 0.503957 0.503957
0.519901 0.519901 0.519901
0.535790 0.535790 0.535790
0.551628 0.551628 0.551628
0.567415 0.567415 0.567415
0.583153 0.583153 0.583153
0.598844 0.598844 0.598844
0.614490 0.614490 0.614490
0.630091 0.630091 0.630091
0.645650 0.645650 0.645650
0.661167 0.661167 0.661167
0.676644 0.676644 0.676644
0.692082 0.692082 0.692082
0.707481 0.707481 0.707481
0.487367 0.487367 0.487367
0.503369 0.503369 0.503369
0.519315 0.519315 0.519315
0.535207 0.535207 0.535207
0.551046 0.551046 0.551046
0.566835 0.566835 0.566835
0.582575 0.582575 0.582575
0.598268 0.598268 0.598268
0.613915 0.613915 0.613915
0.629518 0.629518 0.629518
0.645078 0.645078 0.645078
0.660597 0.660597 0.660597
0.676075 0.676075 0.676075
0.691514 0.691514 0.691514
0.706915 0.706915 0.706915
0.722279 0.722279 0.722279
0.737606 0.737606 0.737606
0.518730 0.518730 0.518730
0.534623 0.534623 0.534623
0.550464 0.550464 0.550464
0.566255 0.566255 0.566255
0.581996 0.581996 0.581996
0.597691 0.597691 0.597691
0.613340 0.613340 0.613340
0.628945 0.628945 0.628945
0.644507 0.644507 0.644507
0.660027 0.660027 0.660027
0.675507 0.675507 0.675507
0.690947 0.690947 0.690947
0.706349 0.706349 0.706349
0.721714 0.721714 0.721714
0.737043 0.737043 0.737043
0.752336 0.752336 0.752336
0.767595 0.767595 0.767595
0.549882 0.549882 0.549882
0.565675 0.565675 0.565675
0.581418 0.581418 0.581418
0.597115 0.597115 0.597115
0.612765 0.612765 0.612765
0.628371 0.628371 0.628371
0.643935 0.643935 0.643935
0.659457 0.659457 0.659457
0.674938 0.674938 0.674938
0.690380 0.690380 0.690380
0.705783 0.705783 0.705783
0.721149 0.721149 0.721149
0.736479 0.736479 0.736479
0.751774 0.751774 0.751774
0.767034 0.767034 0.767034
0.782261 0.782261 0.782261
0.797454 0.797454 0.797454
0.580840 0.580840 0.580840
0.596538 0.596538 0.596538
0.612190 0.612190 0.612190
0.627798 0.627798 0.627798
0.643363 0.643363 0.643363
0.658886 0.658886 0.658886
0.674369 0.674369 0.674369
0.689812 0.689812 0.689812
0.705217 0.705217 0.705217
0.720585 0.720585 0.720585
0.735916 0.735916 0.735916
0.751212 0.751212 0.751212
0.766473 0.766473 0.766473
0.781701 0.781701 0.781701
0.796896 0.796896 0.796896
0.812058 0.812058 0.812058
0.827190 0.827190 0.827190
0.611615 0.611615 0.611615
0.627225 0.627225 0.627225
0.642791 0.642791 0.642791
0.658316 0.658316 0.658316
0.673800 0.673800 0.673800
0.689245 0.689245 0.689245
0.704651 0.704651 0.704651
0.720020 0.720020 0.720020
0.735353 0.735353 0.735353
0.750650 0.750650 0.750650
0.765913 0.765913 0.765913
0.781141 0.781141 0.781141
0.796337 0.796337 0.796337
0.811501 0.811501 0.811501
0.826634 0.826634 0.826634
0.841735 0.841735 0.841735
0.856807 0.856807 0.856807
0.089926 0.089926 0.089926
0.109056 0.109056 0.109056
0.127817 0.127817 0.127817
0.146276 0.146276 0.146276
0.164479 0.164479 0.164479
0.182461 0.182461 0.182461
0.200247 0.200247 0.200247
0.217860 0.217860 0.217860
0.235315 0.235315 0.235315
0.252627 0.252627 0.252627
0.269809 0.269809 0.269809
0.286870 0.286870 0.286870
0.303818 0.303818 0.303818
0.320662 0.320662 0.320662
0.337409 0.337409 0.337409
0.354063 0.354063 0.354063
0.370631 0.370631 0.370631
0.127133 0.127133 0.127133
0.145602 0.145602 0.145602
0.163814 0.163814 0.163814
