assets/luts/bw_dust.cube
TITLE "Film Dust"
LUT_3D_SIZE 5
0.067464 0.067464 0.067464
0.143638 0.143638 0.143638
0.215337 0.215337 0.215337
0.284423 0.284423 0.284423
0.351674 0.351674 0.351674
0.212752 0.212752 0.212752
0.281917 0.281917 0.281917
0.349226 0.349226 0.349226
0.415114 0.415114 0.415114
0.479855 0.479855 0.479855
0.346777 0.346777 0.346777
0.412712 0.412712 0.412712
0.477491 0.477491 0.477491
0.541305 0.541305 0.541305
0.604291 0.604291 0.604291
0.475126 0.475126 0.475126
0.538972 0.538972 0.538972
0.601987 0.601987 0.601987
0.664276 0.664276 0.664276
0.725921 0.725921 0.725921
0.599682 0.599682 0.599682
0.661996 0.661996 0.661996
0.723664 0.723664 0.723664
0.784753 0.784753 0.784753
0.845317 0.845317 0.845317
0.097268 0.097268 0.097268
0.171360 0.171360 0.171360
0.241932 0.241932 0.241932
0.310252 0.310252 0.310252
0.376926 0.376926 0.376926
0.239380 0.239380 0.239380
0.307771 0.307771 0.307771
0.374498 0.374498 0.374498
0.439922 0.439922 0.439922
0.504278 0.504278 0.504278
0.372068 0.372068 0.372068
0.437535 0.437535 0.437535
0.501927 0.501927 0.501927
0.565411 0.565411 0.565411
0.628111 0.628111 0.628111
0.499575 0.499575 0.499575
0.563090 0.563090 0.563090
0.625817 0.625817 0.625817
0.687852 0.687852 0.687852
0.749270 0.749270 0.749270
0.623522 0.623522 0.623522
0.685581 0.685581 0.685581
0.747021 0.747021 0.747021
0.807903 0.807903 0.807903
0.868280 0.868280 0.868280
0.126074 0.126074 0.126074
0.198589 0.198589 0.198589
0.268205 0.268205 0.268205
0.335845 0.335845 0.335845
0.401992 0.401992 0.401992
0.265683 0.265683 0.265683
0.333385 0.333385 0.333385
0.399581 0.399581 0.399581
0.464575 0.464575 0.464575
0.528570 0.528570 0.528570
0.397169 0.397169 0.397169
0.462202 0.462202 0.462202
0.526231 0.526231 0.526231
0.589403 0.589403 0.589403
0.651831 0.651831 0.651831
0.523891 0.523891 0.523891
0.587093 0.587093 0.587093
0.649546 0.649546 0.649546
0.711338 0.711338 0.711338
0.772538 0.772538 0.772538
0.647261 0.647261 0.647261
0.709075 0.709075 0.709075
0.770296 0.770296 0.770296
0.830980 0.830980 0.830980
0.891176 0.891176 0.891176
0.154159 0.154159 0.154159
0.225409 0.225409 0.225409
0.294195 0.294195 0.294195
0.361222 0.361222 0.361222
0.426885 0.426885 0.426885
0.291699 0.291699 0.291699
0.358782 0.358782 0.358782
0.424490 0.424490 0.424490
0.489083 0.489083 0.489083
0.552738 0.552738 0.552738
0.422094 0.422094 0.422094
0.486724 0.486724 0.486724
0.550411 0.550411 0.550411
0.613288 0.613288 0.613288
0.675455 0.675455 0.675455
0.548083 0.548083 0.548083
0.610988 0.610988 0.610988
0.673179 0.673179 0.673179
0.734738 0.734738 0.734738
0.795728 0.795728 0.795728
0.670903 0.670903 0.670903
0.732484 0.732484 0.732484
0.793494 0.793494 0.793494
0.853986 0.853986 0.853986
0.914006 0.914006 0.914006
0.181683 0.181683 0.181683
0.251877 0.251877 0.251877
0.319932 0.319932 0.319932
0.386402 0.386402 0.386402
0.451618 0.451618 0.451618
0.317459 0.317459 0.317459
0.383980 0.383980 0.383980
0.449238 0.449238 0.449238
0.513455 0.513455 0.513455
0.576790 0.576790 0.576790
0.446857 0.446857 0.446857
0.511109 0.511109 0.511109
0.574474 0.574474 0.574474
0.637069 0.637069 0.637069
0.698988 0.698988 0.698988
0.572157 0.572157 0.572157
0.634779 0.634779 0.634779
0.696721 0.696721 0.696721
0.758056 0.758056 0.758056
0.818844 0.818844 0.818844
0.694453 0.694453 0.694453
0.755809 0.755809 0.755809
0.816616 0.816616 0.816616
0.876924 0.876924 0.876924
0.936774 0.936774 0.936774
