assets/luts/bw_dust.cube
TITLE "Film Dust"
LUT_3D_SIZE 9
0.067464 0.067464 0.067464
0.106329 0.106329 0.106329
0.143638 0.143638 0.143638
0.179888 0.179888 0.179888
0.215337 0.215337 0.215337
0.250146 0.250146 0.250146
0.284423 0.284423 0.284423
0.318246 0.318246 0.318246
0.351674 0.351674 0.351674
0.142287 0.142287 0.142287
0.178569 0.178569 0.178569
0.214045 0.214045 0.214045
0.248875 0.248875 0.248875
0.283171 0.283171 0.283171
0.317009 0.317009 0.317009
0.350450 0.350450 0.350450
0.383540 0.383540 0.383540
0.416315 0.416315 0.416315
0.212752 0.212752 0.212752
0.247604 0.247604 0.247604
0.281917 0.281917 0.281917
0.315772 0.315772 0.315772
0.349226 0.349226 0.349226
0.382328 0.382328 0.382328
0.415114 0.415114 0.415114
0.447615 0.447615 0.447615
0.479855 0.479855 0.479855
0.280664 0.280664 0.280664
0.314534 0.314534 0.314534
0.348002 0.348002 0.348002
0.381116 0.381116 0.381116
0.413913 0.413913 0.413913
0.446424 0.446424 0.446424
0.478673 0.478673 0.478673
0.510683 0.510683 0.510683
0.542470 0.542470 0.542470
0.346777 0.346777 0.346777
0.379904 0.379904 0.379904
0.412712 0.412712 0.412712
0.445233 0.445233 0.445233
0.477491 0.477491 0.477491
0.509509 0.509509 0.509509
0.541305 0.541305 0.541305
0.572894 0.572894 0.572894
0.604291 0.604291 0.604291
0.411510 0.411510 0.411510
0.444041 0.444041 0.444041
0.476309 0.476309 0.476309
0.508335 0.508335 0.508335
0.540139 0.540139 0.540139
0.571735 0.571735 0.571735
0.603139 0.603139 0.603139
0.634362 0.634362 0.634362
0.665416 0.665416 0.665416
0.475126 0.475126 0.475126
0.507161 0.507161 0.507161
0.538972 0.538972 0.538972
0.570577 0.570577 0.570577
0.601987 0.601987 0.601987
0.633217 0.633217 0.633217
0.664276 0.664276 0.664276
0.695175 0.695175 0.695175
0.725921 0.725921 0.725921
0.537806 0.537806 0.537806
0.569417 0.569417 0.569417
0.600835 0.600835 0.600835
0.632071 0.632071 0.632071
0.663136 0.663136 0.663136
0.694041 0.694041 0.694041
0.724793 0.724793 0.724793
0.755401 0.755401 0.755401
0.785871 0.785871 0.785871
0.599682 0.599682 0.599682
0.630925 0.630925 0.630925
0.661996 0.661996 0.661996
0.692907 0.692907 0.692907
0.723664 0.723664 0.723664
0.754277 0.754277 0.754277
0.784753 0.784753 0.784753
0.815097 0.815097 0.815097
0.845317 0.845317 0.845317
0.082517 0.082517 0.082517
0.120703 0.120703 0.120703
0.157567 0.157567 0.157567
0.193487 0.193487 0.193487
0.228677 0.228677 0.228677
0.263273 0.263273 0.263273
0.297369 0.297369 0.297369
0.331035 0.331035 0.331035
0.364324 0.364324 0.364324
0.156229 0.156229 0.156229
0.192180 0.192180 0.192180
0.227394 0.227394 0.227394
0.262009 0.262009 0.262009
0.296123 0.296123 0.296123
0.329803 0.329803 0.329803
0.363106 0.363106 0.363106
0.396071 0.396071 0.396071
0.428735 0.428735 0.428735
0.226110 0.226110 0.226110
0.260745 0.260745 0.260745
0.294876 0.294876 0.294876
0.328571 0.328571 0.328571
0.361887 0.361887 0.361887
0.394864 0.394864 0.394864
0.427538 0.427538 0.427538
0.459936 0.459936 0.459936
0.492083 0.492083 0.492083
0.293628 0.293628 0.293628
0.327339 0.327339 0.327339
0.360667 0.360667 0.360667
0.393656 0.393656 0.393656
0.426341 0.426341 0.426341
0.458749 0.458749 0.458749
0.490905 0.490905 0.490905
0.522828 0.522828 0.522828
0.554535 0.554535 0.554535
0.359447 0.359447 0.359447
0.392448 0.392448 0.392448
0.425144 0.425144 0.425144
0.457561 0.457561 0.457561
0.489726 0.489726 0.489726
0.521657 0.521657 0.521657
0.553372 0.553372 0.553372
0.584887 0.584887 0.584887
0.616214 0.616214 0.616214
0.423946 0.423946 0.423946
0.456373 0.456373 0.456373
0.488547 0.488547 0.488547
0.520486 0.520486 0.520486
0.552209 0.552209 0.552209
0.583731 0.583731 0.583731
0.615064 0.615064 0.615064
0.646222 0.646222 0.646222
0.677213 0.677213 0.677213
0.487367 0.487367 0.487367
0.519315 0.519315 0.519315
0.551046 0.551046 0.551046
0.582575 0.582575 0.582575
0.613915 0.613915 0.613915
0.645078 0.645078 0.645078
0.676075 0.676075 0.676075
0.706915 0.706915 0.706915
0.737606 0.737606 0.737606
0.549882 0.549882 0.549882
0.581418 0.581418 0.581418
0.612765 0.612765 0.612765
0.643935 0.643935 0.643935
0.674938 0.674938 0.674938
0.705783 0.705783 0.705783
0.736479 0.736479 0.736479
0.767034 0.767034 0.767034
0.797454 0.797454 0.797454
0.611615 0.611615 0.611615
0.642791 0.642791 0.642791
0.673800 0.673800 0.673800
0.704651 0.704651 0.704651
0.735353 0.735353 0.735353
0.765913 0.765913 0.765913
0.796337 0.796337 0.796337
0.826634 0.826634 0.826634
0.856807 0.856807 0.856807
0.097268 0.097268 0.097268
0.134888 0.134888 0.134888
0.171360 0.171360 0.171360
0.206982 0.206982 0.206982
0.241932 0.241932 0.241932
0.276327 0.276327 0.276327
0.310252 0.310252 0.310252
0.343769 0.343769 0.343769
0.376926 0.376926 0.376926
0.170034 0.170034 0.170034
0.205684 0.205684 0.205684
0.240656 0.240656 0.240656
0.275071 0.275071 0.275071
0.309012 0.309012 0.309012
0.342543 0.342543 0.342543
0.375712 0.375712 0.375712
0.408559 0.408559 0.408559
0.441115 0.441115 0.441115
0.239380 0.239380 0.239380
0.273814 0.273814 0.273814
0.307771 0.307771 0.307771
0.341316 0.341316 0.341316
0.374498 0.374498 0.374498
0.407356 0.407356 0.407356
0.439922 0.439922 0.439922
0.472222 0.472222 0.472222
0.504278 0.504278 0.504278
0.306529 0.306529 0.306529
0.340088 0.340088 0.340088
0.373283 0.373283 0.373283
0.406152 0.406152 0.406152
0.438729 0.438729 0.438729
0.471038 0.471038 0.471038
0.503102 0.503102 0.503102
0.534941 0.534941 0.534941
0.566571 0.566571 0.566571
0.372068 0.372068 0.372068
0.404949 0.404949 0.404949
0.437535 0.437535 0.437535
0.469854 0.469854 0.469854
0.501927 0.501927 0.501927
0.533774 0.533774 0.533774
0.565411 0.565411 0.565411
0.596852 0.596852 0.596852
0.628111 0.628111 0.628111
0.436341 0.436341 0.436341
0.468669 0.468669 0.468669
0.500751 0.500751 0.500751
0.532606 0.532606 0.532606
0.564251 0.564251 0.564251
0.595699 0.595699 0.595699
0.626964 0.626964 0.626964
0.658057 0.658057 0.658057
0.688987 0.688987 0.688987
0.499575 0.499575 0.499575
0.531438 0.531438 0.531438
0.563090 0.563090 0.563090
0.594545 0.594545 0.594545
0.625817 0.625817 0.625817
0.656916 0.656916 0.656916
0.687852 0.687852 0.687852
0.718634 0.718634 0.718634
0.749270 0.749270 0.749270
0.561929 0.561929 0.561929
0.593391 0.593391 0.593391
0.624670 0.624670 0.624670
0.655775 0.655775 0.655775
0.686716 0.686716 0.686716
0.717504 0.717504 0.717504
0.748145 0.748145 0.748145
0.778648 0.778648 0.778648
0.809018 0.809018 0.809018
0.623522 0.623522 0.623522
0.654633 0.654633 0.654633
0.685581 0.685581 0.685581
0.716374 0.716374 0.716374
0.747021 0.747021 0.747021
0.777528 0.777528 0.777528
0.807903 0.807903 0.807903
0.838152 0.838152 0.838152
0.868280 0.868280 0.868280
0.111775 0.111775 0.111775
0.148909 0.148909 0.148909
0.185030 0.185030 0.185030
0.220379 0.220379 0.220379
0.255106 0.255106 0.255106
0.289314 0.289314 0.289314
0.323077 0.323077 0.323077
0.356451 0.356451 0.356451
0.389481 0.389481 0.389481
0.183716 0.183716 0.183716
0.219090 0.219090 0.219090
0.253838 0.253838 0.253838
0.288064 0.288064 0.288064
0.321842 0.321842 0.321842
0.355230 0.355230 0.355230
0.388272 0.388272 0.388272
0.421004 0.421004 0.421004
0.453456 0.453456 0.453456
0.252570 0.252570 0.252570
0.286813 0.286813 0.286813
0.320606 0.320606 0.320606
0.354008 0.354008 0.354008
0.387062 0.387062 0.387062
0.419805 0.419805 0.419805
0.452267 0.452267 0.452267
0.484471 0.484471 0.484471
0.516439 0.516439 0.516439
0.319370 0.319370 0.319370
0.352785 0.352785 0.352785
0.385852 0.385852 0.385852
0.418606 0.418606 0.418606
0.451077 0.451077 0.451077
0.483291 0.483291 0.483291
0.515267 0.515267 0.515267
0.547025 0.547025 0.547025
0.578578 0.578578 0.578578
0.384641 0.384641 0.384641
0.417406 0.417406 0.417406
0.449887 0.449887 0.449887
0.482110 0.482110 0.482110
0.514095 0.514095 0.514095
0.545860 0.545860 0.545860
0.577421 0.577421 0.577421
0.608791 0.608791 0.608791
0.639983 0.639983 0.639983
0.448697 0.448697 0.448697
0.480929 0.480929 0.480929
0.512922 0.512922 0.512922
0.544695 0.544695 0.544695
0.576263 0.576263 0.576263
0.607640 0.607640 0.607640
0.638838 0.638838 0.638838
0.669868 0.669868 0.669868
0.700739 0.700739 0.700739
0.511749 0.511749 0.511749
0.543530 0.543530 0.543530
0.575105 0.575105 0.575105
0.606489 0.606489 0.606489
0.637694 0.637694 0.637694
0.668729 0.668729 0.668729
0.699606 0.699606 0.699606
0.730331 0.730331 0.730331
0.760914 0.760914 0.760914
0.573947 0.573947 0.573947
0.605338 0.605338 0.605338
0.636549 0.636549 0.636549
0.667590 0.667590 0.667590
0.698472 0.698472 0.698472
0.729203 0.729203 0.729203
0.759791 0.759791 0.759791
0.790243 0.790243 0.790243
0.820564 0.820564 0.820564
0.635404 0.635404 0.635404
0.666451 0.666451 0.666451
0.697339 0.697339 0.697339
0.728075 0.728075 0.728075
0.758668 0.758668 0.758668
0.789125 0.789125 0.789125
0.819451 0.819451 0.819451
0.849653 0.849653 0.849653
0.879736 0.879736 0.879736
0.126074 0.126074 0.126074
0.162785 0.162785 0.162785
0.198589 0.198589 0.198589
0.233687 0.233687 0.233687
0.268205 0.268205 0.268205
0.302236 0.302236 0.302236
0.335845 0.335845 0.335845
0.369083 0.369083 0.369083
0.401992 0.401992 0.401992
0.197286 0.197286 0.197286
0.232406 0.232406 0.232406
0.266944 0.266944 0.266944
0.300991 0.300991 0.300991
0.334615 0.334615 0.334615
0.367866 0.367866 0.367866
0.400787 0.400787 0.400787
0.433409 0.433409 0.433409
0.465760 0.465760 0.465760
0.265683 0.265683 0.265683
0.299747 0.299747 0.299747
0.333385 0.333385 0.333385
0.366649 0.366649 0.366649
0.399581 0.399581 0.399581
0.432214 0.432214 0.432214
0.464575 0.464575 0.464575
0.496687 0.496687 0.496687
0.528570 0.528570 0.528570
0.332154 0.332154 0.332154
0.365432 0.365432 0.365432
0.398375 0.398375 0.398375
0.431018 0.431018 0.431018
0.463389 0.463389 0.463389
0.495509 0.495509 0.495509
0.527400 0.527400 0.527400
0.559078 0.559078 0.559078
0.590558 0.590558 0.590558
0.397169 0.397169 0.397169
0.429822 0.429822 0.429822
0.462202 0.462202 0.462202
0.494332 0.494332 0.494332
0.526231 0.526231 0.526231
0.557917 0.557917 0.557917
0.589403 0.589403 0.589403
0.620704 0.620704 0.620704
0.651831 0.651831 0.651831
0.461016 0.461016 0.461016
0.493154 0.493154 0.493154
0.525061 0.525061 0.525061
0.556755 0.556755 0.556755
0.588248 0.588248 0.588248
0.619556 0.619556 0.619556
0.650688 0.650688 0.650688
0.681656 0.681656 0.681656
0.712469 0.712469 0.712469
0.523891 0.523891 0.523891
0.555592 0.555592 0.555592
0.587093 0.587093 0.587093
0.618407 0.618407 0.618407
0.649546 0.649546 0.649546
0.680520 0.680520 0.680520
0.711338 0.711338 0.711338
0.742008 0.742008 0.742008
0.772538 0.772538 0.772538
0.585938 0.585938 0.585938
0.617258 0.617258 0.617258
0.648404 0.648404 0.648404
0.679383 0.679383 0.679383
0.710207 0.710207 0.710207
0.740882 0.740882 0.740882
0.771417 0.771417 0.771417
0.801818 0.801818 0.801818
0.832092 0.832092 0.832092
0.647261 0.647261 0.647261
0.678246 0.678246 0.678246
0.709075 0.709075 0.709075
0.739756 0.739756 0.739756
0.770296 0.770296 0.770296
0.800702 0.800702 0.800702
0.830980 0.830980 0.830980
0.861136 0.861136 0.861136
0.891176 0.891176 0.891176
0.140195 0.140195 0.140195
0.176530 0.176530 0.176530
0.212046 0.212046 0.212046
0.246910 0.246910 0.246910
0.281234 0.281234 0.281234
0.315096 0.315096 0.315096
0.348559 0.348559 0.348559
0.381667 0.381667 0.381667
0.414459 0.414459 0.414459
0.210752 0.210752 0.210752
0.245638 0.245638 0.245638
0.279979 0.279979 0.279979
0.313858 0.313858 0.313858
0.347334 0.347334 0.347334
0.380455 0.380455 0.380455
0.413258 0.413258 0.413258
0.445774 0.445774 0.445774
0.478028 0.478028 0.478028
0.278725 0.278725 0.278725
0.312619 0.312619 0.312619
0.346109 0.346109 0.346109
0.379242 0.379242 0.379242
0.412057 0.412057 0.412057
0.444583 0.444583 0.444583
0.476846 0.476846 0.476846
0.508869 0.508869 0.508869
0.540669 0.540669 0.540669
0.344884 0.344884 0.344884
0.378029 0.378029 0.378029
0.410855 0.410855 0.410855
0.443391 0.443391 0.443391
0.475664 0.475664 0.475664
0.507695 0.507695 0.507695
0.539503 0.539503 0.539503
0.571103 0.571103 0.571103
0.602511 0.602511 0.602511
0.409652 0.409652 0.409652
0.442199 0.442199 0.442199
0.474481 0.474481 0.474481
0.506520 0.506520 0.506520
0.538336 0.538336 0.538336
0.569944 0.569944 0.569944
0.601359 0.601359 0.601359
0.632592 0.632592 0.632592
0.663654 0.663654 0.663654
0.473298 0.473298 0.473298
0.505346 0.505346 0.505346
0.537169 0.537169 0.537169
0.568785 0.568785 0.568785
0.600206 0.600206 0.600206
0.631446 0.631446 0.631446
0.662515 0.662515 0.662515
0.693422 0.693422 0.693422
0.724177 0.724177 0.724177
0.536002 0.536002 0.536002
0.567625 0.567625 0.567625
0.599054 0.599054 0.599054
0.630300 0.630300 0.630300
0.661374 0.661374 0.661374
0.692288 0.692288 0.692288
0.723048 0.723048 0.723048
0.753664 0.753664 0.753664
0.784143 0.784143 0.784143
0.597901 0.597901 0.597901
0.629153 0.629153 0.629153
0.660234 0.660234 0.660234
0.691153 0.691153 0.691153
0.721919 0.721919 0.721919
0.752540 0.752540 0.752540
0.783024 0.783024 0.783024
0.813375 0.813375 0.813375
0.843602 0.843602 0.843602
0.659094 0.659094 0.659094
0.690019 0.690019 0.690019
0.720790 0.720790 0.720790
0.751416 0.751416 0.751416
0.781905 0.781905 0.781905
0.812261 0.812261 0.812261
0.842492 0.842492 0.842492
0.872603 0.872603 0.872603
0.902599 0.902599 0.902599
0.154159 0.154159 0.154159
0.190157 0.190157 0.190157
0.225409 0.225409 0.225409
0.260056 0.260056 0.260056
0.294195 0.294195 0.294195
0.327899 0.327899 0.327899
0.361222 0.361222 0.361222
0.394205 0.394205 0.394205
0.426885 0.426885 0.426885
0.224123 0.224123 0.224123
0.258790 0.258790 0.258790
0.292947 0.292947 0.292947
0.326666 0.326666 0.326666
0.360002 0.360002 0.360002
0.392998 0.392998 0.392998
0.425688 0.425688 0.425688
0.458101 0.458101 0.458101
0.490262 0.490262 0.490262
0.291699 0.291699 0.291699
0.325433 0.325433 0.325433
0.358782 0.358782 0.358782
0.391789 0.391789 0.391789
0.424490 0.424490 0.424490
0.456914 0.456914 0.456914
0.489083 0.489083 0.489083
0.521018 0.521018 0.521018
0.552738 0.552738 0.552738
0.357561 0.357561 0.357561
0.390581 0.390581 0.390581
0.423292 0.423292 0.423292
0.455725 0.455725 0.455725
0.487904 0.487904 0.487904
0.519848 0.519848 0.519848
0.551575 0.551575 0.551575
0.583100 0.583100 0.583100
0.614437 0.614437 0.614437
0.422094 0.422094 0.422094
0.454537 0.454537 0.454537
0.486724 0.486724 0.486724
0.518676 0.518676 0.518676
0.550411 0.550411 0.550411
0.581944 0.581944 0.581944
0.613288 0.613288 0.613288
0.644455 0.644455 0.644455
0.675455 0.675455 0.675455
0.485544 0.485544 0.485544
0.517505 0.517505 0.517505
0.549247 0.549247 0.549247
0.580787 0.580787 0.580787
0.612138 0.612138 0.612138
0.643311 0.643311 0.643311
0.674317 0.674317 0.674317
0.705166 0.705166 0.705166
0.735865 0.735865 0.735865
0.548083 0.548083 0.548083
0.579630 0.579630 0.579630
0.610988 0.610988 0.610988
0.642167 0.642167 0.642167
0.673179 0.673179 0.673179
0.704033 0.704033 0.704033
0.734738 0.734738 0.734738
0.765301 0.765301 0.765301
0.795728 0.795728 0.795728
0.609837 0.609837 0.609837
0.641023 0.641023 0.641023
0.672041 0.672041 0.672041
0.702901 0.702901 0.702901
0.733611 0.733611 0.733611
0.764179 0.764179 0.764179
0.794611 0.794611 0.794611
0.824914 0.824914 0.824914
0.855095 0.855095 0.855095
0.670903 0.670903 0.670903
0.701768 0.701768 0.701768
0.732484 0.732484 0.732484
0.763057 0.763057 0.763057
0.793494 0.793494 0.793494
0.823802 0.823802 0.823802
0.853986 0.853986 0.853986
0.884053 0.884053 0.884053
0.914006 0.914006 0.914006
0.167984 0.167984 0.167984
0.203677 0.203677 0.203677
0.238684 0.238684 0.238684
0.273127 0.273127 0.273127
0.307094 0.307094 0.307094
0.340646 0.340646 0.340646
0.373835 0.373835 0.373835
0.406700 0.406700 0.406700
0.439271 0.439271 0.439271
0.237407 0.237407 0.237407
0.271869 0.271869 0.271869
0.305852 0.305852 0.305852
0.339419 0.339419 0.339419
0.372620 0.372620 0.372620
0.405496 0.405496 0.405496
0.438078 0.438078 0.438078
0.470392 0.470392 0.470392
0.502461 0.502461 0.502461
0.304609 0.304609 0.304609
0.338191 0.338191 0.338191
0.371405 0.371405 0.371405
0.404292 0.404292 0.404292
0.436884 0.436884 0.436884
0.469207 0.469207 0.469207
0.501285 0.501285 0.501285
0.533137 0.533137 0.533137
0.564778 0.564778 0.564778
0.370189 0.370189 0.370189
0.403087 0.403087 0.403087
0.435690 0.435690 0.435690
0.468023 0.468023 0.468023
0.500109 0.500109 0.500109
0.531969 0.531969 0.531969
0.563618 0.563618 0.563618
0.595070 0.595070 0.595070
0.626338 0.626338 0.626338
0.434495 0.434495 0.434495
0.466838 0.466838 0.466838
0.498933 0.498933 0.498933
0.530801 0.530801 0.530801
0.562457 0.562457 0.562457
0.593916 0.593916 0.593916
0.625191 0.625191 0.625191
0.656293 0.656293 0.656293
0.687232 0.687232 0.687232
0.497757 0.497757 0.497757
0.529632 0.529632 0.529632
0.561296 0.561296 0.561296
0.592762 0.592762 0.592762
0.624044 0.624044 0.624044
0.655152 0.655152 0.655152
0.686097 0.686097 0.686097
0.716888 0.716888 0.716888
0.747532 0.747532 0.747532
0.560134 0.560134 0.560134
0.591608 0.591608 0.591608
0.622896 0.622896 0.622896
0.654010 0.654010 0.654010
0.684961 0.684961 0.684961
0.715757 0.715757 0.715757
0.746407 0.746407 0.746407
0.776917 0.776917 0.776917
0.807295 0.807295 0.807295
0.621748 0.621748 0.621748
0.652869 0.652869 0.652869
0.683825 0.683825 0.683825
0.714627 0.714627 0.714627
0.745282 0.745282 0.745282
0.775797 0.775797 0.775797
0.806180 0.806180 0.806180
0.836436 0.836436 0.836436
0.866570 0.866570 0.866570
0.682689 0.682689 0.682689
0.713497 0.713497 0.713497
0.744157 0.744157 0.744157
0.774677 0.774677 0.774677
0.805064 0.805064 0.805064
0.835325 0.835325 0.835325
0.865464 0.865464 0.865464
0.895486 0.895486 0.895486
0.925398 0.925398 0.925398
0.181683 0.181683 0.181683
0.217097 0.217097 0.217097
0.251877 0.251877 0.251877
0.286130 0.286130 0.286130
0.319932 0.319932 0.319932
0.353341 0.353341 0.353341
0.386402 0.386402 0.386402
0.419151 0.419151 0.419151
0.451618 0.451618 0.451618
0.250608 0.250608 0.250608
0.284878 0.284878 0.284878
0.318696 0.318696 0.318696
0.352118 0.352118 0.352118
0.385191 0.385191 0.385191
0.417951 0.417951 0.417951
0.450428 0.450428 0.450428
0.482647 0.482647 0.482647
0.514628 0.514628 0.514628
0.317459 0.317459 0.317459
0.350895 0.350895 0.350895
0.383980 0.383980 0.383980
0.416751 0.416751 0.416751
0.449238 0.449238 0.449238
0.481466 0.481466 0.481466
0.513455 0.513455 0.513455
0.545225 0.545225 0.545225
0.576790 0.576790 0.576790
0.382769 0.382769 0.382769
0.415551 0.415551 0.415551
0.448048 0.448048 0.448048
0.480284 0.480284 0.480284
0.512282 0.512282 0.512282
0.544060 0.544060 0.544060
0.575632 0.575632 0.575632
0.607013 0.607013 0.607013
0.638214 0.638214 0.638214
0.446857 0.446857 0.446857
0.479103 0.479103 0.479103
0.511109 0.511109 0.511109
0.542894 0.542894 0.542894
0.574474 0.574474 0.574474
0.605861 0.605861 0.605861
0.637069 0.637069 0.637069
0.668108 0.668108 0.668108
0.698988 0.698988 0.698988
0.509936 0.509936 0.509936
0.541729 0.541729 0.541729
0.573315 0.573315 0.573315
0.604710 0.604710 0.604710
0.635924 0.635924 0.635924
0.666969 0.666969 0.666969
0.697854 0.697854 0.697854
0.728588 0.728588 0.728588
0.759179 0.759179 0.759179
0.572157 0.572157 0.572157
0.603558 0.603558 0.603558
0.634779 0.634779 0.634779
0.665830 0.665830 0.665830
0.696721 0.696721 0.696721
0.727460 0.727460 0.727460
0.758056 0.758056 0.758056
0.788515 0.788515 0.788515
0.818844 0.818844 0.818844
0.633633 0.633633 0.633633
0.664690 0.664690 0.664690
0.695587 0.695587 0.695587
0.726332 0.726332 0.726332
0.756933 0.756933 0.756933
0.787397 0.787397 0.787397
0.817730 0.817730 0.817730
0.847939 0.847939 0.847939
0.878029 0.878029 0.878029
0.694453 0.694453 0.694453
0.725203 0.725203 0.725203
0.755809 0.755809 0.755809
0.786278 0.786278 0.786278
0.816616 0.816616 0.816616
0.846830 0.846830 0.846830
0.876924 0.876924 0.876924
0.906904 0.906904 0.906904
0.936774 0.936774 0.936774
