assets/luts/bw_glow.cube
TITLE "Silver Glow"
LUT_3D_SIZE 5
0.000000 0.000000 0.000000
0.125571 0.125571 0.125571
0.218632 0.218632 0.218632
0.302403 0.302403 0.302403
0.380660 0.380660 0.380660
0.215408 0.215408 0.215408
0.299433 0.299433 0.299433
0.377856 0.377856 0.377856
0.452376 0.452376 0.452376
0.523930 0.523930 0.523930
0.375048 0.375048 0.375048
0.449691 0.449691 0.449691
0.521342 0.521342 0.521342
0.590604 0.590604 0.590604
0.657886 0.657886 0.657886
0.518752 0.518752 0.518752
0.588093 0.588093 0.588093
0.655442 0.655442 0.655442
0.721101 0.721101 0.721101
0.798610 0.798610 0.798610
0.652996 0.652996 0.652996
0.718712 0.718712 0.718712
0.795350 0.795350 0.795350
0.882831 0.882831 0.882831
0.968193 0.968193 0.968193
0.058060 0.058060 0.058060
0.162597 0.162597 0.162597
0.251383 0.251383 0.251383
0.332777 0.332777 0.332777
0.409420 0.409420 0.409420
0.248271 0.248271 0.248271
0.329877 0.329877 0.329877
0.406667 0.406667 0.406667
0.479969 0.479969 0.479969
0.550562 0.550562 0.550562
0.403910 0.403910 0.403910
0.477324 0.477324 0.477324
0.548006 0.548006 0.548006
0.616472 0.616472 0.616472
0.683083 0.683083 0.683083
0.545448 0.545448 0.545448
0.613988 0.613988 0.613988
0.680662 0.680662 0.680662
0.745739 0.745739 0.745739
0.832201 0.832201 0.832201
0.678239 0.678239 0.678239
0.743370 0.743370 0.743370
0.828975 0.828975 0.828975
0.915610 0.915610 0.915610
1.000000 1.000000 1.000000
0.101088 0.101088 0.101088
0.197606 0.197606 0.197606
0.283098 0.283098 0.283098
0.362472 0.362472 0.362472
0.437683 0.437683 0.437683
0.280077 0.280077 0.280077
0.359634 0.359634 0.359634
0.434976 0.434976 0.434976
0.507172 0.507172 0.507172
0.576875 0.576875 0.576875
0.432265 0.432265 0.432265
0.504563 0.504563 0.504563
0.574349 0.574349 0.574349
0.642071 0.642071 0.642071
0.708049 0.708049 0.708049
0.571821 0.571821 0.571821
0.639612 0.639612 0.639612
0.705650 0.705650 0.705650
0.777510 0.777510 0.777510
0.865456 0.865456 0.865456
0.703248 0.703248 0.703248
0.774228 0.774228 0.774228
0.862262 0.862262 0.862262
0.948099 0.948099 0.948099
1.000000 1.000000 1.000000
0.139821 0.139821 0.139821
0.231120 0.231120 0.231120
0.313946 0.313946 0.313946
0.391570 0.391570 0.391570
0.465497 0.465497 0.465497
0.311003 0.311003 0.311003
0.388786 0.388786 0.388786
0.462832 0.462832 0.462832
0.534014 0.534014 0.534014
0.602891 0.602891 0.602891
0.460163 0.460163 0.460163
0.531439 0.531439 0.531439
0.600394 0.600394 0.600394
0.667418 0.667418 0.667418
0.732797 0.732797 0.732797
0.597893 0.597893 0.597893
0.664983 0.664983 0.664983
0.730418 0.730418 0.730418
0.811321 0.811321 0.811321
0.898395 0.898395 0.898395
0.728038 0.728038 0.728038
0.808074 0.808074 0.808074
0.895230 0.895230 0.895230
0.980311 0.980311 0.980311
1.000000 1.000000 1.000000
0.176005 0.176005 0.176005
0.263457 0.263457 0.263457
0.344052 0.344052 0.344052
0.420136 0.420136 0.420136
0.492901 0.492901 0.492901
0.341177 0.341177 0.341177
0.417402 0.417402 0.417402
0.490274 0.490274 0.490274
0.560523 0.560523 0.560523
0.628630 0.628630 0.628630
0.487643 0.487643 0.487643
0.557979 0.557979 0.557979
0.626158 0.626158 0.626158
0.692526 0.692526 0.692526
0.759567 0.759567 0.759567
0.623684 0.623684 0.623684
0.690113 0.690113 0.690113
0.756266 0.756266 0.756266
0.844783 0.844783 0.844783
0.931035 0.931035 0.931035
0.752961 0.752961 0.752961
0.841569 0.841569 0.841569
0.927898 0.927898 0.927898
1.000000 1.000000 1.000000
1.000000 1.000000 1.000000
