assets/luts/bw_glow.cube
TITLE "Silver Glow"
LUT_3D_SIZE 9
0.000000 0.000000 0.000000
0.072122 0.072122 0.072122
0.125571 0.125571 0.125571
0.173685 0.173685 0.173685
0.218632 0.218632 0.218632
0.261361 0.261361 0.261361
0.302403 0.302403 0.302403
0.342092 0.342092 0.342092
0.380660 0.380660 0.380660
0.123720 0.123720 0.123720
0.171979 0.171979 0.171979
0.217021 0.217021 0.217021
0.259822 0.259822 0.259822
0.300919 0.300919 0.300919
0.340653 0.340653 0.340653
0.379259 0.379259 0.379259
0.416904 0.416904 0.416904
0.453716 0.453716 0.453716
0.215408 0.215408 0.215408
0.258280 0.258280 0.258280
0.299433 0.299433 0.299433
0.339213 0.339213 0.339213
0.377856 0.377856 0.377856
0.415534 0.415534 0.415534
0.452376 0.452376 0.452376
0.488481 0.488481 0.488481
0.523930 0.523930 0.523930
0.297945 0.297945 0.297945
0.337771 0.337771 0.337771
0.376453 0.376453 0.376453
0.414164 0.414164 0.414164
0.451034 0.451034 0.451034
0.487164 0.487164 0.487164
0.522636 0.522636 0.522636
0.557516 0.557516 0.557516
0.591858 0.591858 0.591858
0.375048 0.375048 0.375048
0.412792 0.412792 0.412792
0.449691 0.449691 0.449691
0.485847 0.485847 0.485847
0.521342 0.521342 0.521342
0.556243 0.556243 0.556243
0.590604 0.590604 0.590604
0.624472 0.624472 0.624472
0.657886 0.657886 0.657886
0.448347 0.448347 0.448347
0.484529 0.484529 0.484529
0.520047 0.520047 0.520047
0.554969 0.554969 0.554969
0.589348 0.589348 0.589348
0.623234 0.623234 0.623234
0.656664 0.656664 0.656664
0.689675 0.689675 0.689675
0.722294 0.722294 0.722294
0.518752 0.518752 0.518752
0.553694 0.553694 0.553694
0.588093 0.588093 0.588093
0.621995 0.621995 0.621995
0.655442 0.655442 0.655442
0.688467 0.688467 0.688467
0.721101 0.721101 0.721101
0.754013 0.754013 0.754013
0.798610 0.798610 0.798610
0.586836 0.586836 0.586836
0.620757 0.620757 0.620757
0.654219 0.654219 0.654219
0.687259 0.687259 0.687259
0.719907 0.719907 0.719907
0.752360 0.752360 0.752360
0.796980 0.796980 0.796980
0.840984 0.840984 0.840984
0.884419 0.884419 0.884419
0.652996 0.652996 0.652996
0.686051 0.686051 0.686051
0.718712 0.718712 0.718712
0.751007 0.751007 0.751007
0.795350 0.795350 0.795350
0.839375 0.839375 0.839375
0.882831 0.882831 0.882831
0.925758 0.925758 0.925758
0.968193 0.968193 0.968193
0.033347 0.033347 0.033347
0.093387 0.093387 0.093387
0.144382 0.144382 0.144382
0.191130 0.191130 0.191130
0.235150 0.235150 0.235150
0.277187 0.277187 0.277187
0.317681 0.317681 0.317681
0.356919 0.356919 0.356919
0.395105 0.395105 0.395105
0.142594 0.142594 0.142594
0.189465 0.189465 0.189465
0.233569 0.233569 0.233569
0.275670 0.275670 0.275670
0.316215 0.316215 0.316215
0.355495 0.355495 0.355495
0.393717 0.393717 0.393717
0.431032 0.431032 0.431032
0.467554 0.467554 0.467554
0.231985 0.231985 0.231985
0.274151 0.274151 0.274151
0.314747 0.314747 0.314747
0.354070 0.354070 0.354070
0.392328 0.392328 0.392328
0.429674 0.429674 0.429674
0.466223 0.466223 0.466223
0.502070 0.502070 0.502070
0.537287 0.537287 0.537287
0.313277 0.313277 0.313277
0.352643 0.352643 0.352643
0.390937 0.390937 0.390937
0.428314 0.428314 0.428314
0.464892 0.464892 0.464892
0.500763 0.500763 0.500763
0.536002 0.536002 0.536002
0.570670 0.570670 0.570670
0.604820 0.604820 0.604820
0.389546 0.389546 0.389546
0.426954 0.426954 0.426954
0.463559 0.463559 0.463559
0.499455 0.499455 0.499455
0.534716 0.534716 0.534716
0.569404 0.569404 0.569404
0.603572 0.603572 0.603572
0.637263 0.637263 0.637263
0.670514 0.670514 0.670514
0.462226 0.462226 0.462226
0.498146 0.498146 0.498146
0.533429 0.533429 0.533429
0.568138 0.568138 0.568138
0.602324 0.602324 0.602324
0.636032 0.636032 0.636032
0.669298 0.669298 0.669298
0.702156 0.702156 0.702156
0.734634 0.734634 0.734634
0.532141 0.532141 0.532141
0.566870 0.566870 0.566870
0.601075 0.601075 0.601075
0.634800 0.634800 0.634800
0.668082 0.668082 0.668082
0.700954 0.700954 0.700954
0.733446 0.733446 0.733446
0.771092 0.771092 0.771092
0.815448 0.815448 0.815448
0.599825 0.599825 0.599825
0.633567 0.633567 0.633567
0.666865 0.666865 0.666865
0.699752 0.699752 0.699752
0.732257 0.732257 0.732257
0.769448 0.769448 0.769448
0.813827 0.813827 0.813827
0.857609 0.857609 0.857609
0.900839 0.900839 0.900839
0.665647 0.665647 0.665647
0.698549 0.698549 0.698549
0.731067 0.731067 0.731067
0.767804 0.767804 0.767804
0.812206 0.812206 0.812206
0.856009 0.856009 0.856009
0.899258 0.899258 0.899258
0.941993 0.941993 0.941993
0.984249 0.984249 0.984249
0.058060 0.058060 0.058060
0.113495 0.113495 0.113495
0.162597 0.162597 0.162597
0.208185 0.208185 0.208185
0.251383 0.251383 0.251383
0.292790 0.292790 0.292790
0.332777 0.332777 0.332777
0.371594 0.371594 0.371594
0.409420 0.409420 0.409420
0.160862 0.160862 0.160862
0.206555 0.206555 0.206555
0.249828 0.249828 0.249828
0.291294 0.291294 0.291294
0.331328 0.331328 0.331328
0.370184 0.370184 0.370184
0.408044 0.408044 0.408044
0.445045 0.445045 0.445045
0.481290 0.481290 0.481290
0.248271 0.248271 0.248271
0.289795 0.289795 0.289795
0.329877 0.329877 0.329877
0.368773 0.368773 0.368773
0.406667 0.406667 0.406667
0.443697 0.443697 0.443697
0.479969 0.479969 0.479969
0.515568 0.515568 0.515568
0.550562 0.550562 0.550562
0.328425 0.328425 0.328425
0.367361 0.367361 0.367361
0.405289 0.405289 0.405289
0.442349 0.442349 0.442349
0.478647 0.478647 0.478647
0.514269 0.514269 0.514269
0.549284 0.549284 0.549284
0.583749 0.583749 0.583749
0.617713 0.617713 0.617713
0.403910 0.403910 0.403910
0.441000 0.441000 0.441000
0.477324 0.477324 0.477324
0.512970 0.512970 0.512970
0.548006 0.548006 0.548006
0.582491 0.582491 0.582491
0.616472 0.616472 0.616472
0.649991 0.649991 0.649991
0.683083 0.683083 0.683083
0.476000 0.476000 0.476000
0.511670 0.511670 0.511670
0.546727 0.546727 0.546727
0.581231 0.581231 0.581231
0.615230 0.615230 0.615230
0.648765 0.648765 0.648765
0.681872 0.681872 0.681872
0.714582 0.714582 0.714582
0.746922 0.746922 0.746922
0.545448 0.545448 0.545448
0.579971 0.579971 0.579971
0.613988 0.613988 0.613988
0.647539 0.647539 0.647539
0.680662 0.680662 0.680662
0.713386 0.713386 0.713386
0.745739 0.745739 0.745739
0.788077 0.788077 0.788077
0.832201 0.832201 0.832201
0.612745 0.612745 0.612745
0.646313 0.646313 0.646313
0.679450 0.679450 0.679450
0.712189 0.712189 0.712189
0.744555 0.744555 0.744555
0.786442 0.786442 0.786442
0.830588 0.830588 0.830588
0.874154 0.874154 0.874154
0.917184 0.917184 0.917184
0.678239 0.678239 0.678239
0.710991 0.710991 0.710991
0.743370 0.743370 0.743370
0.784807 0.784807 0.784807
0.828975 0.828975 0.828975
0.872561 0.872561 0.872561
0.915610 0.915610 0.915610
0.958159 0.958159 0.958159
1.000000 1.000000 1.000000
0.080306 0.080306 0.080306
0.132744 0.132744 0.132744
0.180314 0.180314 0.180314
0.224898 0.224898 0.224898
0.267358 0.267358 0.267358
0.308188 0.308188 0.308188
0.347703 0.347703 0.347703
0.386124 0.386124 0.386124
0.423611 0.423611 0.423611
0.178624 0.178624 0.178624
0.223299 0.223299 0.223299
0.265827 0.265827 0.265827
0.306710 0.306710 0.306710
0.346270 0.346270 0.346270
0.384728 0.384728 0.384728
0.422247 0.422247 0.422247
0.458948 0.458948 0.458948
0.494929 0.494929 0.494929
0.264294 0.264294 0.264294
0.305231 0.305231 0.305231
0.344836 0.344836 0.344836
0.383331 0.383331 0.383331
0.420881 0.420881 0.420881
0.457611 0.457611 0.457611
0.493617 0.493617 0.493617
0.528978 0.528978 0.528978
0.563757 0.563757 0.563757
0.343399 0.343399 0.343399
0.381932 0.381932 0.381932
0.419515 0.419515 0.419515
0.456273 0.456273 0.456273
0.492305 0.492305 0.492305
0.527688 0.527688 0.527688
0.562487 0.562487 0.562487
0.596755 0.596755 0.596755
0.630539 0.630539 0.630539
0.418148 0.418148 0.418148
0.454934 0.454934 0.454934
0.490991 0.490991 0.490991
0.526397 0.526397 0.526397
0.561216 0.561216 0.561216
0.595504 0.595504 0.595504
0.629304 0.629304 0.629304
0.662656 0.662656 0.662656
0.695594 0.695594 0.695594
0.489676 0.489676 0.489676
0.525105 0.525105 0.525105
0.559945 0.559945 0.559945
0.594251 0.594251 0.594251
0.628069 0.628069 0.628069
0.661437 0.661437 0.661437
0.694389 0.694389 0.694389
0.726955 0.726955 0.726955
0.762115 0.762115 0.762115
0.558673 0.558673 0.558673
0.592998 0.592998 0.592998
0.626833 0.626833 0.626833
0.660217 0.660217 0.660217
0.693184 0.693184 0.693184
0.725763 0.725763 0.725763
0.760466 0.760466 0.760466
0.804971 0.804971 0.804971
0.848869 0.848869 0.848869
0.625596 0.625596 0.625596
0.658996 0.658996 0.658996
0.691978 0.691978 0.691978
0.724571 0.724571 0.724571
0.758817 0.758817 0.758817
0.803345 0.803345 0.803345
0.847265 0.847265 0.847265
0.890622 0.890622 0.890622
0.933457 0.933457 0.933457
0.690772 0.690772 0.690772
0.723379 0.723379 0.723379
0.757166 0.757166 0.757166
0.801718 0.801718 0.801718
0.845659 0.845659 0.845659
0.889036 0.889036 0.889036
0.931890 0.931890 0.931890
0.974257 0.974257 0.974257
1.000000 1.000000 1.000000
0.101088 0.101088 0.101088
0.151316 0.151316 0.151316
0.197606 0.197606 0.197606
0.241305 0.241305 0.241305
0.283098 0.283098 0.283098
0.323395 0.323395 0.323395
0.362472 0.362472 0.362472
0.400520 0.400520 0.400520
0.437683 0.437683 0.437683
0.195955 0.195955 0.195955
0.239734 0.239734 0.239734
0.281588 0.281588 0.281588
0.321936 0.321936 0.321936
0.361053 0.361053 0.361053
0.399136 0.399136 0.399136
0.436330 0.436330 0.436330
0.472747 0.472747 0.472747
0.508475 0.508475 0.508475
0.280077 0.280077 0.280077
0.320475 0.320475 0.320475
0.359634 0.359634 0.359634
0.397752 0.397752 0.397752
0.434976 0.434976 0.434976
0.471420 0.471420 0.471420
0.507172 0.507172 0.507172
0.542304 0.542304 0.542304
0.576875 0.576875 0.576875
0.358212 0.358212 0.358212
0.396366 0.396366 0.396366
0.433621 0.433621 0.433621
0.470092 0.470092 0.470092
0.505868 0.505868 0.505868
0.541021 0.541021 0.541021
0.575612 0.575612 0.575612
0.609691 0.609691 0.609691
0.643300 0.643300 0.643300
0.432265 0.432265 0.432265
0.468763 0.468763 0.468763
0.504563 0.504563 0.504563
0.539738 0.539738 0.539738
0.574349 0.574349 0.574349
0.608446 0.608446 0.608446
0.642071 0.642071 0.642071
0.675262 0.675262 0.675262
0.708049 0.708049 0.708049
0.503257 0.503257 0.503257
0.538455 0.538455 0.538455
0.573085 0.573085 0.573085
0.607200 0.607200 0.607200
0.640842 0.640842 0.640842
0.674048 0.674048 0.674048
0.706850 0.706850 0.706850
0.739275 0.739275 0.739275
0.779149 0.779149 0.779149
0.571821 0.571821 0.571821
0.605954 0.605954 0.605954
0.639612 0.639612 0.639612
0.672834 0.672834 0.672834
0.705650 0.705650 0.705650
0.738088 0.738088 0.738088
0.777510 0.777510 0.777510
0.821777 0.821777 0.821777
0.865456 0.865456 0.865456
0.638382 0.638382 0.638382
0.671619 0.671619 0.671619
0.704449 0.704449 0.704449
0.736901 0.736901 0.736901
0.775869 0.775869 0.775869
0.820160 0.820160 0.820160
0.863859 0.863859 0.863859
0.907013 0.907013 0.907013
0.949659 0.949659 0.949659
0.703248 0.703248 0.703248
0.735714 0.735714 0.735714
0.774228 0.774228 0.774228
0.818541 0.818541 0.818541
0.862262 0.862262 0.862262
0.905435 0.905435 0.905435
0.948099 0.948099 0.948099
0.990288 0.990288 0.990288
1.000000 1.000000 1.000000
0.120845 0.120845 0.120845
0.169334 0.169334 0.169334
0.214527 0.214527 0.214527
0.257438 0.257438 0.257438
0.298621 0.298621 0.298621
0.338426 0.338426 0.338426
0.377091 0.377091 0.377091
0.414787 0.414787 0.414787
0.451644 0.451644 0.451644
0.212909 0.212909 0.212909
0.255892 0.255892 0.255892
0.297132 0.297132 0.297132
0.336983 0.336983 0.336983
0.375686 0.375686 0.375686
0.413416 0.413416 0.413416
0.450301 0.450301 0.450301
0.486446 0.486446 0.486446
0.521931 0.521931 0.521931
0.295641 0.295641 0.295641
0.335539 0.335539 0.335539
0.374281 0.374281 0.374281
0.412043 0.412043 0.412043
0.448958 0.448958 0.448958
0.485128 0.485128 0.485128
0.520636 0.520636 0.520636
0.555548 0.555548 0.555548
0.589919 0.589919 0.589919
0.372874 0.372874 0.372874
0.410670 0.410670 0.410670
0.447614 0.447614 0.447614
0.483810 0.483810 0.483810
0.519341 0.519341 0.519341
0.554273 0.554273 0.554273
0.588664 0.588664 0.588664
0.622558 0.622558 0.622558
0.655998 0.655998 0.655998
0.446269 0.446269 0.446269
0.482491 0.482491 0.482491
0.518045 0.518045 0.518045
0.552998 0.552998 0.552998
0.587407 0.587407 0.587407
0.621320 0.621320 0.621320
0.654775 0.654775 0.654775
0.687808 0.687808 0.687808
0.720450 0.720450 0.720450
0.516748 0.516748 0.516748
0.551722 0.551722 0.551722
0.586151 0.586151 0.586151
0.620080 0.620080 0.620080
0.653552 0.653552 0.653552
0.686600 0.686600 0.686600
0.719255 0.719255 0.719255
0.751544 0.751544 0.751544
0.796091 0.796091 0.796091
0.584893 0.584893 0.584893
0.618841 0.618841 0.618841
0.652328 0.652328 0.652328
0.685392 0.685392 0.685392
0.718061 0.718061 0.718061
0.750362 0.750362 0.750362
0.794460 0.794460 0.794460
0.838498 0.838498 0.838498
0.881964 0.881964 0.881964
0.651104 0.651104 0.651104
0.684182 0.684182 0.684182
0.716866 0.716866 0.716866
0.749180 0.749180 0.749180
0.792829 0.792829 0.792829
0.836888 0.836888 0.836888
0.880375 0.880375 0.880375
0.923331 0.923331 0.923331
0.965792 0.965792 0.965792
0.715670 0.715670 0.715670
0.747997 0.747997 0.747997
0.791196 0.791196 0.791196
0.835278 0.835278 0.835278
0.878785 0.878785 0.878785
0.921759 0.921759 0.921759
0.964239 0.964239 0.964239
1.000000 1.000000 1.000000
1.000000 1.000000 1.000000
0.139821 0.139821 0.139821
0.186883 0.186883 0.186883
0.231120 0.231120 0.231120
0.273321 0.273321 0.273321
0.313946 0.313946 0.313946
0.353292 0.353292 0.353292
0.391570 0.391570 0.391570
0.428932 0.428932 0.428932
0.465497 0.465497 0.465497
0.229533 0.229533 0.229533
0.271799 0.271799 0.271799
0.312475 0.312475 0.312475
0.351864 0.351864 0.351864
0.390178 0.390178 0.390178
0.427572 0.427572 0.427572
0.464165 0.464165 0.464165
0.500049 0.500049 0.500049
0.535300 0.535300 0.535300
0.311003 0.311003 0.311003
0.350436 0.350436 0.350436
0.388786 0.388786 0.388786
0.426212 0.426212 0.426212
0.462832 0.462832 0.462832
0.498741 0.498741 0.498741
0.534014 0.534014 0.534014
0.568714 0.568714 0.568714
0.602891 0.602891 0.602891
0.387392 0.387392 0.387392
0.424850 0.424850 0.424850
0.461498 0.461498 0.461498
0.497431 0.497431 0.497431
0.532727 0.532727 0.532727
0.567447 0.567447 0.567447
0.601643 0.601643 0.601643
0.635360 0.635360 0.635360
0.668635 0.668635 0.668635
0.460163 0.460163 0.460163
0.496121 0.496121 0.496121
0.531439 0.531439 0.531439
0.566179 0.566179 0.566179
0.600394 0.600394 0.600394
0.634127 0.634127 0.634127
0.667418 0.667418 0.667418
0.700298 0.700298 0.700298
0.732797 0.732797 0.732797
0.530150 0.530150 0.530150
0.564910 0.564910 0.564910
0.599144 0.599144 0.599144
0.632894 0.632894 0.632894
0.666201 0.666201 0.666201
0.699096 0.699096 0.699096
0.731608 0.731608 0.731608
0.768551 0.768551 0.768551
0.812943 0.812943 0.812943
0.597893 0.597893 0.597893
0.631661 0.631661 0.631661
0.664983 0.664983 0.664983
0.697892 0.697892 0.697892
0.730418 0.730418 0.730418
0.766906 0.766906 0.766906
0.811321 0.811321 0.811321
0.855135 0.855135 0.855135
0.898395 0.898395 0.898395
0.663764 0.663764 0.663764
0.696689 0.696689 0.696689
0.729228 0.729228 0.729228
0.765260 0.765260 0.765260
0.809698 0.809698 0.809698
0.853533 0.853533 0.853533
0.896813 0.896813 0.896813
0.939577 0.939577 0.939577
0.981859 0.981859 0.981859
0.728038 0.728038 0.728038
0.763613 0.763613 0.763613
0.808074 0.808074 0.808074
0.851931 0.851931 0.851931
0.895230 0.895230 0.895230
0.938012 0.938012 0.938012
0.980311 0.980311 0.980311
1.000000 1.000000 1.000000
1.000000 1.000000 1.000000
0.158172 0.158172 0.158172
0.204030 0.204030 0.204030
0.247421 0.247421 0.247421
0.288977 0.288977 0.288977
0.329085 0.329085 0.329085
0.368003 0.368003 0.368003
0.405916 0.405916 0.405916
0.442962 0.442962 0.442962
0.479248 0.479248 0.479248
0.245860 0.245860 0.245860
0.287476 0.287476 0.287476
0.327632 0.327632 0.327632
0.366590 0.366590 0.366590
0.404537 0.404537 0.404537
0.441613 0.441613 0.441613
0.477926 0.477926 0.477926
0.513561 0.513561 0.513561
0.548587 0.548587 0.548587
0.326177 0.326177 0.326177
0.365176 0.365176 0.365176
0.403157 0.403157 0.403157
0.440263 0.440263 0.440263
0.476602 0.476602 0.476602
0.512261 0.512261 0.512261
0.547309 0.547309 0.547309
0.581804 0.581804 0.581804
0.615794 0.615794 0.615794
0.401776 0.401776 0.401776
0.438912 0.438912 0.438912
0.475278 0.475278 0.475278
0.510960 0.510960 0.510960
0.546029 0.546029 0.546029
0.580544 0.580544 0.580544
0.614552 0.614552 0.614552
0.648097 0.648097 0.648097
0.681212 0.681212 0.681212
0.473953 0.473953 0.473953
0.509659 0.509659 0.509659
0.544749 0.544749 0.544749
0.579283 0.579283 0.579283
0.613310 0.613310 0.613310
0.646870 0.646870 0.646870
0.680001 0.680001 0.680001
0.712733 0.712733 0.712733
0.745093 0.745093 0.745093
0.543469 0.543469 0.543469
0.578022 0.578022 0.578022
0.612066 0.612066 0.612066
0.645644 0.645644 0.645644
0.678789 0.678789 0.678789
0.711535 0.711535 0.711535
0.743909 0.743909 0.743909
0.785550 0.785550 0.785550
0.829708 0.829708 0.829708
0.610822 0.610822 0.610822
0.644416 0.644416 0.644416
0.677577 0.677577 0.677577
0.710337 0.710337 0.710337
0.742724 0.742724 0.742724
0.783914 0.783914 0.783914
0.828094 0.828094 0.828094
0.871692 0.871692 0.871692
0.914751 0.914751 0.914751
0.676365 0.676365 0.676365
0.709139 0.709139 0.709139
0.741539 0.741539 0.741539
0.782277 0.782277 0.782277
0.826479 0.826479 0.826479
0.870098 0.870098 0.870098
0.913176 0.913176 0.913176
0.955753 0.955753 0.955753
0.997859 0.997859 0.997859
0.740353 0.740353 0.740353
0.780639 0.780639 0.780639
0.824864 0.824864 0.824864
0.868503 0.868503 0.868503
0.911601 0.911601 0.911601
0.954195 0.954195 0.954195
0.996318 0.996318 0.996318
1.000000 1.000000 1.000000
1.000000 1.000000 1.000000
0.176005 0.176005 0.176005
0.220823 0.220823 0.220823
0.263457 0.263457 0.263457
0.304424 0.304424 0.304424
0.344052 0.344052 0.344052
0.382568 0.382568 0.382568
0.420136 0.420136 0.420136
0.456882 0.456882 0.456882
0.492901 0.492901 0.492901
0.261920 0.261920 0.261920
0.302942 0.302942 0.302942
0.342615 0.342615 0.342615
0.381169 0.381169 0.381169
0.418769 0.418769 0.418769
0.455543 0.455543 0.455543
0.491588 0.491588 0.491588
0.526984 0.526984 0.526984
0.561794 0.561794 0.561794
0.341177 0.341177 0.341177
0.379768 0.379768 0.379768
0.417402 0.417402 0.417402
0.454204 0.454204 0.454204
0.490274 0.490274 0.490274
0.525692 0.525692 0.525692
0.560523 0.560523 0.560523
0.594820 0.594820 0.594820
0.628630 0.628630 0.628630
0.416032 0.416032 0.416032
0.452863 0.452863 0.452863
0.488959 0.488959 0.488959
0.524400 0.524400 0.524400
0.559251 0.559251 0.559251
0.593568 0.593568 0.593568
0.627395 0.627395 0.627395
0.660771 0.660771 0.660771
0.693732 0.693732 0.693732
0.487643 0.487643 0.487643
0.523107 0.523107 0.523107
0.557979 0.557979 0.557979
0.592314 0.592314 0.592314
0.626158 0.626158 0.626158
0.659551 0.659551 0.659551
0.692526 0.692526 0.692526
0.725113 0.725113 0.725113
0.759567 0.759567 0.759567
0.556706 0.556706 0.556706
0.591060 0.591060 0.591060
0.624921 0.624921 0.624921
0.658330 0.658330 0.658330
0.691320 0.691320 0.691320
0.723921 0.723921 0.723921
0.757917 0.757917 0.757917
0.802458 0.802458 0.802458
0.846389 0.846389 0.846389
0.623684 0.623684 0.623684
0.657109 0.657109 0.657109
0.690113 0.690113 0.690113
0.722728 0.722728 0.722728
0.756266 0.756266 0.756266
0.800830 0.800830 0.800830
0.844783 0.844783 0.844783
0.888171 0.888171 0.888171
0.931035 0.931035 0.931035
0.688906 0.688906 0.688906
0.721535 0.721535 0.721535
0.754614 0.754614 0.754614
0.799202 0.799202 0.799202
0.843176 0.843176 0.843176
0.886584 0.886584 0.886584
0.929467 0.929467 0.929467
0.971860 0.971860 0.971860
1.000000 1.000000 1.000000
0.752961 0.752961 0.752961
0.797573 0.797573 0.797573
0.841569 0.841569 0.841569
0.884997 0.884997 0.884997
0.927898 0.927898 0.927898
0.970309 0.970309 0.970309
1.000000 1.000000 1.000000
1.000000 1.000000 1.000000
1.000000 1.000000 1.000000
