assets/luts/bw_glow.cube
TITLE "Silver Glow"
LUT_3D_SIZE 17
0.000000 0.000000 0.000000
0.041423 0.041423 0.041423
0.072122 0.072122 0.072122
0.099756 0.099756 0.099756
0.125571 0.125571 0.125571
0.150113 0.150113 0.150113
0.173685 0.173685 0.173685
0.196480 0.196480 0.196480
0.218632 0.218632 0.218632
0.240234 0.240234 0.240234
0.261361 0.261361 0.261361
0.282069 0.282069 0.282069
0.302403 0.302403 0.302403
0.322400 0.322400 0.322400
0.342092 0.342092 0.342092
0.361505 0.361505 0.361505
0.380660 0.380660 0.380660
0.071058 0.071058 0.071058
0.098776 0.098776 0.098776
0.124646 0.124646 0.124646
0.149228 0.149228 0.149228
0.172832 0.172832 0.172832
0.195654 0.195654 0.195654
0.217827 0.217827 0.217827
0.239448 0.239448 0.239448
0.260592 0.260592 0.260592
0.281314 0.281314 0.281314
0.301661 0.301661 0.301661
0.321670 0.321670 0.321670
0.341373 0.341373 0.341373
0.360795 0.360795 0.360795
0.379959 0.379959 0.379959
0.398885 0.398885 0.398885
0.417588 0.417588 0.417588
0.123720 0.123720 0.123720
0.148343 0.148343 0.148343
0.171979 0.171979 0.171979
0.194827 0.194827 0.194827
0.217021 0.217021 0.217021
0.238662 0.238662 0.238662
0.259822 0.259822 0.259822
0.280558 0.280558 0.280558
0.300919 0.300919 0.300919
0.320940 0.320940 0.320940
0.340653 0.340653 0.340653
0.360085 0.360085 0.360085
0.379259 0.379259 0.379259
0.398193 0.398193 0.398193
0.416904 0.416904 0.416904
0.435407 0.435407 0.435407
0.453716 0.453716 0.453716
0.171124 0.171124 0.171124
0.193998 0.193998 0.193998
0.216215 0.216215 0.216215
0.237875 0.237875 0.237875
0.259051 0.259051 0.259051
0.279802 0.279802 0.279802
0.300176 0.300176 0.300176
0.320209 0.320209 0.320209
0.339933 0.339933 0.339933
0.359375 0.359375 0.359375
0.378558 0.378558 0.378558
0.397500 0.397500 0.397500
0.416219 0.416219 0.416219
0.434730 0.434730 0.434730
0.453046 0.453046 0.453046
0.471179 0.471179 0.471179
0.489138 0.489138 0.489138
0.215408 0.215408 0.215408
0.237087 0.237087 0.237087
0.258280 0.258280 0.258280
0.279046 0.279046 0.279046
0.299433 0.299433 0.299433
0.319478 0.319478 0.319478
0.339213 0.339213 0.339213
0.358665 0.358665 0.358665
0.377856 0.377856 0.377856
0.396807 0.396807 0.396807
0.415534 0.415534 0.415534
0.434053 0.434053 0.434053
0.452376 0.452376 0.452376
0.470515 0.470515 0.470515
0.488481 0.488481 0.488481
0.506283 0.506283 0.506283
0.523930 0.523930 0.523930
0.257508 0.257508 0.257508
0.278289 0.278289 0.278289
0.298689 0.298689 0.298689
0.318746 0.318746 0.318746
0.338492 0.338492 0.338492
0.357954 0.357954 0.357954
0.377155 0.377155 0.377155
0.396114 0.396114 0.396114
0.414849 0.414849 0.414849
0.433375 0.433375 0.433375
0.451705 0.451705 0.451705
0.469850 0.469850 0.469850
0.487823 0.487823 0.487823
0.505631 0.505631 0.505631
0.523283 0.523283 0.523283
0.540788 0.540788 0.540788
0.558152 0.558152 0.558152
0.297945 0.297945 0.297945
0.318014 0.318014 0.318014
0.337771 0.337771 0.337771
0.357243 0.357243 0.357243
0.376453 0.376453 0.376453
0.395421 0.395421 0.395421
0.414164 0.414164 0.414164
0.432697 0.432697 0.432697
0.451034 0.451034 0.451034
0.469186 0.469186 0.469186
0.487164 0.487164 0.487164
0.504978 0.504978 0.504978
0.522636 0.522636 0.522636
0.540147 0.540147 0.540147
0.557516 0.557516 0.557516
0.574751 0.574751 0.574751
0.591858 0.591858 0.591858
0.337049 0.337049 0.337049
0.356531 0.356531 0.356531
0.375750 0.375750 0.375750
0.394727 0.394727 0.394727
0.413478 0.413478 0.413478
0.432019 0.432019 0.432019
0.450363 0.450363 0.450363
0.468521 0.468521 0.468521
0.486506 0.486506 0.486506
0.504326 0.504326 0.504326
0.521989 0.521989 0.521989
0.539505 0.539505 0.539505
0.556879 0.556879 0.556879
0.574119 0.574119 0.574119
0.591231 0.591231 0.591231
0.608219 0.608219 0.608219
0.625090 0.625090 0.625090
0.375048 0.375048 0.375048
0.394033 0.394033 0.394033
0.412792 0.412792 0.412792
0.431340 0.431340 0.431340
0.449691 0.449691 0.449691
0.467856 0.467856 0.467856
0.485847 0.485847 0.485847
0.503673 0.503673 0.503673
0.521342 0.521342 0.521342
0.538863 0.538863 0.538863
0.556243 0.556243 0.556243
0.573487 0.573487 0.573487
0.590604 0.590604 0.590604
0.607597 0.607597 0.607597
0.624472 0.624472 0.624472
0.641233 0.641233 0.641233
0.657886 0.657886 0.657886
0.412106 0.412106 0.412106
0.430661 0.430661 0.430661
0.449019 0.449019 0.449019
0.467191 0.467191 0.467191
0.485188 0.485188 0.485188
0.503020 0.503020 0.503020
0.520695 0.520695 0.520695
0.538221 0.538221 0.538221
0.555606 0.555606 0.555606
0.572855 0.572855 0.572855
0.589976 0.589976 0.589976
0.606974 0.606974 0.606974
0.623853 0.623853 0.623853
0.640619 0.640619 0.640619
0.657275 0.657275 0.657275
0.673827 0.673827 0.673827
0.690278 0.690278 0.690278
0.448347 0.448347 0.448347
0.466526 0.466526 0.466526
0.484529 0.484529 0.484529
0.502367 0.502367 0.502367
0.520047 0.520047 0.520047
0.537579 0.537579 0.537579
0.554969 0.554969 0.554969
0.572223 0.572223 0.572223
0.589348 0.589348 0.589348
0.606350 0.606350 0.606350
0.623234 0.623234 0.623234
0.640004 0.640004 0.640004
0.656664 0.656664 0.656664
0.673220 0.673220 0.673220
0.689675 0.689675 0.689675
0.706032 0.706032 0.706032
0.722294 0.722294 0.722294
0.483870 0.483870 0.483870
0.501713 0.501713 0.501713
0.519400 0.519400 0.519400
0.536936 0.536936 0.536936
0.554331 0.554331 0.554331
0.571591 0.571591 0.571591
0.588721 0.588721 0.588721
0.605727 0.605727 0.605727
0.622615 0.622615 0.622615
0.639389 0.639389 0.639389
0.656053 0.656053 0.656053
0.672613 0.672613 0.672613
0.689071 0.689071 0.689071
0.705431 0.705431 0.705431
0.721698 0.721698 0.721698
0.737873 0.737873 0.737873
0.754839 0.754839 0.754839
0.518752 0.518752 0.518752
0.536294 0.536294 0.536294
0.553694 0.553694 0.553694
0.570958 0.570958 0.570958
0.588093 0.588093 0.588093
0.605103 0.605103 0.605103
0.621995 0.621995 0.621995
0.638774 0.638774 0.638774
0.655442 0.655442 0.655442
0.672005 0.672005 0.672005
0.688467 0.688467 0.688467
0.704831 0.704831 0.704831
0.721101 0.721101 0.721101
0.737279 0.737279 0.737279
0.754013 0.754013 0.754013
0.776391 0.776391 0.776391
0.798610 0.798610 0.798610
0.553056 0.553056 0.553056
0.570325 0.570325 0.570325
0.587465 0.587465 0.587465
0.604480 0.604480 0.604480
0.621376 0.621376 0.621376
0.638158 0.638158 0.638158
0.654831 0.654831 0.654831
0.671398 0.671398 0.671398
0.687863 0.687863 0.687863
0.704231 0.704231 0.704231
0.720504 0.720504 0.720504
0.736686 0.736686 0.736686
0.753187 0.753187 0.753187
0.775571 0.775571 0.775571
0.797795 0.797795 0.797795
0.819865 0.819865 0.819865
0.841788 0.841788 0.841788
0.586836 0.586836 0.586836
0.603856 0.603856 0.603856
0.620757 0.620757 0.620757
0.637543 0.637543 0.637543
0.654219 0.654219 0.654219
0.670790 0.670790 0.670790
0.687259 0.687259 0.687259
0.703630 0.703630 0.703630
0.719907 0.719907 0.719907
0.736092 0.736092 0.736092
0.752360 0.752360 0.752360
0.774750 0.774750 0.774750
0.796980 0.796980 0.796980
0.819056 0.819056 0.819056
0.840984 0.840984 0.840984
0.862770 0.862770 0.862770
0.884419 0.884419 0.884419
0.620137 0.620137 0.620137
0.636927 0.636927 0.636927
0.653608 0.653608 0.653608
0.670182 0.670182 0.670182
0.686655 0.686655 0.686655
0.703030 0.703030 0.703030
0.719310 0.719310 0.719310
0.735498 0.735498 0.735498
0.751598 0.751598 0.751598
0.773930 0.773930 0.773930
0.796165 0.796165 0.796165
0.818246 0.818246 0.818246
0.840180 0.840180 0.840180
0.861971 0.861971 0.861971
0.883625 0.883625 0.883625
0.905148 0.905148 0.905148
0.926543 0.926543 0.926543
0.652996 0.652996 0.652996
0.669574 0.669574 0.669574
0.686051 0.686051 0.686051
0.702429 0.702429 0.702429
0.718712 0.718712 0.718712
0.734904 0.734904 0.734904
0.751007 0.751007 0.751007
0.773109 0.773109 0.773109
0.795350 0.795350 0.795350
0.817437 0.817437 0.817437
0.839375 0.839375 0.839375
0.861172 0.861172 0.861172
0.882831 0.882831 0.882831
0.904358 0.904358 0.904358
0.925758 0.925758 0.925758
0.947035 0.947035 0.947035
0.968193 0.968193 0.968193
0.019153 0.019153 0.019153
0.053637 0.053637 0.053637
0.082925 0.082925 0.082925
0.109775 0.109775 0.109775
0.135058 0.135058 0.135058
0.159202 0.159202 0.159202
0.182460 0.182460 0.182460
0.204996 0.204996 0.204996
0.226928 0.226928 0.226928
0.248342 0.248342 0.248342
0.269303 0.269303 0.269303
0.289864 0.289864 0.289864
0.310065 0.310065 0.310065
0.329943 0.329943 0.329943
0.349525 0.349525 0.349525
0.368837 0.368837 0.368837
0.387899 0.387899 0.387899
0.081899 0.081899 0.081899
0.108819 0.108819 0.108819
0.134150 0.134150 0.134150
0.158331 0.158331 0.158331
0.181618 0.181618 0.181618
0.204178 0.204178 0.204178
0.226131 0.226131 0.226131
0.247563 0.247563 0.247563
0.268539 0.268539 0.268539
0.289114 0.289114 0.289114
0.309328 0.309328 0.309328
0.329217 0.329217 0.329217
0.348810 0.348810 0.348810
0.368131 0.368131 0.368131
0.387202 0.387202 0.387202
0.406041 0.406041 0.406041
0.424664 0.424664 0.424664
0.133241 0.133241 0.133241
0.157458 0.157458 0.157458
0.180775 0.180775 0.180775
0.203360 0.203360 0.203360
0.225333 0.225333 0.225333
0.246783 0.246783 0.246783
0.267775 0.267775 0.267775
0.288363 0.288363 0.288363
0.308590 0.308590 0.308590
0.328491 0.328491 0.328491
0.348094 0.348094 0.348094
0.367425 0.367425 0.367425
0.386505 0.386505 0.386505
0.405352 0.405352 0.405352
0.423982 0.423982 0.423982
0.442410 0.442410 0.442410
0.460648 0.460648 0.460648
0.179931 0.179931 0.179931
0.202540 0.202540 0.202540
0.224535 0.224535 0.224535
0.246002 0.246002 0.246002
0.267010 0.267010 0.267010
0.287613 0.287613 0.287613
0.307852 0.307852 0.307852
0.327764 0.327764 0.327764
0.347378 0.347378 0.347378
0.366718 0.366718 0.366718
0.385807 0.385807 0.385807
0.404663 0.404663 0.404663
0.423301 0.423301 0.423301
0.441736 0.441736 0.441736
0.459981 0.459981 0.459981
0.478046 0.478046 0.478046
0.495942 0.495942 0.495942
0.223735 0.223735 0.223735
0.245221 0.245221 0.245221
0.266245 0.266245 0.266245
0.286861 0.286861 0.286861
0.307114 0.307114 0.307114
0.327037 0.327037 0.327037
0.346661 0.346661 0.346661
0.366011 0.366011 0.366011
0.385109 0.385109 0.385109
0.403973 0.403973 0.403973
0.422619 0.422619 0.422619
0.441061 0.441061 0.441061
0.459313 0.459313 0.459313
0.477384 0.477384 0.477384
0.495287 0.495287 0.495287
0.513029 0.513029 0.513029
0.530619 0.530619 0.530619
0.265479 0.265479 0.265479
0.286110 0.286110 0.286110
0.306375 0.306375 0.306375
0.326309 0.326309 0.326309
0.345944 0.345944 0.345944
0.365304 0.365304 0.365304
0.384411 0.384411 0.384411
0.403283 0.403283 0.403283
0.421936 0.421936 0.421936
0.440386 0.440386 0.440386
0.458644 0.458644 0.458644
0.476723 0.476723 0.476723
0.494631 0.494631 0.494631
0.512379 0.512379 0.512379
0.529974 0.529974 0.529974
0.547425 0.547425 0.547425
0.564737 0.564737 0.564737
0.305635 0.305635 0.305635
0.325582 0.325582 0.325582
0.345227 0.345227 0.345227
0.364597 0.364597 0.364597
0.383712 0.383712 0.383712
0.402592 0.402592 0.402592
0.421254 0.421254 0.421254
0.439711 0.439711 0.439711
0.457976 0.457976 0.457976
0.476061 0.476061 0.476061
0.493975 0.493975 0.493975
0.511729 0.511729 0.511729
0.529330 0.529330 0.529330
0.546785 0.546785 0.546785
0.564103 0.564103 0.564103
0.581288 0.581288 0.581288
0.598348 0.598348 0.598348
0.344509 0.344509 0.344509
0.363889 0.363889 0.363889
0.383013 0.383013 0.383013
0.401902 0.401902 0.401902
0.420571 0.420571 0.420571
0.439035 0.439035 0.439035
0.457307 0.457307 0.457307
0.475398 0.475398 0.475398
0.493319 0.493319 0.493319
0.511078 0.511078 0.511078
0.528685 0.528685 0.528685
0.546146 0.546146 0.546146
0.563468 0.563468 0.563468
0.580658 0.580658 0.580658
0.597722 0.597722 0.597722
0.614665 0.614665 0.614665
0.631492 0.631492 0.631492
0.382314 0.382314 0.382314
0.401211 0.401211 0.401211
0.419888 0.419888 0.419888
0.438359 0.438359 0.438359
0.456638 0.456638 0.456638
0.474736 0.474736 0.474736
0.492663 0.492663 0.492663
0.510428 0.510428 0.510428
0.528040 0.528040 0.528040
0.545506 0.545506 0.545506
0.562833 0.562833 0.562833
0.580028 0.580028 0.580028
0.597097 0.597097 0.597097
0.614044 0.614044 0.614044
0.630875 0.630875 0.630875
0.647595 0.647595 0.647595
0.664208 0.664208 0.664208
0.419205 0.419205 0.419205
0.437683 0.437683 0.437683
0.455969 0.455969 0.455969
0.474073 0.474073 0.474073
0.492006 0.492006 0.492006
0.509777 0.509777 0.509777
0.527394 0.527394 0.527394
0.544866 0.544866 0.544866
0.562198 0.562198 0.562198
0.579398 0.579398 0.579398
0.596471 0.596471 0.596471
0.613423 0.613423 0.613423
0.630258 0.630258 0.630258
0.646982 0.646982 0.646982
0.663598 0.663598 0.663598
0.680111 0.680111 0.680111
0.696524 0.696524 0.696524
0.455300 0.455300 0.455300
0.473410 0.473410 0.473410
0.491349 0.491349 0.491349
0.509126 0.509126 0.509126
0.526749 0.526749 0.526749
0.544225 0.544225 0.544225
0.561563 0.561563 0.561563
0.578767 0.578767 0.578767
0.595845 0.595845 0.595845
0.612801 0.612801 0.612801
0.629641 0.629641 0.629641
0.646369 0.646369 0.646369
0.662989 0.662989 0.662989
0.679505 0.679505 0.679505
0.695922 0.695922 0.695922
0.712243 0.712243 0.712243
0.728471 0.728471 0.728471
0.490692 0.490692 0.490692
0.508475 0.508475 0.508475
0.526103 0.526103 0.526103
0.543585 0.543585 0.543585
0.560927 0.560927 0.560927
0.578137 0.578137 0.578137
0.595219 0.595219 0.595219
0.612179 0.612179 0.612179
0.629023 0.629023 0.629023
0.645755 0.645755 0.645755
0.662379 0.662379 0.662379
0.678900 0.678900 0.678900
0.695320 0.695320 0.695320
0.711644 0.711644 0.711644
0.727875 0.727875 0.727875
0.744016 0.744016 0.744016
0.763389 0.763389 0.763389
0.525457 0.525457 0.525457
0.542944 0.542944 0.542944
0.560292 0.560292 0.560292
0.577506 0.577506 0.577506
0.594593 0.594593 0.594593
0.611558 0.611558 0.611558
0.628406 0.628406 0.628406
0.645141 0.645141 0.645141
0.661769 0.661769 0.661769
0.678294 0.678294 0.678294
0.694718 0.694718 0.694718
0.711045 0.711045 0.711045
0.727280 0.727280 0.727280
0.743424 0.743424 0.743424
0.762565 0.762565 0.762565
0.784881 0.784881 0.784881
0.807040 0.807040 0.807040
0.559656 0.559656 0.559656
0.576875 0.576875 0.576875
0.593966 0.593966 0.593966
0.610936 0.610936 0.610936
0.627788 0.627788 0.627788
0.644528 0.644528 0.644528
0.661160 0.661160 0.661160
0.677687 0.677687 0.677687
0.694115 0.694115 0.694115
0.710446 0.710446 0.710446
0.726684 0.726684 0.726684
0.742832 0.742832 0.742832
0.761741 0.761741 0.761741
0.784063 0.784063 0.784063
0.806228 0.806228 0.806228
0.828241 0.828241 0.828241
0.850109 0.850109 0.850109
0.593340 0.593340 0.593340
0.610313 0.610313 0.610313
0.627170 0.627170 0.627170
0.643914 0.643914 0.643914
0.660550 0.660550 0.660550
0.677081 0.677081 0.677081
0.693513 0.693513 0.693513
0.709847 0.709847 0.709847
0.726088 0.726088 0.726088
0.742239 0.742239 0.742239
0.760916 0.760916 0.760916
0.783245 0.783245 0.783245
0.805415 0.805415 0.805415
0.827434 0.827434 0.827434
0.849307 0.849307 0.849307
0.871040 0.871040 0.871040
0.892639 0.892639 0.892639
0.626552 0.626552 0.626552
0.643300 0.643300 0.643300
0.659939 0.659939 0.659939
0.676475 0.676475 0.676475
0.692910 0.692910 0.692910
0.709248 0.709248 0.709248
0.725492 0.725492 0.725492
0.741647 0.741647 0.741647
0.760092 0.760092 0.760092
0.782426 0.782426 0.782426
0.804602 0.804602 0.804602
0.826626 0.826626 0.826626
0.848505 0.848505 0.848505
0.870243 0.870243 0.870243
0.891846 0.891846 0.891846
0.913320 0.913320 0.913320
0.934667 0.934667 0.934667
0.659329 0.659329 0.659329
0.675868 0.675868 0.675868
0.692307 0.692307 0.692307
0.708649 0.708649 0.708649
0.724896 0.724896 0.724896
0.741054 0.741054 0.741054
0.759267 0.759267 0.759267
0.781607 0.781607 0.781607
0.803789 0.803789 0.803789
0.825819 0.825819 0.825819
0.847702 0.847702 0.847702
0.869446 0.869446 0.869446
0.891054 0.891054 0.891054
0.912532 0.912532 0.912532
0.933884 0.933884 0.933884
0.955115 0.955115 0.955115
0.976229 0.976229 0.976229
0.033347 0.033347 0.033347
0.065186 0.065186 0.065186
0.093387 0.093387 0.093387
0.119571 0.119571 0.119571
0.144382 0.144382 0.144382
0.168164 0.168164 0.168164
0.191130 0.191130 0.191130
0.213424 0.213424 0.213424
0.235150 0.235150 0.235150
0.256384 0.256384 0.256384
0.277187 0.277187 0.277187
0.297606 0.297606 0.297606
0.317681 0.317681 0.317681
0.337443 0.337443 0.337443
0.356919 0.356919 0.356919
0.376133 0.376133 0.376133
0.395105 0.395105 0.395105
0.092391 0.092391 0.092391
0.118635 0.118635 0.118635
0.143489 0.143489 0.143489
0.167304 0.167304 0.167304
0.190298 0.190298 0.190298
0.212615 0.212615 0.212615
0.234360 0.234360 0.234360
0.255611 0.255611 0.255611
0.276429 0.276429 0.276429
0.296861 0.296861 0.296861
0.316948 0.316948 0.316948
0.336721 0.336721 0.336721
0.356207 0.356207 0.356207
0.375431 0.375431 0.375431
0.394411 0.394411 0.394411
0.413166 0.413166 0.413166
0.431710 0.431710 0.431710
0.142594 0.142594 0.142594
0.166444 0.166444 0.166444
0.189465 0.189465 0.189465
0.211805 0.211805 0.211805
0.233569 0.233569 0.233569
0.254837 0.254837 0.254837
0.275670 0.275670 0.275670
0.296116 0.296116 0.296116
0.316215 0.316215 0.316215
0.335999 0.335999 0.335999
0.355495 0.355495 0.355495
0.374728 0.374728 0.374728
0.393717 0.393717 0.393717
0.412480 0.412480 0.412480
0.431032 0.431032 0.431032
0.449386 0.449386 0.449386
0.467554 0.467554 0.467554
0.188630 0.188630 0.188630
0.210993 0.210993 0.210993
0.232778 0.232778 0.232778
0.254063 0.254063 0.254063
0.274911 0.274911 0.274911
0.295370 0.295370 0.295370
0.315481 0.315481 0.315481
0.335276 0.335276 0.335276
0.354783 0.354783 0.354783
0.374025 0.374025 0.374025
0.393023 0.393023 0.393023
0.411794 0.411794 0.411794
0.430353 0.430353 0.430353
0.448714 0.448714 0.448714
0.466889 0.466889 0.466889
0.484889 0.484889 0.484889
0.502723 0.502723 0.502723
0.231985 0.231985 0.231985
0.253288 0.253288 0.253288
0.274151 0.274151 0.274151
0.294624 0.294624 0.294624
0.314747 0.314747 0.314747
0.334553 0.334553 0.334553
0.354070 0.354070 0.354070
0.373322 0.373322 0.373322
0.392328 0.392328 0.392328
0.411107 0.411107 0.411107
0.429674 0.429674 0.429674
0.448042 0.448042 0.448042
0.466223 0.466223 0.466223
0.484230 0.484230 0.484230
0.502070 0.502070 0.502070
0.519753 0.519753 0.519753
0.537287 0.537287 0.537287
0.273390 0.273390 0.273390
0.293877 0.293877 0.293877
0.314012 0.314012 0.314012
0.333830 0.333830 0.333830
0.353357 0.353357 0.353357
0.372618 0.372618 0.372618
0.391633 0.391633 0.391633
0.410420 0.410420 0.410420
0.428994 0.428994 0.428994
0.447369 0.447369 0.447369
0.465558 0.465558 0.465558
0.483570 0.483570 0.483570
0.501416 0.501416 0.501416
0.519105 0.519105 0.519105
0.536644 0.536644 0.536644
0.554042 0.554042 0.554042
0.571303 0.571303 0.571303
0.313277 0.313277 0.313277
0.333106 0.333106 0.333106
0.352643 0.352643 0.352643
0.371914 0.371914 0.371914
0.390937 0.390937 0.390937
0.409732 0.409732 0.409732
0.428314 0.428314 0.428314
0.446697 0.446697 0.446697
0.464892 0.464892 0.464892
0.482911 0.482911 0.482911
0.500763 0.500763 0.500763
0.518457 0.518457 0.518457
0.536002 0.536002 0.536002
0.553404 0.553404 0.553404
0.570670 0.570670 0.570670
0.587807 0.587807 0.587807
0.604820 0.604820 0.604820
0.351929 0.351929 0.351929
0.371209 0.371209 0.371209
0.390242 0.390242 0.390242
0.409045 0.409045 0.409045
0.427634 0.427634 0.427634
0.446024 0.446024 0.446024
0.464226 0.464226 0.464226
0.482251 0.482251 0.482251
0.500109 0.500109 0.500109
0.517809 0.517809 0.517809
0.535359 0.535359 0.535359
0.552766 0.552766 0.552766
0.570038 0.570038 0.570038
0.587179 0.587179 0.587179
0.604196 0.604196 0.604196
0.621094 0.621094 0.621094
0.637879 0.637879 0.637879
0.389546 0.389546 0.389546
0.408357 0.408357 0.408357
0.426954 0.426954 0.426954
0.445351 0.445351 0.445351
0.463559 0.463559 0.463559
0.481591 0.481591 0.481591
0.499455 0.499455 0.499455
0.517160 0.517160 0.517160
0.534716 0.534716 0.534716
0.552128 0.552128 0.552128
0.569404 0.569404 0.569404
0.586551 0.586551 0.586551
0.603572 0.603572 0.603572
0.620475 0.620475 0.620475
0.637263 0.637263 0.637263
0.653941 0.653941 0.653941
0.670514 0.670514 0.670514
0.426274 0.426274 0.426274
0.444677 0.444677 0.444677
0.462892 0.462892 0.462892
0.480930 0.480930 0.480930
0.498800 0.498800 0.498800
0.516512 0.516512 0.516512
0.534072 0.534072 0.534072
0.551490 0.551490 0.551490
0.568771 0.568771 0.568771
0.585922 0.585922 0.585922
0.602948 0.602948 0.602948
0.619855 0.619855 0.619855
0.636647 0.636647 0.636647
0.653330 0.653330 0.653330
0.669906 0.669906 0.669906
0.686381 0.686381 0.686381
0.702757 0.702757 0.702757
0.462226 0.462226 0.462226
0.480270 0.480270 0.480270
0.498146 0.498146 0.498146
0.515863 0.515863 0.515863
0.533429 0.533429 0.533429
0.550852 0.550852 0.550852
0.568138 0.568138 0.568138
0.585293 0.585293 0.585293
0.602324 0.602324 0.602324
0.619235 0.619235 0.619235
0.636032 0.636032 0.636032
0.652718 0.652718 0.652718
0.669298 0.669298 0.669298
0.685776 0.685776 0.685776
0.702156 0.702156 0.702156
0.718441 0.718441 0.718441
0.734634 0.734634 0.734634
0.497491 0.497491 0.497491
0.515214 0.515214 0.515214
0.532785 0.532785 0.532785
0.550213 0.550213 0.550213
0.567504 0.567504 0.567504
0.584664 0.584664 0.584664
0.601700 0.601700 0.601700
0.618615 0.618615 0.618615
0.635416 0.635416 0.635416
0.652106 0.652106 0.652106
0.668690 0.668690 0.668690
0.685172 0.685172 0.685172
0.701555 0.701555 0.701555
0.717843 0.717843 0.717843
0.734040 0.734040 0.734040
0.750147 0.750147 0.750147
0.771914 0.771914 0.771914
0.532141 0.532141 0.532141
0.549575 0.549575 0.549575
0.566870 0.566870 0.566870
0.584035 0.584035 0.584035
0.601075 0.601075 0.601075
0.617995 0.617995 0.617995
0.634800 0.634800 0.634800
0.651494 0.651494 0.651494
0.668082 0.668082 0.668082
0.684567 0.684567 0.684567
0.700954 0.700954 0.700954
0.717246 0.717246 0.717246
0.733446 0.733446 0.733446
0.749556 0.749556 0.749556
0.771092 0.771092 0.771092
0.793348 0.793348 0.793348
0.815448 0.815448 0.815448
0.566236 0.566236 0.566236
0.583406 0.583406 0.583406
0.600450 0.600450 0.600450
0.617374 0.617374 0.617374
0.634183 0.634183 0.634183
0.650881 0.650881 0.650881
0.667473 0.667473 0.667473
0.683963 0.683963 0.683963
0.700353 0.700353 0.700353
0.716648 0.716648 0.716648
0.732851 0.732851 0.732851
0.748965 0.748965 0.748965
0.770270 0.770270 0.770270
0.792532 0.792532 0.792532
0.814638 0.814638 0.814638
0.836595 0.836595 0.836595
0.858409 0.858409 0.858409
0.599825 0.599825 0.599825
0.616754 0.616754 0.616754
0.633567 0.633567 0.633567
0.650269 0.650269 0.650269
0.666865 0.666865 0.666865
0.683358 0.683358 0.683358
0.699752 0.699752 0.699752
0.716050 0.716050 0.716050
0.732257 0.732257 0.732257
0.748374 0.748374 0.748374
0.769448 0.769448 0.769448
0.791716 0.791716 0.791716
0.813827 0.813827 0.813827
0.835790 0.835790 0.835790
0.857609 0.857609 0.857609
0.879291 0.879291 0.879291
0.900839 0.900839 0.900839
0.632950 0.632950 0.632950
0.649657 0.649657 0.649657
0.666256 0.666256 0.666256
0.682753 0.682753 0.682753
0.699150 0.699150 0.699150
0.715452 0.715452 0.715452
0.731662 0.731662 0.731662
0.747782 0.747782 0.747782
0.768626 0.768626 0.768626
0.790899 0.790899 0.790899
0.813017 0.813017 0.813017
0.834985 0.834985 0.834985
0.856809 0.856809 0.856809
0.878495 0.878495 0.878495
0.900049 0.900049 0.900049
0.921474 0.921474 0.921474
0.942775 0.942775 0.942775
0.665647 0.665647 0.665647
0.682148 0.682148 0.682148
0.698549 0.698549 0.698549
0.714854 0.714854 0.714854
0.731067 0.731067 0.731067
0.747191 0.747191 0.747191
0.767804 0.767804 0.767804
0.790083 0.790083 0.790083
0.812206 0.812206 0.812206
0.834179 0.834179 0.834179
0.856009 0.856009 0.856009
0.877700 0.877700 0.877700
0.899258 0.899258 0.899258
0.920688 0.920688 0.920688
0.941993 0.941993 0.941993
0.963179 0.963179 0.963179
0.984249 0.984249 0.984249
0.046124 0.046124 0.046124
0.076241 0.076241 0.076241
0.103563 0.103563 0.103563
0.129170 0.129170 0.129170
0.153557 0.153557 0.153557
0.177007 0.177007 0.177007
0.199703 0.199703 0.199703
0.221770 0.221770 0.221770
0.243300 0.243300 0.243300
0.264364 0.264364 0.264364
0.285015 0.285015 0.285015
0.305299 0.305299 0.305299
0.325251 0.325251 0.325251
0.344901 0.344901 0.344901
0.364275 0.364275 0.364275
0.383394 0.383394 0.383394
0.402279 0.402279 0.402279
0.102593 0.102593 0.102593
0.128252 0.128252 0.128252
0.152678 0.152678 0.152678
