assets/luts/bw_noir.cube
TITLE "Deep Noir"
LUT_3D_SIZE 9
0.000000 0.000000 0.000000
0.026162 0.026162 0.026162
0.052325 0.052325 0.052325
0.078488 0.078488 0.078488
0.104650 0.104650 0.104650
0.130812 0.130812 0.130812
0.156975 0.156975 0.156975
0.183137 0.183137 0.183137
0.209300 0.209300 0.209300
0.051362 0.051362 0.051362
0.077525 0.077525 0.077525
0.103688 0.103688 0.103688
0.129850 0.129850 0.129850
0.156012 0.156012 0.156012
0.182175 0.182175 0.182175
0.208338 0.208338 0.208338
0.234500 0.234500 0.234500
0.260663 0.260663 0.260663
0.102725 0.102725 0.102725
0.128887 0.128887 0.128887
0.155050 0.155050 0.155050
0.181212 0.181212 0.181212
0.207375 0.207375 0.207375
0.233537 0.233537 0.233537
0.259700 0.259700 0.259700
0.285862 0.285862 0.285862
0.312025 0.312025 0.312025
0.154087 0.154087 0.154087
0.180250 0.180250 0.180250
0.206412 0.206412 0.206412
0.232575 0.232575 0.232575
0.258737 0.258737 0.258737
0.284900 0.284900 0.284900
0.311062 0.311062 0.311062
0.337225 0.337225 0.337225
0.374862 0.374862 0.374862
0.205450 0.205450 0.205450
0.231612 0.231612 0.231612
0.257775 0.257775 0.257775
0.283938 0.283938 0.283938
0.310100 0.310100 0.310100
0.336262 0.336262 0.336262
0.373075 0.373075 0.373075
0.421662 0.421662 0.421662
0.470250 0.470250 0.470250
0.256812 0.256812 0.256812
0.282975 0.282975 0.282975
0.309137 0.309137 0.309137
0.335300 0.335300 0.335300
0.371287 0.371287 0.371287
0.419875 0.419875 0.419875
0.468462 0.468462 0.468462
0.517050 0.517050 0.517050
0.565638 0.565638 0.565638
0.308175 0.308175 0.308175
0.334337 0.334337 0.334337
0.369500 0.369500 0.369500
0.418087 0.418087 0.418087
0.466675 0.466675 0.466675
0.515262 0.515262 0.515262
0.563850 0.563850 0.563850
0.612437 0.612437 0.612437
0.661025 0.661025 0.661025
0.367712 0.367712 0.367712
0.416300 0.416300 0.416300
0.464887 0.464887 0.464887
0.513475 0.513475 0.513475
0.562062 0.562062 0.562062
0.610650 0.610650 0.610650
0.659238 0.659238 0.659238
0.707825 0.707825 0.707825
0.756412 0.756412 0.756412
0.463100 0.463100 0.463100
0.511687 0.511687 0.511687
0.560275 0.560275 0.560275
0.608862 0.608862 0.608862
0.657450 0.657450 0.657450
0.706037 0.706037 0.706037
0.754625 0.754625 0.754625
0.803212 0.803212 0.803212
0.851800 0.851800 0.851800
0.009975 0.009975 0.009975
0.036137 0.036137 0.036137
0.062300 0.062300 0.062300
0.088462 0.088462 0.088462
0.114625 0.114625 0.114625
0.140787 0.140787 0.140787
0.166950 0.166950 0.166950
0.193112 0.193112 0.193112
0.219275 0.219275 0.219275
0.061337 0.061337 0.061337
0.087500 0.087500 0.087500
0.113662 0.113662 0.113662
0.139825 0.139825 0.139825
0.165987 0.165987 0.165987
0.192150 0.192150 0.192150
0.218312 0.218312 0.218312
0.244475 0.244475 0.244475
0.270637 0.270637 0.270637
0.112700 0.112700 0.112700
0.138862 0.138862 0.138862
0.165025 0.165025 0.165025
0.191187 0.191187 0.191187
0.217350 0.217350 0.217350
0.243512 0.243512 0.243512
0.269675 0.269675 0.269675
0.295837 0.295837 0.295837
0.322000 0.322000 0.322000
0.164062 0.164062 0.164062
0.190225 0.190225 0.190225
0.216387 0.216387 0.216387
0.242550 0.242550 0.242550
0.268712 0.268712 0.268712
0.294875 0.294875 0.294875
0.321037 0.321037 0.321037
0.347200 0.347200 0.347200
0.393387 0.393387 0.393387
0.215425 0.215425 0.215425
0.241587 0.241587 0.241587
0.267750 0.267750 0.267750
0.293912 0.293912 0.293912
0.320075 0.320075 0.320075
0.346237 0.346237 0.346237
0.391600 0.391600 0.391600
0.440187 0.440187 0.440187
0.488775 0.488775 0.488775
0.266787 0.266787 0.266787
0.292950 0.292950 0.292950
0.319112 0.319112 0.319112
0.345275 0.345275 0.345275
0.389812 0.389812 0.389812
0.438400 0.438400 0.438400
0.486987 0.486987 0.486987
0.535575 0.535575 0.535575
0.584162 0.584162 0.584162
0.318150 0.318150 0.318150
0.344312 0.344312 0.344312
0.388025 0.388025 0.388025
0.436612 0.436612 0.436612
0.485200 0.485200 0.485200
0.533787 0.533787 0.533787
0.582375 0.582375 0.582375
0.630962 0.630962 0.630962
0.679550 0.679550 0.679550
0.386237 0.386237 0.386237
0.434825 0.434825 0.434825
0.483412 0.483412 0.483412
0.532000 0.532000 0.532000
0.580587 0.580587 0.580587
0.629175 0.629175 0.629175
0.677763 0.677763 0.677763
0.726350 0.726350 0.726350
0.774937 0.774937 0.774937
0.481625 0.481625 0.481625
0.530212 0.530212 0.530212
0.578800 0.578800 0.578800
0.627387 0.627387 0.627387
0.675975 0.675975 0.675975
0.724562 0.724562 0.724562
0.773150 0.773150 0.773150
0.821737 0.821737 0.821737
0.870325 0.870325 0.870325
0.019950 0.019950 0.019950
0.046113 0.046113 0.046113
0.072275 0.072275 0.072275
0.098437 0.098437 0.098437
0.124600 0.124600 0.124600
0.150762 0.150762 0.150762
0.176925 0.176925 0.176925
0.203088 0.203088 0.203088
0.229250 0.229250 0.229250
0.071312 0.071312 0.071312
0.097475 0.097475 0.097475
0.123637 0.123637 0.123637
0.149800 0.149800 0.149800
0.175962 0.175962 0.175962
0.202125 0.202125 0.202125
0.228288 0.228288 0.228288
0.254450 0.254450 0.254450
0.280612 0.280612 0.280612
0.122675 0.122675 0.122675
0.148837 0.148837 0.148837
0.175000 0.175000 0.175000
0.201162 0.201162 0.201162
0.227325 0.227325 0.227325
0.253487 0.253487 0.253487
0.279650 0.279650 0.279650
0.305812 0.305812 0.305812
0.331975 0.331975 0.331975
0.174037 0.174037 0.174037
0.200200 0.200200 0.200200
0.226362 0.226362 0.226362
0.252525 0.252525 0.252525
0.278687 0.278687 0.278687
0.304850 0.304850 0.304850
0.331012 0.331012 0.331012
0.363325 0.363325 0.363325
0.411912 0.411912 0.411912
0.225400 0.225400 0.225400
0.251562 0.251562 0.251562
0.277725 0.277725 0.277725
0.303888 0.303888 0.303888
0.330050 0.330050 0.330050
0.361537 0.361537 0.361537
0.410125 0.410125 0.410125
0.458712 0.458712 0.458712
0.507300 0.507300 0.507300
0.276762 0.276762 0.276762
0.302925 0.302925 0.302925
0.329087 0.329087 0.329087
0.359750 0.359750 0.359750
0.408337 0.408337 0.408337
0.456925 0.456925 0.456925
0.505512 0.505512 0.505512
0.554100 0.554100 0.554100
0.602687 0.602687 0.602687
0.328125 0.328125 0.328125
0.357962 0.357962 0.357962
0.406550 0.406550 0.406550
0.455137 0.455137 0.455137
0.503725 0.503725 0.503725
0.552312 0.552312 0.552312
0.600900 0.600900 0.600900
0.649487 0.649487 0.649487
0.698075 0.698075 0.698075
0.404762 0.404762 0.404762
0.453350 0.453350 0.453350
0.501937 0.501937 0.501937
0.550525 0.550525 0.550525
0.599112 0.599112 0.599112
0.647700 0.647700 0.647700
0.696287 0.696287 0.696287
0.744875 0.744875 0.744875
0.793462 0.793462 0.793462
0.500150 0.500150 0.500150
0.548737 0.548737 0.548737
0.597325 0.597325 0.597325
0.645912 0.645912 0.645912
0.694500 0.694500 0.694500
0.743087 0.743087 0.743087
0.791675 0.791675 0.791675
0.840262 0.840262 0.840262
0.888850 0.888850 0.888850
0.029925 0.029925 0.029925
0.056087 0.056087 0.056087
0.082250 0.082250 0.082250
0.108413 0.108413 0.108413
0.134575 0.134575 0.134575
0.160737 0.160737 0.160737
0.186900 0.186900 0.186900
0.213062 0.213062 0.213062
0.239225 0.239225 0.239225
0.081287 0.081287 0.081287
0.107450 0.107450 0.107450
0.133612 0.133612 0.133612
0.159775 0.159775 0.159775
0.185937 0.185937 0.185937
0.212100 0.212100 0.212100
0.238263 0.238263 0.238263
0.264425 0.264425 0.264425
0.290587 0.290587 0.290587
0.132650 0.132650 0.132650
0.158812 0.158812 0.158812
0.184975 0.184975 0.184975
0.211137 0.211137 0.211137
0.237300 0.237300 0.237300
0.263462 0.263462 0.263462
0.289625 0.289625 0.289625
0.315787 0.315787 0.315787
0.341950 0.341950 0.341950
0.184012 0.184012 0.184012
0.210175 0.210175 0.210175
0.236337 0.236337 0.236337
0.262500 0.262500 0.262500
0.288662 0.288662 0.288662
0.314825 0.314825 0.314825
0.340987 0.340987 0.340987
0.381850 0.381850 0.381850
0.430437 0.430437 0.430437
0.235375 0.235375 0.235375
0.261537 0.261537 0.261537
0.287700 0.287700 0.287700
0.313862 0.313862 0.313862
0.340025 0.340025 0.340025
0.380062 0.380062 0.380062
0.428650 0.428650 0.428650
0.477237 0.477237 0.477237
0.525825 0.525825 0.525825
0.286737 0.286737 0.286737
0.312900 0.312900 0.312900
0.339062 0.339062 0.339062
0.378275 0.378275 0.378275
0.426862 0.426862 0.426862
0.475450 0.475450 0.475450
0.524037 0.524037 0.524037
0.572625 0.572625 0.572625
0.621212 0.621212 0.621212
0.338100 0.338100 0.338100
0.376487 0.376487 0.376487
0.425075 0.425075 0.425075
0.473662 0.473662 0.473662
0.522250 0.522250 0.522250
0.570837 0.570837 0.570837
0.619425 0.619425 0.619425
0.668012 0.668012 0.668012
0.716600 0.716600 0.716600
0.423287 0.423287 0.423287
0.471875 0.471875 0.471875
0.520462 0.520462 0.520462
0.569050 0.569050 0.569050
0.617637 0.617637 0.617637
0.666225 0.666225 0.666225
0.714813 0.714813 0.714813
0.763400 0.763400 0.763400
0.811987 0.811987 0.811987
0.518675 0.518675 0.518675
0.567263 0.567263 0.567263
0.615850 0.615850 0.615850
0.664437 0.664437 0.664437
0.713025 0.713025 0.713025
0.761612 0.761612 0.761612
0.810200 0.810200 0.810200
0.858787 0.858787 0.858787
0.907375 0.907375 0.907375
0.039900 0.039900 0.039900
0.066062 0.066062 0.066062
0.092225 0.092225 0.092225
0.118387 0.118387 0.118387
0.144550 0.144550 0.144550
0.170712 0.170712 0.170712
0.196875 0.196875 0.196875
0.223037 0.223037 0.223037
0.249200 0.249200 0.249200
0.091262 0.091262 0.091262
0.117425 0.117425 0.117425
0.143587 0.143587 0.143587
0.169750 0.169750 0.169750
0.195912 0.195912 0.195912
0.222075 0.222075 0.222075
0.248237 0.248237 0.248237
0.274400 0.274400 0.274400
0.300563 0.300563 0.300563
0.142625 0.142625 0.142625
0.168787 0.168787 0.168787
0.194950 0.194950 0.194950
0.221112 0.221112 0.221112
0.247275 0.247275 0.247275
0.273437 0.273437 0.273437
0.299600 0.299600 0.299600
0.325762 0.325762 0.325762
0.353575 0.353575 0.353575
0.193988 0.193988 0.193988
0.220150 0.220150 0.220150
0.246312 0.246312 0.246312
0.272475 0.272475 0.272475
0.298637 0.298637 0.298637
0.324800 0.324800 0.324800
0.351787 0.351787 0.351787
0.400375 0.400375 0.400375
0.448962 0.448962 0.448962
0.245350 0.245350 0.245350
0.271512 0.271512 0.271512
0.297675 0.297675 0.297675
0.323838 0.323838 0.323838
0.350000 0.350000 0.350000
0.398588 0.398588 0.398588
0.447175 0.447175 0.447175
0.495762 0.495762 0.495762
0.544350 0.544350 0.544350
0.296712 0.296712 0.296712
0.322875 0.322875 0.322875
0.349037 0.349037 0.349037
0.396800 0.396800 0.396800
0.445387 0.445387 0.445387
0.493975 0.493975 0.493975
0.542562 0.542562 0.542562
0.591150 0.591150 0.591150
0.639738 0.639738 0.639738
0.348075 0.348075 0.348075
0.395012 0.395012 0.395012
0.443600 0.443600 0.443600
0.492188 0.492188 0.492188
0.540775 0.540775 0.540775
0.589363 0.589363 0.589363
0.637950 0.637950 0.637950
0.686538 0.686538 0.686538
0.735125 0.735125 0.735125
0.441813 0.441813 0.441813
0.490400 0.490400 0.490400
0.538988 0.538988 0.538988
0.587575 0.587575 0.587575
0.636162 0.636162 0.636162
0.684750 0.684750 0.684750
0.733338 0.733338 0.733338
0.781925 0.781925 0.781925
0.830512 0.830512 0.830512
0.537200 0.537200 0.537200
0.585788 0.585788 0.585788
0.634375 0.634375 0.634375
0.682963 0.682963 0.682963
0.731550 0.731550 0.731550
0.780138 0.780138 0.780138
0.828725 0.828725 0.828725
0.877313 0.877313 0.877313
0.925900 0.925900 0.925900
0.049875 0.049875 0.049875
0.076037 0.076037 0.076037
0.102200 0.102200 0.102200
0.128362 0.128362 0.128362
0.154525 0.154525 0.154525
0.180687 0.180687 0.180687
0.206850 0.206850 0.206850
0.233013 0.233013 0.233013
0.259175 0.259175 0.259175
0.101237 0.101237 0.101237
0.127400 0.127400 0.127400
0.153562 0.153562 0.153562
0.179725 0.179725 0.179725
0.205887 0.205887 0.205887
0.232050 0.232050 0.232050
0.258213 0.258213 0.258213
0.284375 0.284375 0.284375
0.310538 0.310538 0.310538
0.152600 0.152600 0.152600
0.178762 0.178762 0.178762
0.204925 0.204925 0.204925
0.231087 0.231087 0.231087
0.257250 0.257250 0.257250
0.283412 0.283412 0.283412
0.309575 0.309575 0.309575
0.335737 0.335737 0.335737
0.372100 0.372100 0.372100
0.203962 0.203962 0.203962
0.230125 0.230125 0.230125
0.256288 0.256288 0.256288
0.282450 0.282450 0.282450
0.308613 0.308613 0.308613
0.334775 0.334775 0.334775
0.370312 0.370312 0.370312
0.418900 0.418900 0.418900
0.467487 0.467487 0.467487
0.255325 0.255325 0.255325
0.281487 0.281487 0.281487
0.307650 0.307650 0.307650
0.333813 0.333813 0.333813
0.368525 0.368525 0.368525
0.417112 0.417112 0.417112
0.465700 0.465700 0.465700
0.514288 0.514288 0.514288
0.562875 0.562875 0.562875
0.306687 0.306687 0.306687
0.332850 0.332850 0.332850
0.366737 0.366737 0.366737
0.415325 0.415325 0.415325
0.463912 0.463912 0.463912
0.512500 0.512500 0.512500
0.561087 0.561087 0.561087
0.609675 0.609675 0.609675
0.658262 0.658262 0.658262
0.364950 0.364950 0.364950
0.413538 0.413538 0.413538
0.462125 0.462125 0.462125
0.510712 0.510712 0.510712
0.559300 0.559300 0.559300
0.607887 0.607887 0.607887
0.656475 0.656475 0.656475
0.705063 0.705063 0.705063
0.753650 0.753650 0.753650
0.460338 0.460338 0.460338
0.508925 0.508925 0.508925
0.557512 0.557512 0.557512
0.606100 0.606100 0.606100
0.654687 0.654687 0.654687
0.703275 0.703275 0.703275
0.751863 0.751863 0.751863
0.800450 0.800450 0.800450
0.849037 0.849037 0.849037
0.555725 0.555725 0.555725
0.604313 0.604313 0.604313
0.652900 0.652900 0.652900
0.701488 0.701488 0.701488
0.750075 0.750075 0.750075
0.798663 0.798663 0.798663
0.847250 0.847250 0.847250
0.895837 0.895837 0.895837
0.944425 0.944425 0.944425
0.059850 0.059850 0.059850
0.086013 0.086013 0.086013
0.112175 0.112175 0.112175
0.138337 0.138337 0.138337
0.164500 0.164500 0.164500
0.190662 0.190662 0.190662
0.216825 0.216825 0.216825
0.242987 0.242987 0.242987
0.269150 0.269150 0.269150
0.111212 0.111212 0.111212
0.137375 0.137375 0.137375
0.163538 0.163538 0.163538
0.189700 0.189700 0.189700
0.215862 0.215862 0.215862
0.242025 0.242025 0.242025
0.268188 0.268188 0.268188
0.294350 0.294350 0.294350
0.320512 0.320512 0.320512
0.162575 0.162575 0.162575
0.188738 0.188738 0.188738
0.214900 0.214900 0.214900
0.241062 0.241062 0.241062
0.267225 0.267225 0.267225
0.293387 0.293387 0.293387
0.319550 0.319550 0.319550
0.345712 0.345712 0.345712
0.390625 0.390625 0.390625
0.213937 0.213937 0.213937
0.240100 0.240100 0.240100
0.266263 0.266263 0.266263
0.292425 0.292425 0.292425
0.318587 0.318587 0.318587
0.344750 0.344750 0.344750
0.388837 0.388837 0.388837
0.437425 0.437425 0.437425
0.486012 0.486012 0.486012
0.265300 0.265300 0.265300
0.291462 0.291462 0.291462
0.317625 0.317625 0.317625
0.343788 0.343788 0.343788
0.387050 0.387050 0.387050
0.435638 0.435638 0.435638
0.484225 0.484225 0.484225
0.532813 0.532813 0.532813
0.581400 0.581400 0.581400
0.316662 0.316662 0.316662
0.342825 0.342825 0.342825
0.385262 0.385262 0.385262
0.433850 0.433850 0.433850
0.482437 0.482437 0.482437
0.531025 0.531025 0.531025
0.579612 0.579612 0.579612
0.628200 0.628200 0.628200
0.676787 0.676787 0.676787
0.383475 0.383475 0.383475
0.432062 0.432062 0.432062
0.480650 0.480650 0.480650
0.529237 0.529237 0.529237
0.577825 0.577825 0.577825
0.626412 0.626412 0.626412
0.675000 0.675000 0.675000
0.723588 0.723588 0.723588
0.772175 0.772175 0.772175
0.478862 0.478862 0.478862
0.527450 0.527450 0.527450
0.576037 0.576037 0.576037
0.624625 0.624625 0.624625
0.673212 0.673212 0.673212
0.721800 0.721800 0.721800
0.770388 0.770388 0.770388
0.818975 0.818975 0.818975
0.867562 0.867562 0.867562
0.574250 0.574250 0.574250
0.622838 0.622838 0.622838
0.671425 0.671425 0.671425
0.720012 0.720012 0.720012
0.768600 0.768600 0.768600
0.817187 0.817187 0.817187
0.865775 0.865775 0.865775
0.914362 0.914362 0.914362
0.962950 0.962950 0.962950
0.069825 0.069825 0.069825
0.095987 0.095987 0.095987
0.122150 0.122150 0.122150
0.148312 0.148312 0.148312
0.174475 0.174475 0.174475
0.200637 0.200637 0.200637
0.226800 0.226800 0.226800
0.252962 0.252962 0.252962
0.279125 0.279125 0.279125
0.121187 0.121187 0.121187
0.147350 0.147350 0.147350
0.173512 0.173512 0.173512
0.199675 0.199675 0.199675
0.225837 0.225837 0.225837
0.252000 0.252000 0.252000
0.278162 0.278162 0.278162
0.304325 0.304325 0.304325
0.330487 0.330487 0.330487
0.172550 0.172550 0.172550
0.198712 0.198712 0.198712
0.224875 0.224875 0.224875
0.251037 0.251037 0.251037
0.277200 0.277200 0.277200
0.303362 0.303362 0.303362
0.329525 0.329525 0.329525
0.360562 0.360562 0.360562
0.409150 0.409150 0.409150
0.223912 0.223912 0.223912
0.250075 0.250075 0.250075
0.276237 0.276237 0.276237
0.302400 0.302400 0.302400
0.328562 0.328562 0.328562
0.358775 0.358775 0.358775
0.407362 0.407362 0.407362
0.455950 0.455950 0.455950
0.504537 0.504537 0.504537
0.275275 0.275275 0.275275
0.301437 0.301437 0.301437
0.327600 0.327600 0.327600
0.356988 0.356988 0.356988
0.405575 0.405575 0.405575
0.454162 0.454162 0.454162
0.502750 0.502750 0.502750
0.551337 0.551337 0.551337
0.599925 0.599925 0.599925
0.326637 0.326637 0.326637
0.355200 0.355200 0.355200
0.403787 0.403787 0.403787
0.452375 0.452375 0.452375
0.500962 0.500962 0.500962
0.549550 0.549550 0.549550
0.598137 0.598137 0.598137
0.646725 0.646725 0.646725
0.695312 0.695312 0.695312
0.402000 0.402000 0.402000
0.450587 0.450587 0.450587
0.499175 0.499175 0.499175
0.547762 0.547762 0.547762
0.596350 0.596350 0.596350
0.644937 0.644937 0.644937
0.693525 0.693525 0.693525
0.742112 0.742112 0.742112
0.790700 0.790700 0.790700
0.497387 0.497387 0.497387
0.545975 0.545975 0.545975
0.594562 0.594562 0.594562
0.643150 0.643150 0.643150
0.691737 0.691737 0.691737
0.740325 0.740325 0.740325
0.788913 0.788913 0.788913
0.837500 0.837500 0.837500
0.886087 0.886087 0.886087
0.592775 0.592775 0.592775
0.641363 0.641363 0.641363
0.689950 0.689950 0.689950
0.738538 0.738538 0.738538
0.787125 0.787125 0.787125
0.835712 0.835712 0.835712
0.884300 0.884300 0.884300
0.932887 0.932887 0.932887
0.981475 0.981475 0.981475
0.079800 0.079800 0.079800
0.105963 0.105963 0.105963
0.132125 0.132125 0.132125
0.158287 0.158287 0.158287
0.184450 0.184450 0.184450
0.210612 0.210612 0.210612
0.236775 0.236775 0.236775
0.262937 0.262937 0.262937
0.289100 0.289100 0.289100
0.131163 0.131163 0.131163
0.157325 0.157325 0.157325
0.183487 0.183487 0.183487
0.209650 0.209650 0.209650
0.235812 0.235812 0.235812
0.261975 0.261975 0.261975
0.288137 0.288137 0.288137
0.314300 0.314300 0.314300
0.340463 0.340463 0.340463
0.182525 0.182525 0.182525
0.208687 0.208687 0.208687
0.234850 0.234850 0.234850
0.261012 0.261012 0.261012
0.287175 0.287175 0.287175
0.313337 0.313337 0.313337
0.339500 0.339500 0.339500
0.379088 0.379088 0.379088
0.427675 0.427675 0.427675
0.233887 0.233887 0.233887
0.260050 0.260050 0.260050
0.286212 0.286212 0.286212
0.312375 0.312375 0.312375
0.338537 0.338537 0.338537
0.377300 0.377300 0.377300
0.425887 0.425887 0.425887
0.474475 0.474475 0.474475
0.523062 0.523062 0.523062
0.285250 0.285250 0.285250
0.311412 0.311412 0.311412
0.337575 0.337575 0.337575
0.375512 0.375512 0.375512
0.424100 0.424100 0.424100
0.472687 0.472687 0.472687
0.521275 0.521275 0.521275
0.569862 0.569862 0.569862
0.618450 0.618450 0.618450
0.336612 0.336612 0.336612
0.373725 0.373725 0.373725
0.422312 0.422312 0.422312
0.470900 0.470900 0.470900
0.519487 0.519487 0.519487
0.568075 0.568075 0.568075
0.616662 0.616662 0.616662
0.665250 0.665250 0.665250
0.713837 0.713837 0.713837
0.420525 0.420525 0.420525
0.469112 0.469112 0.469112
0.517700 0.517700 0.517700
0.566287 0.566287 0.566287
0.614875 0.614875 0.614875
0.663462 0.663462 0.663462
0.712050 0.712050 0.712050
0.760638 0.760638 0.760638
0.809225 0.809225 0.809225
0.515912 0.515912 0.515912
0.564500 0.564500 0.564500
0.613088 0.613088 0.613088
0.661675 0.661675 0.661675
0.710262 0.710262 0.710262
0.758850 0.758850 0.758850
0.807438 0.807438 0.807438
0.856025 0.856025 0.856025
0.904612 0.904612 0.904612
0.611300 0.611300 0.611300
0.659887 0.659887 0.659887
0.708475 0.708475 0.708475
0.757062 0.757062 0.757062
0.805650 0.805650 0.805650
0.854237 0.854237 0.854237
0.902825 0.902825 0.902825
0.951412 0.951412 0.951412
1.000000 1.000000 1.000000
