assets/luts/bw_noir.cube
TITLE "Deep Noir"
LUT_3D_SIZE 5
0.000000 0.000000 0.000000
0.052325 0.052325 0.052325
0.104650 0.104650 0.104650
0.156975 0.156975 0.156975
0.209300 0.209300 0.209300
0.102725 0.102725 0.102725
0.155050 0.155050 0.155050
0.207375 0.207375 0.207375
0.259700 0.259700 0.259700
0.312025 0.312025 0.312025
0.205450 0.205450 0.205450
0.257775 0.257775 0.257775
0.310100 0.310100 0.310100
0.373075 0.373075 0.373075
0.470250 0.470250 0.470250
0.308175 0.308175 0.308175
0.369500 0.369500 0.369500
0.466675 0.466675 0.466675
0.563850 0.563850 0.563850
0.661025 0.661025 0.661025
0.463100 0.463100 0.463100
0.560275 0.560275 0.560275
0.657450 0.657450 0.657450
0.754625 0.754625 0.754625
0.851800 0.851800 0.851800
0.019950 0.019950 0.019950
0.072275 0.072275 0.072275
0.124600 0.124600 0.124600
0.176925 0.176925 0.176925
0.229250 0.229250 0.229250
0.122675 0.122675 0.122675
0.175000 0.175000 0.175000
0.227325 0.227325 0.227325
0.279650 0.279650 0.279650
0.331975 0.331975 0.331975
0.225400 0.225400 0.225400
0.277725 0.277725 0.277725
0.330050 0.330050 0.330050
0.410125 0.410125 0.410125
0.507300 0.507300 0.507300
0.328125 0.328125 0.328125
0.406550 0.406550 0.406550
0.503725 0.503725 0.503725
0.600900 0.600900 0.600900
0.698075 0.698075 0.698075
0.500150 0.500150 0.500150
0.597325 0.597325 0.597325
0.694500 0.694500 0.694500
0.791675 0.791675 0.791675
0.888850 0.888850 0.888850
0.039900 0.039900 0.039900
0.092225 0.092225 0.092225
0.144550 0.144550 0.144550
0.196875 0.196875 0.196875
0.249200 0.249200 0.249200
0.142625 0.142625 0.142625
0.194950 0.194950 0.194950
0.247275 0.247275 0.247275
0.299600 0.299600 0.299600
0.353575 0.353575 0.353575
0.245350 0.245350 0.245350
0.297675 0.297675 0.297675
0.350000 0.350000 0.350000
0.447175 0.447175 0.447175
0.544350 0.544350 0.544350
0.348075 0.348075 0.348075
0.443600 0.443600 0.443600
0.540775 0.540775 0.540775
0.637950 0.637950 0.637950
0.735125 0.735125 0.735125
0.537200 0.537200 0.537200
0.634375 0.634375 0.634375
0.731550 0.731550 0.731550
0.828725 0.828725 0.828725
0.925900 0.925900 0.925900
0.059850 0.059850 0.059850
0.112175 0.112175 0.112175
0.164500 0.164500 0.164500
0.216825 0.216825 0.216825
0.269150 0.269150 0.269150
0.162575 0.162575 0.162575
0.214900 0.214900 0.214900
0.267225 0.267225 0.267225
0.319550 0.319550 0.319550
0.390625 0.390625 0.390625
0.265300 0.265300 0.265300
0.317625 0.317625 0.317625
0.387050 0.387050 0.387050
0.484225 0.484225 0.484225
0.581400 0.581400 0.581400
0.383475 0.383475 0.383475
0.480650 0.480650 0.480650
0.577825 0.577825 0.577825
0.675000 0.675000 0.675000
0.772175 0.772175 0.772175
0.574250 0.574250 0.574250
0.671425 0.671425 0.671425
0.768600 0.768600 0.768600
0.865775 0.865775 0.865775
0.962950 0.962950 0.962950
0.079800 0.079800 0.079800
0.132125 0.132125 0.132125
0.184450 0.184450 0.184450
0.236775 0.236775 0.236775
0.289100 0.289100 0.289100
0.182525 0.182525 0.182525
0.234850 0.234850 0.234850
0.287175 0.287175 0.287175
0.339500 0.339500 0.339500
0.427675 0.427675 0.427675
0.285250 0.285250 0.285250
0.337575 0.337575 0.337575
0.424100 0.424100 0.424100
0.521275 0.521275 0.521275
0.618450 0.618450 0.618450
0.420525 0.420525 0.420525
0.517700 0.517700 0.517700
0.614875 0.614875 0.614875
0.712050 0.712050 0.712050
0.809225 0.809225 0.809225
0.611300 0.611300 0.611300
0.708475 0.708475 0.708475
0.805650 0.805650 0.805650
0.902825 0.902825 0.902825
1.000000 1.000000 1.000000
