assets/luts/bw_noir.cube
TITLE "Deep Noir"
LUT_3D_SIZE 17
0.000000 0.000000 0.000000
0.013081 0.013081 0.013081
0.026162 0.026162 0.026162
0.039244 0.039244 0.039244
0.052325 0.052325 0.052325
0.065406 0.065406 0.065406
0.078488 0.078488 0.078488
0.091569 0.091569 0.091569
0.104650 0.104650 0.104650
0.117731 0.117731 0.117731
0.130812 0.130812 0.130812
0.143894 0.143894 0.143894
0.156975 0.156975 0.156975
0.170056 0.170056 0.170056
0.183137 0.183137 0.183137
0.196219 0.196219 0.196219
0.209300 0.209300 0.209300
0.025681 0.025681 0.025681
0.038762 0.038762 0.038762
0.051844 0.051844 0.051844
0.064925 0.064925 0.064925
0.078006 0.078006 0.078006
0.091087 0.091087 0.091087
0.104169 0.104169 0.104169
0.117250 0.117250 0.117250
0.130331 0.130331 0.130331
0.143412 0.143412 0.143412
0.156494 0.156494 0.156494
0.169575 0.169575 0.169575
0.182656 0.182656 0.182656
0.195738 0.195738 0.195738
0.208819 0.208819 0.208819
0.221900 0.221900 0.221900
0.234981 0.234981 0.234981
0.051362 0.051362 0.051362
0.064444 0.064444 0.064444
0.077525 0.077525 0.077525
0.090606 0.090606 0.090606
0.103688 0.103688 0.103688
0.116769 0.116769 0.116769
0.129850 0.129850 0.129850
0.142931 0.142931 0.142931
0.156012 0.156012 0.156012
0.169094 0.169094 0.169094
0.182175 0.182175 0.182175
0.195256 0.195256 0.195256
0.208338 0.208338 0.208338
0.221419 0.221419 0.221419
0.234500 0.234500 0.234500
0.247581 0.247581 0.247581
0.260663 0.260663 0.260663
0.077044 0.077044 0.077044
0.090125 0.090125 0.090125
0.103206 0.103206 0.103206
0.116287 0.116287 0.116287
0.129369 0.129369 0.129369
0.142450 0.142450 0.142450
0.155531 0.155531 0.155531
0.168612 0.168612 0.168612
0.181694 0.181694 0.181694
0.194775 0.194775 0.194775
0.207856 0.207856 0.207856
0.220937 0.220937 0.220937
0.234019 0.234019 0.234019
0.247100 0.247100 0.247100
0.260181 0.260181 0.260181
0.273262 0.273262 0.273262
0.286344 0.286344 0.286344
0.102725 0.102725 0.102725
0.115806 0.115806 0.115806
0.128887 0.128887 0.128887
0.141969 0.141969 0.141969
0.155050 0.155050 0.155050
0.168131 0.168131 0.168131
0.181212 0.181212 0.181212
0.194294 0.194294 0.194294
0.207375 0.207375 0.207375
0.220456 0.220456 0.220456
0.233537 0.233537 0.233537
0.246619 0.246619 0.246619
0.259700 0.259700 0.259700
0.272781 0.272781 0.272781
0.285862 0.285862 0.285862
0.298944 0.298944 0.298944
0.312025 0.312025 0.312025
0.128406 0.128406 0.128406
0.141487 0.141487 0.141487
0.154569 0.154569 0.154569
0.167650 0.167650 0.167650
0.180731 0.180731 0.180731
0.193812 0.193812 0.193812
0.206894 0.206894 0.206894
0.219975 0.219975 0.219975
0.233056 0.233056 0.233056
0.246137 0.246137 0.246137
0.259219 0.259219 0.259219
0.272300 0.272300 0.272300
0.285381 0.285381 0.285381
0.298462 0.298462 0.298462
0.311544 0.311544 0.311544
0.324625 0.324625 0.324625
0.337706 0.337706 0.337706
0.154087 0.154087 0.154087
0.167169 0.167169 0.167169
0.180250 0.180250 0.180250
0.193331 0.193331 0.193331
0.206412 0.206412 0.206412
0.219494 0.219494 0.219494
0.232575 0.232575 0.232575
0.245656 0.245656 0.245656
0.258737 0.258737 0.258737
0.271819 0.271819 0.271819
0.284900 0.284900 0.284900
0.297981 0.297981 0.297981
0.311062 0.311062 0.311062
0.324144 0.324144 0.324144
0.337225 0.337225 0.337225
0.350569 0.350569 0.350569
0.374862 0.374862 0.374862
0.179769 0.179769 0.179769
0.192850 0.192850 0.192850
0.205931 0.205931 0.205931
0.219012 0.219012 0.219012
0.232094 0.232094 0.232094
0.245175 0.245175 0.245175
0.258256 0.258256 0.258256
0.271337 0.271337 0.271337
0.284419 0.284419 0.284419
0.297500 0.297500 0.297500
0.310581 0.310581 0.310581
0.323662 0.323662 0.323662
0.336744 0.336744 0.336744
0.349825 0.349825 0.349825
0.373969 0.373969 0.373969
0.398262 0.398262 0.398262
0.422556 0.422556 0.422556
0.205450 0.205450 0.205450
0.218531 0.218531 0.218531
0.231612 0.231612 0.231612
0.244694 0.244694 0.244694
0.257775 0.257775 0.257775
0.270856 0.270856 0.270856
0.283938 0.283938 0.283938
0.297019 0.297019 0.297019
0.310100 0.310100 0.310100
0.323181 0.323181 0.323181
0.336262 0.336262 0.336262
0.349344 0.349344 0.349344
0.373075 0.373075 0.373075
0.397369 0.397369 0.397369
0.421662 0.421662 0.421662
0.445956 0.445956 0.445956
0.470250 0.470250 0.470250
0.231131 0.231131 0.231131
0.244212 0.244212 0.244212
0.257294 0.257294 0.257294
0.270375 0.270375 0.270375
0.283456 0.283456 0.283456
0.296537 0.296537 0.296537
0.309619 0.309619 0.309619
0.322700 0.322700 0.322700
0.335781 0.335781 0.335781
0.348862 0.348862 0.348862
0.372181 0.372181 0.372181
0.396475 0.396475 0.396475
0.420769 0.420769 0.420769
0.445062 0.445062 0.445062
0.469356 0.469356 0.469356
0.493650 0.493650 0.493650
0.517944 0.517944 0.517944
0.256812 0.256812 0.256812
0.269894 0.269894 0.269894
0.282975 0.282975 0.282975
0.296056 0.296056 0.296056
0.309137 0.309137 0.309137
0.322219 0.322219 0.322219
0.335300 0.335300 0.335300
0.348381 0.348381 0.348381
0.371287 0.371287 0.371287
0.395581 0.395581 0.395581
0.419875 0.419875 0.419875
0.444169 0.444169 0.444169
0.468462 0.468462 0.468462
0.492756 0.492756 0.492756
0.517050 0.517050 0.517050
0.541344 0.541344 0.541344
0.565638 0.565638 0.565638
0.282494 0.282494 0.282494
0.295575 0.295575 0.295575
0.308656 0.308656 0.308656
0.321738 0.321738 0.321738
0.334819 0.334819 0.334819
0.347900 0.347900 0.347900
0.370394 0.370394 0.370394
0.394688 0.394688 0.394688
0.418981 0.418981 0.418981
0.443275 0.443275 0.443275
0.467569 0.467569 0.467569
0.491862 0.491862 0.491862
0.516156 0.516156 0.516156
0.540450 0.540450 0.540450
0.564744 0.564744 0.564744
0.589037 0.589037 0.589037
0.613331 0.613331 0.613331
0.308175 0.308175 0.308175
0.321256 0.321256 0.321256
0.334337 0.334337 0.334337
0.347419 0.347419 0.347419
0.369500 0.369500 0.369500
0.393794 0.393794 0.393794
0.418087 0.418087 0.418087
0.442381 0.442381 0.442381
0.466675 0.466675 0.466675
0.490969 0.490969 0.490969
0.515262 0.515262 0.515262
0.539556 0.539556 0.539556
0.563850 0.563850 0.563850
0.588144 0.588144 0.588144
0.612437 0.612437 0.612437
0.636731 0.636731 0.636731
0.661025 0.661025 0.661025
0.333856 0.333856 0.333856
0.346937 0.346937 0.346937
0.368606 0.368606 0.368606
0.392900 0.392900 0.392900
0.417194 0.417194 0.417194
0.441487 0.441487 0.441487
0.465781 0.465781 0.465781
0.490075 0.490075 0.490075
0.514369 0.514369 0.514369
0.538662 0.538662 0.538662
0.562956 0.562956 0.562956
0.587250 0.587250 0.587250
0.611544 0.611544 0.611544
0.635837 0.635837 0.635837
0.660131 0.660131 0.660131
0.684425 0.684425 0.684425
0.708719 0.708719 0.708719
0.367712 0.367712 0.367712
0.392006 0.392006 0.392006
0.416300 0.416300 0.416300
0.440594 0.440594 0.440594
0.464887 0.464887 0.464887
0.489181 0.489181 0.489181
0.513475 0.513475 0.513475
0.537769 0.537769 0.537769
0.562062 0.562062 0.562062
0.586356 0.586356 0.586356
0.610650 0.610650 0.610650
0.634944 0.634944 0.634944
0.659238 0.659238 0.659238
0.683531 0.683531 0.683531
0.707825 0.707825 0.707825
0.732119 0.732119 0.732119
0.756412 0.756412 0.756412
0.415406 0.415406 0.415406
0.439700 0.439700 0.439700
0.463994 0.463994 0.463994
0.488287 0.488287 0.488287
0.512581 0.512581 0.512581
0.536875 0.536875 0.536875
0.561169 0.561169 0.561169
0.585462 0.585462 0.585462
0.609756 0.609756 0.609756
0.634050 0.634050 0.634050
0.658344 0.658344 0.658344
0.682638 0.682638 0.682638
0.706931 0.706931 0.706931
0.731225 0.731225 0.731225
0.755519 0.755519 0.755519
0.779812 0.779812 0.779812
0.804106 0.804106 0.804106
0.463100 0.463100 0.463100
0.487394 0.487394 0.487394
0.511687 0.511687 0.511687
0.535981 0.535981 0.535981
0.560275 0.560275 0.560275
0.584569 0.584569 0.584569
0.608862 0.608862 0.608862
0.633156 0.633156 0.633156
0.657450 0.657450 0.657450
0.681744 0.681744 0.681744
0.706037 0.706037 0.706037
0.730331 0.730331 0.730331
0.754625 0.754625 0.754625
0.778919 0.778919 0.778919
0.803212 0.803212 0.803212
0.827506 0.827506 0.827506
0.851800 0.851800 0.851800
0.004987 0.004987 0.004987
0.018069 0.018069 0.018069
0.031150 0.031150 0.031150
0.044231 0.044231 0.044231
0.057312 0.057312 0.057312
0.070394 0.070394 0.070394
0.083475 0.083475 0.083475
0.096556 0.096556 0.096556
0.109637 0.109637 0.109637
0.122719 0.122719 0.122719
0.135800 0.135800 0.135800
0.148881 0.148881 0.148881
0.161962 0.161962 0.161962
0.175044 0.175044 0.175044
0.188125 0.188125 0.188125
0.201206 0.201206 0.201206
0.214287 0.214287 0.214287
0.030669 0.030669 0.030669
0.043750 0.043750 0.043750
0.056831 0.056831 0.056831
0.069913 0.069913 0.069913
0.082994 0.082994 0.082994
0.096075 0.096075 0.096075
0.109156 0.109156 0.109156
0.122237 0.122237 0.122237
0.135319 0.135319 0.135319
0.148400 0.148400 0.148400
0.161481 0.161481 0.161481
0.174562 0.174562 0.174562
0.187644 0.187644 0.187644
0.200725 0.200725 0.200725
0.213806 0.213806 0.213806
0.226887 0.226887 0.226887
0.239969 0.239969 0.239969
0.056350 0.056350 0.056350
0.069431 0.069431 0.069431
0.082512 0.082512 0.082512
0.095594 0.095594 0.095594
0.108675 0.108675 0.108675
0.121756 0.121756 0.121756
0.134837 0.134837 0.134837
0.147919 0.147919 0.147919
0.161000 0.161000 0.161000
0.174081 0.174081 0.174081
0.187162 0.187162 0.187162
0.200244 0.200244 0.200244
0.213325 0.213325 0.213325
0.226406 0.226406 0.226406
0.239487 0.239487 0.239487
0.252569 0.252569 0.252569
0.265650 0.265650 0.265650
0.082031 0.082031 0.082031
0.095112 0.095112 0.095112
0.108194 0.108194 0.108194
0.121275 0.121275 0.121275
0.134356 0.134356 0.134356
0.147437 0.147437 0.147437
0.160519 0.160519 0.160519
0.173600 0.173600 0.173600
0.186681 0.186681 0.186681
0.199762 0.199762 0.199762
0.212844 0.212844 0.212844
0.225925 0.225925 0.225925
0.239006 0.239006 0.239006
0.252087 0.252087 0.252087
0.265169 0.265169 0.265169
0.278250 0.278250 0.278250
0.291331 0.291331 0.291331
0.107712 0.107712 0.107712
0.120794 0.120794 0.120794
0.133875 0.133875 0.133875
0.146956 0.146956 0.146956
0.160037 0.160037 0.160037
0.173119 0.173119 0.173119
0.186200 0.186200 0.186200
0.199281 0.199281 0.199281
0.212362 0.212362 0.212362
0.225444 0.225444 0.225444
0.238525 0.238525 0.238525
0.251606 0.251606 0.251606
0.264687 0.264687 0.264687
0.277769 0.277769 0.277769
0.290850 0.290850 0.290850
0.303931 0.303931 0.303931
0.317012 0.317012 0.317012
0.133394 0.133394 0.133394
0.146475 0.146475 0.146475
0.159556 0.159556 0.159556
0.172637 0.172637 0.172637
0.185719 0.185719 0.185719
0.198800 0.198800 0.198800
0.211881 0.211881 0.211881
0.224962 0.224962 0.224962
0.238044 0.238044 0.238044
0.251125 0.251125 0.251125
0.264206 0.264206 0.264206
0.277287 0.277287 0.277287
0.290369 0.290369 0.290369
0.303450 0.303450 0.303450
0.316531 0.316531 0.316531
0.329612 0.329612 0.329612
0.342694 0.342694 0.342694
0.159075 0.159075 0.159075
0.172156 0.172156 0.172156
0.185237 0.185237 0.185237
0.198319 0.198319 0.198319
0.211400 0.211400 0.211400
0.224481 0.224481 0.224481
0.237562 0.237562 0.237562
0.250644 0.250644 0.250644
0.263725 0.263725 0.263725
0.276806 0.276806 0.276806
0.289887 0.289887 0.289887
0.302969 0.302969 0.302969
0.316050 0.316050 0.316050
0.329131 0.329131 0.329131
0.342212 0.342212 0.342212
0.359831 0.359831 0.359831
0.384125 0.384125 0.384125
0.184756 0.184756 0.184756
0.197837 0.197837 0.197837
0.210919 0.210919 0.210919
0.224000 0.224000 0.224000
0.237081 0.237081 0.237081
0.250163 0.250163 0.250163
0.263244 0.263244 0.263244
0.276325 0.276325 0.276325
0.289406 0.289406 0.289406
0.302487 0.302487 0.302487
0.315569 0.315569 0.315569
0.328650 0.328650 0.328650
0.341731 0.341731 0.341731
0.358938 0.358938 0.358938
0.383231 0.383231 0.383231
0.407525 0.407525 0.407525
0.431819 0.431819 0.431819
0.210437 0.210437 0.210437
0.223519 0.223519 0.223519
0.236600 0.236600 0.236600
0.249681 0.249681 0.249681
0.262762 0.262762 0.262762
0.275844 0.275844 0.275844
0.288925 0.288925 0.288925
0.302006 0.302006 0.302006
0.315087 0.315087 0.315087
0.328169 0.328169 0.328169
0.341250 0.341250 0.341250
0.358044 0.358044 0.358044
0.382337 0.382337 0.382337
0.406631 0.406631 0.406631
0.430925 0.430925 0.430925
0.455219 0.455219 0.455219
0.479513 0.479513 0.479513
0.236119 0.236119 0.236119
0.249200 0.249200 0.249200
0.262281 0.262281 0.262281
0.275362 0.275362 0.275362
0.288444 0.288444 0.288444
0.301525 0.301525 0.301525
0.314606 0.314606 0.314606
0.327687 0.327687 0.327687
0.340769 0.340769 0.340769
0.357150 0.357150 0.357150
0.381444 0.381444 0.381444
0.405737 0.405737 0.405737
0.430031 0.430031 0.430031
0.454325 0.454325 0.454325
0.478619 0.478619 0.478619
0.502912 0.502912 0.502912
0.527206 0.527206 0.527206
0.261800 0.261800 0.261800
0.274881 0.274881 0.274881
0.287962 0.287962 0.287962
0.301044 0.301044 0.301044
0.314125 0.314125 0.314125
0.327206 0.327206 0.327206
0.340287 0.340287 0.340287
0.356256 0.356256 0.356256
0.380550 0.380550 0.380550
0.404844 0.404844 0.404844
0.429138 0.429138 0.429138
0.453431 0.453431 0.453431
0.477725 0.477725 0.477725
0.502019 0.502019 0.502019
0.526312 0.526312 0.526312
0.550606 0.550606 0.550606
0.574900 0.574900 0.574900
0.287481 0.287481 0.287481
0.300563 0.300563 0.300563
0.313644 0.313644 0.313644
0.326725 0.326725 0.326725
0.339806 0.339806 0.339806
0.355363 0.355363 0.355363
0.379656 0.379656 0.379656
0.403950 0.403950 0.403950
0.428244 0.428244 0.428244
0.452538 0.452538 0.452538
0.476831 0.476831 0.476831
0.501125 0.501125 0.501125
0.525419 0.525419 0.525419
0.549713 0.549713 0.549713
0.574006 0.574006 0.574006
0.598300 0.598300 0.598300
0.622594 0.622594 0.622594
0.313162 0.313162 0.313162
0.326244 0.326244 0.326244
0.339325 0.339325 0.339325
0.354469 0.354469 0.354469
0.378763 0.378763 0.378763
0.403056 0.403056 0.403056
0.427350 0.427350 0.427350
0.451644 0.451644 0.451644
0.475938 0.475938 0.475938
0.500231 0.500231 0.500231
0.524525 0.524525 0.524525
0.548819 0.548819 0.548819
0.573113 0.573113 0.573113
0.597406 0.597406 0.597406
0.621700 0.621700 0.621700
0.645994 0.645994 0.645994
0.670287 0.670287 0.670287
0.338844 0.338844 0.338844
0.353575 0.353575 0.353575
0.377869 0.377869 0.377869
0.402162 0.402162 0.402162
0.426456 0.426456 0.426456
0.450750 0.450750 0.450750
0.475044 0.475044 0.475044
0.499338 0.499338 0.499338
0.523631 0.523631 0.523631
0.547925 0.547925 0.547925
0.572219 0.572219 0.572219
0.596512 0.596512 0.596512
0.620806 0.620806 0.620806
0.645100 0.645100 0.645100
0.669394 0.669394 0.669394
0.693688 0.693688 0.693688
0.717981 0.717981 0.717981
0.376975 0.376975 0.376975
0.401269 0.401269 0.401269
0.425563 0.425563 0.425563
0.449856 0.449856 0.449856
0.474150 0.474150 0.474150
0.498444 0.498444 0.498444
0.522738 0.522738 0.522738
0.547031 0.547031 0.547031
0.571325 0.571325 0.571325
0.595619 0.595619 0.595619
0.619913 0.619913 0.619913
0.644206 0.644206 0.644206
0.668500 0.668500 0.668500
0.692794 0.692794 0.692794
0.717088 0.717088 0.717088
0.741381 0.741381 0.741381
0.765675 0.765675 0.765675
0.424669 0.424669 0.424669
0.448962 0.448962 0.448962
0.473256 0.473256 0.473256
0.497550 0.497550 0.497550
0.521844 0.521844 0.521844
0.546137 0.546137 0.546137
0.570431 0.570431 0.570431
0.594725 0.594725 0.594725
0.619019 0.619019 0.619019
0.643312 0.643312 0.643312
0.667606 0.667606 0.667606
0.691900 0.691900 0.691900
0.716194 0.716194 0.716194
0.740488 0.740488 0.740488
0.764781 0.764781 0.764781
0.789075 0.789075 0.789075
0.813369 0.813369 0.813369
0.472363 0.472363 0.472363
0.496656 0.496656 0.496656
0.520950 0.520950 0.520950
0.545244 0.545244 0.545244
0.569538 0.569538 0.569538
0.593831 0.593831 0.593831
0.618125 0.618125 0.618125
0.642419 0.642419 0.642419
0.666713 0.666713 0.666713
0.691006 0.691006 0.691006
0.715300 0.715300 0.715300
0.739594 0.739594 0.739594
0.763888 0.763888 0.763888
0.788181 0.788181 0.788181
0.812475 0.812475 0.812475
0.836769 0.836769 0.836769
0.861062 0.861062 0.861062
0.009975 0.009975 0.009975
0.023056 0.023056 0.023056
0.036137 0.036137 0.036137
0.049219 0.049219 0.049219
0.062300 0.062300 0.062300
0.075381 0.075381 0.075381
0.088462 0.088462 0.088462
0.101544 0.101544 0.101544
0.114625 0.114625 0.114625
0.127706 0.127706 0.127706
0.140787 0.140787 0.140787
0.153869 0.153869 0.153869
0.166950 0.166950 0.166950
0.180031 0.180031 0.180031
0.193112 0.193112 0.193112
0.206194 0.206194 0.206194
0.219275 0.219275 0.219275
0.035656 0.035656 0.035656
0.048737 0.048737 0.048737
0.061819 0.061819 0.061819
0.074900 0.074900 0.074900
0.087981 0.087981 0.087981
0.101062 0.101062 0.101062
0.114144 0.114144 0.114144
0.127225 0.127225 0.127225
0.140306 0.140306 0.140306
0.153387 0.153387 0.153387
0.166469 0.166469 0.166469
0.179550 0.179550 0.179550
0.192631 0.192631 0.192631
0.205712 0.205712 0.205712
0.218794 0.218794 0.218794
0.231875 0.231875 0.231875
0.244956 0.244956 0.244956
0.061337 0.061337 0.061337
0.074419 0.074419 0.074419
0.087500 0.087500 0.087500
0.100581 0.100581 0.100581
0.113662 0.113662 0.113662
0.126744 0.126744 0.126744
0.139825 0.139825 0.139825
0.152906 0.152906 0.152906
0.165987 0.165987 0.165987
0.179069 0.179069 0.179069
0.192150 0.192150 0.192150
0.205231 0.205231 0.205231
0.218312 0.218312 0.218312
0.231394 0.231394 0.231394
0.244475 0.244475 0.244475
0.257556 0.257556 0.257556
0.270637 0.270637 0.270637
0.087019 0.087019 0.087019
0.100100 0.100100 0.100100
0.113181 0.113181 0.113181
0.126262 0.126262 0.126262
0.139344 0.139344 0.139344
0.152425 0.152425 0.152425
0.165506 0.165506 0.165506
0.178587 0.178587 0.178587
0.191669 0.191669 0.191669
0.204750 0.204750 0.204750
0.217831 0.217831 0.217831
0.230912 0.230912 0.230912
0.243994 0.243994 0.243994
0.257075 0.257075 0.257075
0.270156 0.270156 0.270156
0.283237 0.283237 0.283237
0.296319 0.296319 0.296319
0.112700 0.112700 0.112700
0.125781 0.125781 0.125781
0.138862 0.138862 0.138862
0.151944 0.151944 0.151944
0.165025 0.165025 0.165025
0.178106 0.178106 0.178106
0.191187 0.191187 0.191187
0.204269 0.204269 0.204269
0.217350 0.217350 0.217350
0.230431 0.230431 0.230431
0.243512 0.243512 0.243512
0.256594 0.256594 0.256594
0.269675 0.269675 0.269675
0.282756 0.282756 0.282756
0.295837 0.295837 0.295837
0.308919 0.308919 0.308919
0.322000 0.322000 0.322000
0.138381 0.138381 0.138381
0.151462 0.151462 0.151462
0.164544 0.164544 0.164544
0.177625 0.177625 0.177625
0.190706 0.190706 0.190706
0.203787 0.203787 0.203787
0.216869 0.216869 0.216869
0.229950 0.229950 0.229950
0.243031 0.243031 0.243031
0.256112 0.256112 0.256112
0.269194 0.269194 0.269194
0.282275 0.282275 0.282275
0.295356 0.295356 0.295356
0.308437 0.308437 0.308437
0.321519 0.321519 0.321519
0.334600 0.334600 0.334600
0.347681 0.347681 0.347681
0.164062 0.164062 0.164062
0.177144 0.177144 0.177144
0.190225 0.190225 0.190225
0.203306 0.203306 0.203306
0.216387 0.216387 0.216387
0.229469 0.229469 0.229469
0.242550 0.242550 0.242550
0.255631 0.255631 0.255631
0.268712 0.268712 0.268712
0.281794 0.281794 0.281794
0.294875 0.294875 0.294875
0.307956 0.307956 0.307956
0.321037 0.321037 0.321037
0.334119 0.334119 0.334119
0.347200 0.347200 0.347200
0.369094 0.369094 0.369094
0.393387 0.393387 0.393387
0.189744 0.189744 0.189744
0.202825 0.202825 0.202825
0.215906 0.215906 0.215906
0.228987 0.228987 0.228987
0.242069 0.242069 0.242069
0.255150 0.255150 0.255150
0.268231 0.268231 0.268231
0.281312 0.281312 0.281312
0.294394 0.294394 0.294394
0.307475 0.307475 0.307475
0.320556 0.320556 0.320556
0.333637 0.333637 0.333637
0.346719 0.346719 0.346719
0.368200 0.368200 0.368200
0.392494 0.392494 0.392494
0.416787 0.416787 0.416787
0.441081 0.441081 0.441081
0.215425 0.215425 0.215425
0.228506 0.228506 0.228506
0.241587 0.241587 0.241587
0.254669 0.254669 0.254669
0.267750 0.267750 0.267750
0.280831 0.280831 0.280831
0.293912 0.293912 0.293912
0.306994 0.306994 0.306994
0.320075 0.320075 0.320075
0.333156 0.333156 0.333156
0.346237 0.346237 0.346237
0.367306 0.367306 0.367306
0.391600 0.391600 0.391600
0.415894 0.415894 0.415894
0.440187 0.440187 0.440187
0.464481 0.464481 0.464481
0.488775 0.488775 0.488775
0.241106 0.241106 0.241106
0.254187 0.254187 0.254187
0.267269 0.267269 0.267269
0.280350 0.280350 0.280350
0.293431 0.293431 0.293431
0.306512 0.306512 0.306512
0.319594 0.319594 0.319594
0.332675 0.332675 0.332675
0.345756 0.345756 0.345756
0.366412 0.366412 0.366412
0.390706 0.390706 0.390706
0.415000 0.415000 0.415000
0.439294 0.439294 0.439294
0.463587 0.463587 0.463587
0.487881 0.487881 0.487881
0.512175 0.512175 0.512175
0.536469 0.536469 0.536469
0.266787 0.266787 0.266787
0.279869 0.279869 0.279869
0.292950 0.292950 0.292950
0.306031 0.306031 0.306031
0.319112 0.319112 0.319112
0.332194 0.332194 0.332194
0.345275 0.345275 0.345275
0.365519 0.365519 0.365519
0.389812 0.389812 0.389812
0.414106 0.414106 0.414106
0.438400 0.438400 0.438400
0.462694 0.462694 0.462694
0.486987 0.486987 0.486987
0.511281 0.511281 0.511281
0.535575 0.535575 0.535575
0.559869 0.559869 0.559869
0.584162 0.584162 0.584162
0.292469 0.292469 0.292469
0.305550 0.305550 0.305550
0.318631 0.318631 0.318631
0.331712 0.331712 0.331712
0.344794 0.344794 0.344794
0.364625 0.364625 0.364625
0.388919 0.388919 0.388919
0.413213 0.413213 0.413213
0.437506 0.437506 0.437506
0.461800 0.461800 0.461800
0.486094 0.486094 0.486094
0.510387 0.510387 0.510387
0.534681 0.534681 0.534681
0.558975 0.558975 0.558975
0.583269 0.583269 0.583269
0.607563 0.607563 0.607563
0.631856 0.631856 0.631856
0.318150 0.318150 0.318150
0.331231 0.331231 0.331231
0.344312 0.344312 0.344312
0.363731 0.363731 0.363731
0.388025 0.388025 0.388025
0.412319 0.412319 0.412319
0.436612 0.436612 0.436612
0.460906 0.460906 0.460906
0.485200 0.485200 0.485200
0.509494 0.509494 0.509494
0.533787 0.533787 0.533787
0.558081 0.558081 0.558081
0.582375 0.582375 0.582375
0.606669 0.606669 0.606669
0.630962 0.630962 0.630962
0.655256 0.655256 0.655256
0.679550 0.679550 0.679550
0.343831 0.343831 0.343831
0.362837 0.362837 0.362837
0.387131 0.387131 0.387131
0.411425 0.411425 0.411425
0.435719 0.435719 0.435719
0.460012 0.460012 0.460012
0.484306 0.484306 0.484306
0.508600 0.508600 0.508600
0.532894 0.532894 0.532894
0.557187 0.557187 0.557187
0.581481 0.581481 0.581481
0.605775 0.605775 0.605775
0.630069 0.630069 0.630069
0.654362 0.654362 0.654362
0.678656 0.678656 0.678656
0.702950 0.702950 0.702950
0.727244 0.727244 0.727244
0.386237 0.386237 0.386237
0.410531 0.410531 0.410531
0.434825 0.434825 0.434825
0.459119 0.459119 0.459119
0.483412 0.483412 0.483412
0.507706 0.507706 0.507706
0.532000 0.532000 0.532000
0.556294 0.556294 0.556294
0.580587 0.580587 0.580587
0.604881 0.604881 0.604881
0.629175 0.629175 0.629175
0.653469 0.653469 0.653469
0.677763 0.677763 0.677763
0.702056 0.702056 0.702056
0.726350 0.726350 0.726350
0.750644 0.750644 0.750644
0.774937 0.774937 0.774937
0.433931 0.433931 0.433931
0.458225 0.458225 0.458225
0.482519 0.482519 0.482519
0.506812 0.506812 0.506812
0.531106 0.531106 0.531106
0.555400 0.555400 0.555400
0.579694 0.579694 0.579694
0.603987 0.603987 0.603987
0.628281 0.628281 0.628281
0.652575 0.652575 0.652575
0.676869 0.676869 0.676869
0.701162 0.701162 0.701162
0.725456 0.725456 0.725456
0.749750 0.749750 0.749750
0.774044 0.774044 0.774044
0.798337 0.798337 0.798337
0.822631 0.822631 0.822631
0.481625 0.481625 0.481625
0.505919 0.505919 0.505919
0.530212 0.530212 0.530212
0.554506 0.554506 0.554506
0.578800 0.578800 0.578800
0.603094 0.603094 0.603094
0.627387 0.627387 0.627387
0.651681 0.651681 0.651681
0.675975 0.675975 0.675975
0.700269 0.700269 0.700269
0.724562 0.724562 0.724562
0.748856 0.748856 0.748856
0.773150 0.773150 0.773150
0.797444 0.797444 0.797444
0.821737 0.821737 0.821737
0.846031 0.846031 0.846031
0.870325 0.870325 0.870325
0.014963 0.014963 0.014963
0.028044 0.028044 0.028044
0.041125 0.041125 0.041125
0.054206 0.054206 0.054206
0.067288 0.067288 0.067288
0.080369 0.080369 0.080369
0.093450 0.093450 0.093450
0.106531 0.106531 0.106531
0.119612 0.119612 0.119612
0.132694 0.132694 0.132694
0.145775 0.145775 0.145775
0.158856 0.158856 0.158856
0.171937 0.171937 0.171937
0.185019 0.185019 0.185019
0.198100 0.198100 0.198100
0.211181 0.211181 0.211181
0.224262 0.224262 0.224262
0.040644 0.040644 0.040644
0.053725 0.053725 0.053725
0.066806 0.066806 0.066806
