assets/luts/bw_paper.cube
TITLE "Paper Log"
LUT_3D_SIZE 9
0.062000 0.058000 0.050000
0.093769 0.089769 0.081769
0.125537 0.121537 0.113537
0.157306 0.153306 0.145306
0.189075 0.185075 0.177075
0.220844 0.216844 0.208844
0.252613 0.248613 0.240613
0.284381 0.280381 0.272381
0.316150 0.312150 0.304150
0.124369 0.120369 0.112369
0.156137 0.152137 0.144137
0.187906 0.183906 0.175906
0.219675 0.215675 0.207675
0.251444 0.247444 0.239444
0.283212 0.279212 0.271212
0.314981 0.310981 0.302981
0.346750 0.342750 0.334750
0.378519 0.374519 0.366519
0.186738 0.182737 0.174737
0.218506 0.214506 0.206506
0.250275 0.246275 0.238275
0.282044 0.278044 0.270044
0.313812 0.309812 0.301812
0.345581 0.341581 0.333581
0.377350 0.373350 0.365350
0.409119 0.405119 0.397119
0.440887 0.436887 0.428887
0.249106 0.245106 0.237106
0.280875 0.276875 0.268875
0.312644 0.308644 0.300644
0.344413 0.340413 0.332412
0.376181 0.372181 0.364181
0.407950 0.403950 0.395950
0.439719 0.435719 0.427719
0.471488 0.467488 0.459487
0.503256 0.499256 0.491256
0.311475 0.307475 0.299475
0.343244 0.339244 0.331244
0.375012 0.371012 0.363012
0.406781 0.402781 0.394781
0.438550 0.434550 0.426550
0.470319 0.466319 0.458319
0.502087 0.498087 0.490087
0.533856 0.529856 0.521856
0.565625 0.561625 0.553625
0.373844 0.369844 0.361844
0.405612 0.401612 0.393612
0.437381 0.433381 0.425381
0.469150 0.465150 0.457150
0.500919 0.496919 0.488919
0.532687 0.528687 0.520687
0.564456 0.560456 0.552456
0.596225 0.592225 0.584225
0.627994 0.623994 0.615994
0.436212 0.432212 0.424212
0.467981 0.463981 0.455981
0.499750 0.495750 0.487750
0.531519 0.527519 0.519519
0.563288 0.559288 0.551288
0.595056 0.591056 0.583056
0.626825 0.622825 0.614825
0.658594 0.654594 0.646594
0.690362 0.686362 0.678362
0.498581 0.494581 0.486581
0.530350 0.526350 0.518350
0.562119 0.558119 0.550119
0.593888 0.589888 0.581888
0.625656 0.621656 0.613656
0.657425 0.653425 0.645425
0.689194 0.685194 0.677194
0.720963 0.716963 0.708963
0.752731 0.748731 0.740731
0.560950 0.556950 0.548950
0.592719 0.588719 0.580719
0.624487 0.620487 0.612487
0.656256 0.652256 0.644256
0.688025 0.684025 0.676025
0.719794 0.715794 0.707794
0.751563 0.747563 0.739563
0.783331 0.779331 0.771331
0.815100 0.811100 0.803100
0.074112 0.070112 0.062113
0.105881 0.101881 0.093881
0.137650 0.133650 0.125650
0.169419 0.165419 0.157419
0.201188 0.197188 0.189188
0.232956 0.228956 0.220956
0.264725 0.260725 0.252725
0.296494 0.292494 0.284494
0.328262 0.324262 0.316262
0.136481 0.132481 0.124481
0.168250 0.164250 0.156250
0.200019 0.196019 0.188019
0.231788 0.227788 0.219788
0.263556 0.259556 0.251556
0.295325 0.291325 0.283325
0.327094 0.323094 0.315094
0.358862 0.354862 0.346862
0.390631 0.386631 0.378631
0.198850 0.194850 0.186850
0.230619 0.226619 0.218619
0.262387 0.258387 0.250387
0.294156 0.290156 0.282156
0.325925 0.321925 0.313925
0.357694 0.353694 0.345694
0.389462 0.385462 0.377462
0.421231 0.417231 0.409231
0.453000 0.449000 0.441000
0.261219 0.257219 0.249219
0.292988 0.288988 0.280988
0.324756 0.320756 0.312756
0.356525 0.352525 0.344525
0.388294 0.384294 0.376294
0.420062 0.416062 0.408062
0.451831 0.447831 0.439831
0.483600 0.479600 0.471600
0.515369 0.511369 0.503369
0.323587 0.319587 0.311587
0.355356 0.351356 0.343356
0.387125 0.383125 0.375125
0.418894 0.414894 0.406894
0.450662 0.446662 0.438662
0.482431 0.478431 0.470431
0.514200 0.510200 0.502200
0.545969 0.541969 0.533969
0.577738 0.573738 0.565738
0.385956 0.381956 0.373956
0.417725 0.413725 0.405725
0.449494 0.445494 0.437494
0.481262 0.477262 0.469262
0.513031 0.509031 0.501031
0.544800 0.540800 0.532800
0.576569 0.572569 0.564569
0.608337 0.604337 0.596337
0.640106 0.636106 0.628106
0.448325 0.444325 0.436325
0.480094 0.476094 0.468094
0.511862 0.507862 0.499862
0.543631 0.539631 0.531631
0.575400 0.571400 0.563400
0.607169 0.603169 0.595169
0.638938 0.634938 0.626938
0.670706 0.666706 0.658706
0.702475 0.698475 0.690475
0.510694 0.506694 0.498694
0.542463 0.538463 0.530463
0.574231 0.570231 0.562231
0.606000 0.602000 0.594000
0.637769 0.633769 0.625769
0.669538 0.665538 0.657537
0.701306 0.697306 0.689306
0.733075 0.729075 0.721075
0.764844 0.760844 0.752844
0.573063 0.569063 0.561063
0.604831 0.600831 0.592831
0.636600 0.632600 0.624600
0.668369 0.664369 0.656369
0.700137 0.696137 0.688137
0.731906 0.727906 0.719906
0.763675 0.759675 0.751675
0.795444 0.791444 0.783444
0.827212 0.823212 0.815212
0.086225 0.082225 0.074225
0.117994 0.113994 0.105994
0.149763 0.145763 0.137763
0.181531 0.177531 0.169531
0.213300 0.209300 0.201300
0.245069 0.241069 0.233069
0.276838 0.272838 0.264838
0.308606 0.304606 0.296606
0.340375 0.336375 0.328375
0.148594 0.144594 0.136594
0.180362 0.176362 0.168362
0.212131 0.208131 0.200131
0.243900 0.239900 0.231900
0.275669 0.271669 0.263669
0.307438 0.303438 0.295438
0.339206 0.335206 0.327206
0.370975 0.366975 0.358975
0.402744 0.398744 0.390744
0.210962 0.206962 0.198962
0.242731 0.238731 0.230731
0.274500 0.270500 0.262500
0.306269 0.302269 0.294269
0.338038 0.334038 0.326038
0.369806 0.365806 0.357806
0.401575 0.397575 0.389575
0.433344 0.429344 0.421344
0.465112 0.461112 0.453112
0.273331 0.269331 0.261331
0.305100 0.301100 0.293100
0.336869 0.332869 0.324869
0.368638 0.364638 0.356637
0.400406 0.396406 0.388406
0.432175 0.428175 0.420175
0.463944 0.459944 0.451944
0.495712 0.491712 0.483712
0.527481 0.523481 0.515481
0.335700 0.331700 0.323700
0.367469 0.363469 0.355469
0.399237 0.395237 0.387237
0.431006 0.427006 0.419006
0.462775 0.458775 0.450775
0.494544 0.490544 0.482544
0.526312 0.522312 0.514312
0.558081 0.554081 0.546081
0.589850 0.585850 0.577850
0.398069 0.394069 0.386069
0.429837 0.425837 0.417837
0.461606 0.457606 0.449606
0.493375 0.489375 0.481375
0.525144 0.521144 0.513144
0.556912 0.552912 0.544912
0.588681 0.584681 0.576681
0.620450 0.616450 0.608450
0.652219 0.648219 0.640219
0.460437 0.456437 0.448437
0.492206 0.488206 0.480206
0.523975 0.519975 0.511975
0.555744 0.551744 0.543744
0.587512 0.583512 0.575512
0.619281 0.615281 0.607281
0.651050 0.647050 0.639050
0.682819 0.678819 0.670819
0.714587 0.710587 0.702587
0.522806 0.518806 0.510806
0.554575 0.550575 0.542575
0.586344 0.582344 0.574344
0.618113 0.614113 0.606113
0.649881 0.645881 0.637881
0.681650 0.677650 0.669650
0.713419 0.709419 0.701419
0.745188 0.741187 0.733187
0.776956 0.772956 0.764956
0.585175 0.581175 0.573175
0.616944 0.612944 0.604944
0.648713 0.644713 0.636713
0.680481 0.676481 0.668481
0.712250 0.708250 0.700250
0.744019 0.740019 0.732019
0.775788 0.771788 0.763788
0.807556 0.803556 0.795556
0.839325 0.835325 0.827325
0.098338 0.094338 0.086338
0.130106 0.126106 0.118106
0.161875 0.157875 0.149875
0.193644 0.189644 0.181644
0.225413 0.221413 0.213413
0.257181 0.253181 0.245181
0.288950 0.284950 0.276950
0.320719 0.316719 0.308719
0.352488 0.348488 0.340487
0.160706 0.156706 0.148706
0.192475 0.188475 0.180475
0.224244 0.220244 0.212244
0.256013 0.252013 0.244013
0.287781 0.283781 0.275781
0.319550 0.315550 0.307550
0.351319 0.347319 0.339319
0.383087 0.379087 0.371087
0.414856 0.410856 0.402856
0.223075 0.219075 0.211075
0.254844 0.250844 0.242844
0.286612 0.282612 0.274612
0.318381 0.314381 0.306381
0.350150 0.346150 0.338150
0.381919 0.377919 0.369919
0.413687 0.409687 0.401687
0.445456 0.441456 0.433456
0.477225 0.473225 0.465225
0.285444 0.281444 0.273444
0.317213 0.313213 0.305212
0.348981 0.344981 0.336981
0.380750 0.376750 0.368750
0.412519 0.408519 0.400519
0.444288 0.440287 0.432287
0.476056 0.472056 0.464056
0.507825 0.503825 0.495825
0.539594 0.535594 0.527594
0.347812 0.343812 0.335812
0.379581 0.375581 0.367581
0.411350 0.407350 0.399350
0.443119 0.439119 0.431119
0.474887 0.470887 0.462887
0.506656 0.502656 0.494656
0.538425 0.534425 0.526425
0.570194 0.566194 0.558194
0.601963 0.597963 0.589963
0.410181 0.406181 0.398181
0.441950 0.437950 0.429950
0.473719 0.469719 0.461719
0.505487 0.501487 0.493487
0.537256 0.533256 0.525256
0.569025 0.565025 0.557025
0.600794 0.596794 0.588794
0.632562 0.628562 0.620562
0.664331 0.660331 0.652331
0.472550 0.468550 0.460550
0.504319 0.500319 0.492319
0.536087 0.532087 0.524087
0.567856 0.563856 0.555856
0.599625 0.595625 0.587625
0.631394 0.627394 0.619394
0.663162 0.659162 0.651162
0.694931 0.690931 0.682931
0.726700 0.722700 0.714700
0.534919 0.530919 0.522919
0.566688 0.562688 0.554688
0.598456 0.594456 0.586456
0.630225 0.626225 0.618225
0.661994 0.657994 0.649994
0.693763 0.689763 0.681763
0.725531 0.721531 0.713531
0.757300 0.753300 0.745300
0.789069 0.785069 0.777069
0.597287 0.593287 0.585287
0.629056 0.625056 0.617056
0.660825 0.656825 0.648825
0.692594 0.688594 0.680594
0.724362 0.720362 0.712362
0.756131 0.752131 0.744131
0.787900 0.783900 0.775900
0.819669 0.815669 0.807669
0.851437 0.847437 0.839437
0.110450 0.106450 0.098450
0.142219 0.138219 0.130219
0.173988 0.169988 0.161988
0.205756 0.201756 0.193756
0.237525 0.233525 0.225525
0.269294 0.265294 0.257294
0.301063 0.297063 0.289062
0.332831 0.328831 0.320831
0.364600 0.360600 0.352600
0.172819 0.168819 0.160819
0.204587 0.200587 0.192587
0.236356 0.232356 0.224356
0.268125 0.264125 0.256125
0.299894 0.295894 0.287894
0.331662 0.327662 0.319662
0.363431 0.359431 0.351431
0.395200 0.391200 0.383200
0.426969 0.422969 0.414969
0.235187 0.231187 0.223187
0.266956 0.262956 0.254956
0.298725 0.294725 0.286725
0.330494 0.326494 0.318494
0.362262 0.358262 0.350262
0.394031 0.390031 0.382031
0.425800 0.421800 0.413800
0.457569 0.453569 0.445569
0.489338 0.485338 0.477338
0.297556 0.293556 0.285556
0.329325 0.325325 0.317325
0.361094 0.357094 0.349094
0.392863 0.388862 0.380862
0.424631 0.420631 0.412631
0.456400 0.452400 0.444400
0.488169 0.484169 0.476169
0.519938 0.515938 0.507938
0.551706 0.547706 0.539706
0.359925 0.355925 0.347925
0.391694 0.387694 0.379694
0.423462 0.419462 0.411462
0.455231 0.451231 0.443231
0.487000 0.483000 0.475000
0.518769 0.514769 0.506769
0.550538 0.546538 0.538538
0.582306 0.578306 0.570306
0.614075 0.610075 0.602075
0.422294 0.418294 0.410294
0.454062 0.450062 0.442062
0.485831 0.481831 0.473831
0.517600 0.513600 0.505600
0.549369 0.545369 0.537369
0.581138 0.577138 0.569138
0.612906 0.608906 0.600906
0.644675 0.640675 0.632675
0.676444 0.672444 0.664444
0.484662 0.480662 0.472662
0.516431 0.512431 0.504431
0.548200 0.544200 0.536200
0.579969 0.575969 0.567969
0.611738 0.607738 0.599738
0.643506 0.639506 0.631506
0.675275 0.671275 0.663275
0.707044 0.703044 0.695044
0.738813 0.734813 0.726813
0.547031 0.543031 0.535031
0.578800 0.574800 0.566800
0.610569 0.606569 0.598569
0.642338 0.638338 0.630338
0.674106 0.670106 0.662106
0.705875 0.701875 0.693875
0.737644 0.733644 0.725644
0.769413 0.765413 0.757413
0.801181 0.797181 0.789181
0.609400 0.605400 0.597400
0.641169 0.637169 0.629169
0.672938 0.668938 0.660938
0.704706 0.700706 0.692706
0.736475 0.732475 0.724475
0.768244 0.764244 0.756244
0.800013 0.796013 0.788013
0.831781 0.827781 0.819781
0.863550 0.859550 0.851550
0.122563 0.118563 0.110563
0.154331 0.150331 0.142331
0.186100 0.182100 0.174100
0.217869 0.213869 0.205869
0.249638 0.245638 0.237638
0.281406 0.277406 0.269406
0.313175 0.309175 0.301175
0.344944 0.340944 0.332944
0.376712 0.372712 0.364712
0.184931 0.180931 0.172931
0.216700 0.212700 0.204700
0.248469 0.244469 0.236469
0.280238 0.276238 0.268238
0.312006 0.308006 0.300006
0.343775 0.339775 0.331775
0.375544 0.371544 0.363544
0.407312 0.403312 0.395312
0.439081 0.435081 0.427081
0.247300 0.243300 0.235300
0.279069 0.275069 0.267069
0.310837 0.306837 0.298837
0.342606 0.338606 0.330606
0.374375 0.370375 0.362375
0.406144 0.402144 0.394144
0.437913 0.433913 0.425913
0.469681 0.465681 0.457681
0.501450 0.497450 0.489450
0.309669 0.305669 0.297669
0.341438 0.337438 0.329437
0.373206 0.369206 0.361206
0.404975 0.400975 0.392975
0.436744 0.432744 0.424744
0.468512 0.464512 0.456512
0.500281 0.496281 0.488281
0.532050 0.528050 0.520050
0.563819 0.559819 0.551819
0.372038 0.368038 0.360038
0.403806 0.399806 0.391806
0.435575 0.431575 0.423575
0.467344 0.463344 0.455344
0.499112 0.495112 0.487112
0.530881 0.526881 0.518881
0.562650 0.558650 0.550650
0.594419 0.590419 0.582419
0.626188 0.622188 0.614188
0.434406 0.430406 0.422406
0.466175 0.462175 0.454175
0.497944 0.493944 0.485944
0.529713 0.525713 0.517713
0.561481 0.557481 0.549481
0.593250 0.589250 0.581250
0.625019 0.621019 0.613019
0.656788 0.652788 0.644788
0.688556 0.684556 0.676556
0.496775 0.492775 0.484775
0.528544 0.524544 0.516544
0.560313 0.556313 0.548313
0.592081 0.588081 0.580081
0.623850 0.619850 0.611850
0.655619 0.651619 0.643619
0.687388 0.683388 0.675388
0.719156 0.715156 0.707156
0.750925 0.746925 0.738925
0.559144 0.555144 0.547144
0.590913 0.586913 0.578913
0.622681 0.618681 0.610681
0.654450 0.650450 0.642450
0.686219 0.682219 0.674219
0.717988 0.713988 0.705988
0.749756 0.745756 0.737756
0.781525 0.777525 0.769525
0.813294 0.809294 0.801294
0.621513 0.617513 0.609513
0.653281 0.649281 0.641281
0.685050 0.681050 0.673050
0.716819 0.712819 0.704819
0.748587 0.744587 0.736587
0.780356 0.776356 0.768356
0.812125 0.808125 0.800125
0.843894 0.839894 0.831894
0.875663 0.871663 0.863662
0.134675 0.130675 0.122675
0.166444 0.162444 0.154444
0.198213 0.194213 0.186213
0.229981 0.225981 0.217981
0.261750 0.257750 0.249750
0.293519 0.289519 0.281519
0.325288 0.321288 0.313287
0.357056 0.353056 0.345056
0.388825 0.384825 0.376825
0.197044 0.193044 0.185044
0.228812 0.224812 0.216812
0.260581 0.256581 0.248581
0.292350 0.288350 0.280350
0.324119 0.320119 0.312119
0.355887 0.351887 0.343887
0.387656 0.383656 0.375656
0.419425 0.415425 0.407425
0.451194 0.447194 0.439194
0.259413 0.255413 0.247413
0.291181 0.287181 0.279181
0.322950 0.318950 0.310950
0.354719 0.350719 0.342719
0.386488 0.382488 0.374488
0.418256 0.414256 0.406256
0.450025 0.446025 0.438025
0.481794 0.477794 0.469794
0.513563 0.509563 0.501563
0.321781 0.317781 0.309781
0.353550 0.349550 0.341550
0.385319 0.381319 0.373319
0.417087 0.413087 0.405087
0.448856 0.444856 0.436856
0.480625 0.476625 0.468625
0.512394 0.508394 0.500394
0.544162 0.540162 0.532162
0.575931 0.571931 0.563931
0.384150 0.380150 0.372150
0.415919 0.411919 0.403919
0.447687 0.443687 0.435687
0.479456 0.475456 0.467456
0.511225 0.507225 0.499225
0.542994 0.538994 0.530994
0.574762 0.570762 0.562762
0.606531 0.602531 0.594531
0.638300 0.634300 0.626300
0.446519 0.442519 0.434519
0.478287 0.474287 0.466287
0.510056 0.506056 0.498056
0.541825 0.537825 0.529825
0.573594 0.569594 0.561594
0.605363 0.601363 0.593363
0.637131 0.633131 0.625131
0.668900 0.664900 0.656900
0.700669 0.696669 0.688669
0.508887 0.504887 0.496887
0.540656 0.536656 0.528656
0.572425 0.568425 0.560425
0.604194 0.600194 0.592194
0.635963 0.631963 0.623963
0.667731 0.663731 0.655731
0.699500 0.695500 0.687500
0.731269 0.727269 0.719269
0.763038 0.759038 0.751038
0.571256 0.567256 0.559256
0.603025 0.599025 0.591025
0.634794 0.630794 0.622794
0.666563 0.662563 0.654563
0.698331 0.694331 0.686331
0.730100 0.726100 0.718100
0.761869 0.757869 0.749869
0.793637 0.789637 0.781637
0.825406 0.821406 0.813406
0.633625 0.629625 0.621625
0.665394 0.661394 0.653394
0.697163 0.693163 0.685163
0.728931 0.724931 0.716931
0.760700 0.756700 0.748700
0.792469 0.788469 0.780469
0.824238 0.820238 0.812238
0.856006 0.852006 0.844006
0.887775 0.883775 0.875775
0.146788 0.142788 0.134788
0.178556 0.174556 0.166556
0.210325 0.206325 0.198325
0.242094 0.238094 0.230094
0.273863 0.269863 0.261862
0.305631 0.301631 0.293631
0.337400 0.333400 0.325400
0.369169 0.365169 0.357169
0.400938 0.396937 0.388937
0.209156 0.205156 0.197156
0.240925 0.236925 0.228925
0.272694 0.268694 0.260694
0.304463 0.300463 0.292463
0.336231 0.332231 0.324231
0.368000 0.364000 0.356000
0.399769 0.395769 0.387769
0.431537 0.427537 0.419537
0.463306 0.459306 0.451306
0.271525 0.267525 0.259525
0.303294 0.299294 0.291294
0.335062 0.331062 0.323062
0.366831 0.362831 0.354831
0.398600 0.394600 0.386600
0.430369 0.426369 0.418369
0.462137 0.458137 0.450137
0.493906 0.489906 0.481906
0.525675 0.521675 0.513675
0.333894 0.329894 0.321894
0.365663 0.361662 0.353662
0.397431 0.393431 0.385431
0.429200 0.425200 0.417200
0.460969 0.456969 0.448969
0.492737 0.488737 0.480737
0.524506 0.520506 0.512506
0.556275 0.552275 0.544275
0.588044 0.584044 0.576044
0.396262 0.392262 0.384262
0.428031 0.424031 0.416031
0.459800 0.455800 0.447800
0.491569 0.487569 0.479569
0.523338 0.519338 0.511338
0.555106 0.551106 0.543106
0.586875 0.582875 0.574875
0.618644 0.614644 0.606644
0.650413 0.646413 0.638413
0.458631 0.454631 0.446631
0.490400 0.486400 0.478400
0.522169 0.518169 0.510169
0.553937 0.549937 0.541937
0.585706 0.581706 0.573706
0.617475 0.613475 0.605475
0.649244 0.645244 0.637244
0.681013 0.677013 0.669013
0.712781 0.708781 0.700781
0.521000 0.517000 0.509000
0.552769 0.548769 0.540769
0.584538 0.580538 0.572538
0.616306 0.612306 0.604306
0.648075 0.644075 0.636075
0.679844 0.675844 0.667844
0.711612 0.707612 0.699612
0.743381 0.739381 0.731381
0.775150 0.771150 0.763150
0.583369 0.579369 0.571369
0.615138 0.611138 0.603138
0.646906 0.642906 0.634906
0.678675 0.674675 0.666675
0.710444 0.706444 0.698444
0.742213 0.738213 0.730213
0.773981 0.769981 0.761981
0.805750 0.801750 0.793750
0.837519 0.833519 0.825519
0.645737 0.641737 0.633737
0.677506 0.673506 0.665506
0.709275 0.705275 0.697275
0.741044 0.737044 0.729044
0.772813 0.768813 0.760813
0.804581 0.800581 0.792581
0.836350 0.832350 0.824350
0.868119 0.864119 0.856119
0.899887 0.895887 0.887887
0.158900 0.154900 0.146900
0.190669 0.186669 0.178669
0.222438 0.218438 0.210437
0.254206 0.250206 0.242206
0.285975 0.281975 0.273975
0.317744 0.313744 0.305744
0.349513 0.345513 0.337512
0.381281 0.377281 0.369281
0.413050 0.409050 0.401050
0.221269 0.217269 0.209269
0.253038 0.249038 0.241038
0.284806 0.280806 0.272806
0.316575 0.312575 0.304575
0.348344 0.344344 0.336344
0.380112 0.376112 0.368112
0.411881 0.407881 0.399881
0.443650 0.439650 0.431650
0.475419 0.471419 0.463419
0.283637 0.279637 0.271637
0.315406 0.311406 0.303406
0.347175 0.343175 0.335175
0.378944 0.374944 0.366944
0.410712 0.406712 0.398712
0.442481 0.438481 0.430481
0.474250 0.470250 0.462250
0.506019 0.502019 0.494019
0.537787 0.533787 0.525787
0.346006 0.342006 0.334006
0.377775 0.373775 0.365775
0.409544 0.405544 0.397544
0.441312 0.437312 0.429312
0.473081 0.469081 0.461081
0.504850 0.500850 0.492850
0.536619 0.532619 0.524619
0.568388 0.564388 0.556388
0.600156 0.596156 0.588156
0.408375 0.404375 0.396375
0.440144 0.436144 0.428144
0.471912 0.467912 0.459912
0.503681 0.499681 0.491681
0.535450 0.531450 0.523450
0.567219 0.563219 0.555219
0.598988 0.594988 0.586987
0.630756 0.626756 0.618756
0.662525 0.658525 0.650525
0.470744 0.466744 0.458744
0.502512 0.498512 0.490512
0.534281 0.530281 0.522281
0.566050 0.562050 0.554050
0.597819 0.593819 0.585819
0.629587 0.625587 0.617587
0.661356 0.657356 0.649356
0.693125 0.689125 0.681125
0.724894 0.720894 0.712894
0.533112 0.529112 0.521112
0.564881 0.560881 0.552881
0.596650 0.592650 0.584650
0.628419 0.624419 0.616419
0.660188 0.656188 0.648188
0.691956 0.687956 0.679956
0.723725 0.719725 0.711725
0.755494 0.751494 0.743494
0.787262 0.783262 0.775262
0.595481 0.591481 0.583481
0.627250 0.623250 0.615250
0.659019 0.655019 0.647019
0.690788 0.686788 0.678788
0.722556 0.718556 0.710556
0.754325 0.750325 0.742325
0.786094 0.782094 0.774094
0.817863 0.813863 0.805863
0.849631 0.845631 0.837631
0.657850 0.653850 0.645850
0.689619 0.685619 0.677619
0.721387 0.717387 0.709387
0.753156 0.749156 0.741156
0.784925 0.780925 0.772925
0.816694 0.812694 0.804694
0.848463 0.844463 0.836462
0.880231 0.876231 0.868231
0.912000 0.908000 0.900000
