assets/luts/bw_porcelain.cube
TITLE "Porcelain BW"
LUT_3D_SIZE 9
0.242719 0.242719 0.242719
0.253071 0.253071 0.253071
0.264749 0.264749 0.264749
0.277576 0.277576 0.277576
0.291461 0.291461 0.291461
0.306345 0.306345 0.306345
0.322183 0.322183 0.322183
0.338933 0.338933 0.338933
0.356554 0.356554 0.356554
0.264298 0.264298 0.264298
0.277085 0.277085 0.277085
0.290932 0.290932 0.290932
0.305780 0.305780 0.305780
0.321583 0.321583 0.321583
0.338301 0.338301 0.338301
0.355890 0.355890 0.355890
0.374307 0.374307 0.374307
0.393500 0.393500 0.393500
0.290405 0.290405 0.290405
0.305217 0.305217 0.305217
0.320986 0.320986 0.320986
0.337670 0.337670 0.337670
0.355228 0.355228 0.355228
0.373616 0.373616 0.373616
0.392781 0.392781 0.392781
0.412665 0.412665 0.412665
0.433202 0.433202 0.433202
0.320389 0.320389 0.320389
0.337040 0.337040 0.337040
0.354567 0.354567 0.354567
0.372925 0.372925 0.372925
0.392063 0.392063 0.392063
0.411922 0.411922 0.411922
0.432436 0.432436 0.432436
0.453531 0.453531 0.453531
0.475122 0.475122 0.475122
0.353908 0.353908 0.353908
0.372236 0.372236 0.372236
0.391345 0.391345 0.391345
0.411179 0.411179 0.411179
0.431670 0.431670 0.431670
0.452745 0.452745 0.452745
0.474320 0.474320 0.474320
0.496305 0.496305 0.496305
0.518603 0.518603 0.518603
0.390629 0.390629 0.390629
0.410437 0.410437 0.410437
0.430906 0.430906 0.430906
0.451960 0.451960 0.451960
0.473519 0.473519 0.473519
0.495490 0.495490 0.495490
0.517778 0.517778 0.517778
0.540278 0.540278 0.540278
0.562885 0.562885 0.562885
0.430142 0.430142 0.430142
0.451176 0.451176 0.451176
0.472718 0.472718 0.472718
0.494676 0.494676 0.494676
0.516954 0.516954 0.516954
0.539448 0.539448 0.539448
0.562052 0.562052 0.562052
0.584657 0.584657 0.584657
0.607151 0.607151 0.607151
0.471917 0.471917 0.471917
0.493862 0.493862 0.493862
0.516129 0.516129 0.516129
0.538618 0.538618 0.538618
0.561220 0.561220 0.561220
0.583827 0.583827 0.583827
0.606327 0.606327 0.606327
0.628612 0.628612 0.628612
0.650577 0.650577 0.650577
0.515306 0.515306 0.515306
0.537788 0.537788 0.537788
0.560388 0.560388 0.560388
0.582996 0.582996 0.582996
0.605502 0.605502 0.605502
0.627797 0.627797 0.627797
0.649775 0.649775 0.649775
0.671336 0.671336 0.671336
0.692385 0.692385 0.692385
0.246492 0.246492 0.246492
0.257379 0.257379 0.257379
0.269510 0.269510 0.269510
0.282749 0.282749 0.282749
0.297021 0.297021 0.297021
0.312273 0.312273 0.312273
0.328463 0.328463 0.328463
0.345551 0.345551 0.345551
0.363492 0.363492 0.363492
0.269043 0.269043 0.269043
0.282243 0.282243 0.282243
0.296478 0.296478 0.296478
0.311695 0.311695 0.311695
0.327852 0.327852 0.327852
0.344906 0.344906 0.344906
0.362817 0.362817 0.362817
0.381536 0.381536 0.381536
0.401010 0.401010 0.401010
0.295937 0.295937 0.295937
0.311119 0.311119 0.311119
0.327241 0.327241 0.327241
0.344264 0.344264 0.344264
0.362144 0.362144 0.362144
0.380834 0.380834 0.380834
0.400281 0.400281 0.400281
0.420422 0.420422 0.420422
0.441189 0.441189 0.441189
0.326632 0.326632 0.326632
0.343622 0.343622 0.343622
0.361471 0.361471 0.361471
0.380133 0.380133 0.380133
0.399553 0.399553 0.399553
0.419670 0.419670 0.419670
0.440415 0.440415 0.440415
0.461709 0.461709 0.461709
0.483467 0.483467 0.483467
0.360800 0.360800 0.360800
0.379432 0.379432 0.379432
0.398825 0.398825 0.398825
0.418918 0.418918 0.418918
0.439641 0.439641 0.439641
0.460917 0.460917 0.460917
0.482659 0.482659 0.482659
0.504775 0.504775 0.504775
0.527165 0.527165 0.527165
0.398099 0.398099 0.398099
0.418167 0.418167 0.418167
0.438868 0.438868 0.438868
0.460125 0.460125 0.460125
0.481852 0.481852 0.481852
0.503956 0.503956 0.503956
0.526337 0.526337 0.526337
0.548891 0.548891 0.548891
0.571509 0.571509 0.571509
0.438097 0.438097 0.438097
0.459334 0.459334 0.459334
0.481046 0.481046 0.481046
0.503137 0.503137 0.503137
0.525510 0.525510 0.525510
0.548059 0.548059 0.548059
0.570677 0.570677 0.570677
0.593252 0.593252 0.593252
0.615676 0.615676 0.615676
0.480240 0.480240 0.480240
0.502319 0.502319 0.502319
0.524683 0.524683 0.524683
0.547228 0.547228 0.547228
0.569845 0.569845 0.569845
0.592424 0.592424 0.592424
0.614855 0.614855 0.614855
0.637030 0.637030 0.637030
0.658845 0.658845 0.658845
0.523857 0.523857 0.523857
0.546397 0.546397 0.546397
0.569013 0.569013 0.569013
0.591595 0.591595 0.591595
0.614034 0.614034 0.614034
0.636220 0.636220 0.636220
0.658050 0.658050 0.658050
0.679426 0.679426 0.679426
0.700257 0.700257 0.700257
0.250483 0.250483 0.250483
0.261867 0.261867 0.261867
0.274432 0.274432 0.274432
0.288072 0.288072 0.288072
0.302723 0.302723 0.302723
0.318338 0.318338 0.318338
0.334875 0.334875 0.334875
0.352293 0.352293 0.352293
0.370548 0.370548 0.370548
0.273950 0.273950 0.273950
0.287552 0.287552 0.287552
0.302167 0.302167 0.302167
0.317747 0.317747 0.317747
0.334250 0.334250 0.334250
0.351637 0.351637 0.351637
0.369862 0.369862 0.369862
0.388875 0.388875 0.388875
0.408620 0.408620 0.408620
0.301612 0.301612 0.301612
0.317157 0.317157 0.317157
0.333627 0.333627 0.333627
0.350982 0.350982 0.350982
0.369177 0.369177 0.369177
0.388162 0.388162 0.388162
0.407882 0.407882 0.407882
0.428270 0.428270 0.428270
0.449255 0.449255 0.449255
0.333005 0.333005 0.333005
0.350328 0.350328 0.350328
0.368493 0.368493 0.368493
0.387451 0.387451 0.387451
0.407144 0.407144 0.407144
0.427509 0.427509 0.427509
0.448473 0.448473 0.448473
0.469955 0.469955 0.469955
0.491865 0.491865 0.491865
0.367811 0.367811 0.367811
0.386740 0.386740 0.386740
0.406407 0.406407 0.406407
0.426749 0.426749 0.426749
0.447692 0.447692 0.447692
0.469156 0.469156 0.469156
0.491053 0.491053 0.491053
0.513285 0.513285 0.513285
0.535751 0.535751 0.535751
0.405671 0.405671 0.405671
0.425989 0.425989 0.425989
0.446912 0.446912 0.446912
0.468359 0.468359 0.468359
0.490241 0.490241 0.490241
0.512462 0.512462 0.512462
0.534922 0.534922 0.534922
0.557513 0.557513 0.557513
0.580126 0.580126 0.580126
0.446133 0.446133 0.446133
0.467561 0.467561 0.467561
0.489429 0.489429 0.489429
0.511640 0.511640 0.511640
0.534093 0.534093 0.534093
0.556681 0.556681 0.556681
0.579295 0.579295 0.579295
0.601826 0.601826 0.601826
0.624163 0.624163 0.624163
0.488618 0.488618 0.488618
0.510818 0.510818 0.510818
0.533264 0.533264 0.533264
0.555849 0.555849 0.555849
0.578464 0.578464 0.578464
0.601000 0.601000 0.601000
0.623346 0.623346 0.623346
0.645395 0.645395 0.645395
0.667047 0.667047 0.667047
0.532435 0.532435 0.532435
0.555017 0.555017 0.555017
0.577633 0.577633 0.577633
0.600173 0.600173 0.600173
0.622528 0.622528 0.622528
0.644591 0.644591 0.644591
0.666259 0.666259 0.666259
0.687437 0.687437 0.687437
0.708038 0.708038 0.708038
0.254675 0.254675 0.254675
0.266525 0.266525 0.266525
0.279509 0.279509 0.279509
0.293541 0.293541 0.293541
0.308565 0.308565 0.308565
0.324536 0.324536 0.324536
0.341414 0.341414 0.341414
0.359157 0.359157 0.359157
0.377718 0.377718 0.377718
0.279013 0.279013 0.279013
0.293007 0.293007 0.293007
0.307995 0.307995 0.307995
0.323932 0.323932 0.323932
0.340778 0.340778 0.340778
0.358489 0.358489 0.358489
0.377021 0.377021 0.377021
0.396321 0.396321 0.396321
0.416328 0.416328 0.416328
0.307427 0.307427 0.307427
0.323330 0.323330 0.323330
0.340142 0.340142 0.340142
0.357823 0.357823 0.357823
0.376325 0.376325 0.376325
0.395598 0.395598 0.395598
0.415580 0.415580 0.415580
0.436205 0.436205 0.436205
0.457396 0.457396 0.457396
0.339508 0.339508 0.339508
0.357157 0.357157 0.357157
0.375631 0.375631 0.375631
0.394876 0.394876 0.394876
0.414833 0.414833 0.414833
0.435436 0.435436 0.435436
0.456607 0.456607 0.456607
0.478263 0.478263 0.478263
0.500312 0.500312 0.500312
0.374937 0.374937 0.374937
0.394155 0.394155 0.394155
0.414087 0.414087 0.414087
0.434667 0.434667 0.434667
0.455819 0.455819 0.455819
0.477459 0.477459 0.477459
0.499495 0.499495 0.499495
0.521829 0.521829 0.521829
0.544357 0.544357 0.544357
0.413342 0.413342 0.413342
0.433899 0.433899 0.433899
0.455032 0.455032 0.455032
0.476655 0.476655 0.476655
0.498678 0.498678 0.498678
0.521003 0.521003 0.521003
0.543526 0.543526 0.543526
0.566138 0.566138 0.566138
0.588731 0.588731 0.588731
0.454245 0.454245 0.454245
0.475852 0.475852 0.475852
0.497862 0.497862 0.497862
0.520178 0.520178 0.520178
0.542695 0.542695 0.542695
0.565306 0.565306 0.565306
0.587901 0.587901 0.587901
0.610371 0.610371 0.610371
0.632606 0.632606 0.632606
0.497047 0.497047 0.497047
0.519352 0.519352 0.519352
0.541864 0.541864 0.541864
0.564474 0.564474 0.564474
0.587072 0.587072 0.587072
0.609548 0.609548 0.609548
0.631793 0.631793 0.631793
0.653703 0.653703 0.653703
0.675178 0.675178 0.675178
0.541033 0.541033 0.541033
0.563641 0.563641 0.563641
0.586242 0.586242 0.586242
0.608724 0.608724 0.608724
0.630980 0.630980 0.630980
0.652904 0.652904 0.652904
0.674397 0.674397 0.674397
0.695365 0.695365 0.695365
0.715724 0.715724 0.715724
0.259052 0.259052 0.259052
0.271348 0.271348 0.271348
0.284739 0.284739 0.284739
0.299155 0.299155 0.299155
0.314545 0.314545 0.314545
0.330866 0.330866 0.330866
0.348079 0.348079 0.348079
0.366140 0.366140 0.366140
0.384999 0.384999 0.384999
0.284228 0.284228 0.284228
0.298607 0.298607 0.298607
0.313962 0.313962 0.313962
0.330250 0.330250 0.330250
0.347431 0.347431 0.347431
0.365461 0.365461 0.365461
0.384292 0.384292 0.384292
0.403869 0.403869 0.403869
0.424129 0.424129 0.424129
0.313380 0.313380 0.313380
0.329635 0.329635 0.329635
0.346783 0.346783 0.346783
0.364783 0.364783 0.364783
0.383586 0.383586 0.383586
0.403136 0.403136 0.403136
0.423372 0.423372 0.423372
0.444222 0.444222 0.444222
0.465607 0.465607 0.465607
0.346137 0.346137 0.346137
0.364106 0.364106 0.364106
0.382880 0.382880 0.382880
0.402404 0.402404 0.402404
0.422616 0.422616 0.422616
0.443445 0.443445 0.443445
0.464812 0.464812 0.464812
0.486629 0.486629 0.486629
0.508802 0.508802 0.508802
0.382176 0.382176 0.382176
0.401673 0.401673 0.401673
0.421861 0.421861 0.421861
0.442669 0.442669 0.442669
0.464017 0.464017 0.464017
0.485819 0.485819 0.485819
0.507981 0.507981 0.507981
0.530401 0.530401 0.530401
0.552974 0.552974 0.552974
0.421107 0.421107 0.421107
0.441893 0.441893 0.441893
0.463223 0.463223 0.463223
0.485010 0.485010 0.485010
0.507160 0.507160 0.507160
0.529573 0.529573 0.529573
0.552142 0.552142 0.552142
0.574760 0.574760 0.574760
0.597316 0.597316 0.597316
0.462430 0.462430 0.462430
0.484202 0.484202 0.484202
0.506340 0.506340 0.506340
0.528745 0.528745 0.528745
0.551311 0.551311 0.551311
0.573929 0.573929 0.573929
0.596489 0.596489 0.596489
0.618882 0.618882 0.618882
0.640999 0.640999 0.640999
0.505520 0.505520 0.505520
0.527917 0.527917 0.527917
0.550479 0.550479 0.550479
0.573097 0.573097 0.573097
0.595661 0.595661 0.595661
0.618062 0.618062 0.618062
0.640192 0.640192 0.640192
0.661947 0.661947 0.661947
0.683231 0.683231 0.683231
0.549647 0.549647 0.549647
0.572265 0.572265 0.572265
0.594833 0.594833 0.594833
0.617242 0.617242 0.617242
0.639384 0.639384 0.639384
0.661155 0.661155 0.661155
0.682458 0.682458 0.682458
0.703203 0.703203 0.703203
0.723311 0.723311 0.723311
0.263604 0.263604 0.263604
0.276329 0.276329 0.276329
0.290118 0.290118 0.290118
0.304910 0.304910 0.304910
0.320660 0.320660 0.320660
0.337326 0.337326 0.337326
0.354868 0.354868 0.354868
0.373239 0.373239 0.373239
0.392389 0.392389 0.392389
0.289592 0.289592 0.289592
0.304349 0.304349 0.304349
0.320064 0.320064 0.320064
0.336697 0.336697 0.336697
0.354207 0.354207 0.354207
0.372549 0.372549 0.372549
0.391671 0.391671 0.391671
0.411517 0.411517 0.411517
0.432018 0.432018 0.432018
0.319470 0.319470 0.319470
0.336070 0.336070 0.336070
0.353548 0.353548 0.353548
0.371860 0.371860 0.371860
0.390955 0.390955 0.390955
0.410774 0.410774 0.410774
0.431253 0.431253 0.431253
0.452317 0.452317 0.452317
0.473883 0.473883 0.473883
0.352890 0.352890 0.352890
0.371172 0.371172 0.371172
0.390239 0.390239 0.390239
0.410033 0.410033 0.410033
0.430489 0.430489 0.430489
0.451533 0.451533 0.451533
0.473082 0.473082 0.473082
0.495046 0.495046 0.495046
0.517328 0.517328 0.517328
0.389524 0.389524 0.389524
0.409293 0.409293 0.409293
0.429726 0.429726 0.429726
0.450749 0.450749 0.450749
0.472281 0.472281 0.472281
0.494232 0.494232 0.494232
0.516504 0.516504 0.516504
0.538995 0.538995 0.538995
0.561599 0.561599 0.561599
0.428963 0.428963 0.428963
0.449966 0.449966 0.449966
0.471481 0.471481 0.471481
0.493418 0.493418 0.493418
0.515680 0.515680 0.515680
0.538165 0.538165 0.538165
0.560766 0.560766 0.560766
0.583374 0.583374 0.583374
0.605877 0.605877 0.605877
0.470681 0.470681 0.470681
0.492604 0.492604 0.492604
0.514856 0.514856 0.514856
0.537335 0.537335 0.537335
0.559934 0.559934 0.559934
0.582543 0.582543 0.582543
0.605052 0.605052 0.605052
0.627353 0.627353 0.627353
0.649338 0.649338 0.649338
0.514033 0.514033 0.514033
0.536506 0.536506 0.536506
0.559102 0.559102 0.559102
0.581712 0.581712 0.581712
0.604227 0.604227 0.604227
0.626537 0.626537 0.626537
0.648536 0.648536 0.648536
0.670123 0.670123 0.670123
0.691203 0.691203 0.691203
0.558270 0.558270 0.558270
0.580882 0.580882 0.580882
0.603402 0.603402 0.603402
0.625721 0.625721 0.625721
0.647733 0.647733 0.647733
0.669337 0.669337 0.669337
0.690438 0.690438 0.690438
0.710949 0.710949 0.710949
0.730794 0.730794 0.730794
0.268325 0.268325 0.268325
0.281464 0.281464 0.281464
0.295642 0.295642 0.295642
0.310805 0.310805 0.310805
0.326909 0.326909 0.326909
0.343913 0.343913 0.343913
0.361777 0.361777 0.361777
0.380451 0.380451 0.380451
0.399884 0.399884 0.399884
0.295103 0.295103 0.295103
0.310230 0.310230 0.310230
0.326300 0.326300 0.326300
0.343272 0.343272 0.343272
0.361105 0.361105 0.361105
0.379751 0.379751 0.379751
0.399156 0.399156 0.399156
0.419260 0.419260 0.419260
0.439993 0.439993 0.439993
0.325692 0.325692 0.325692
0.342632 0.342632 0.342632
0.360434 0.360434 0.360434
0.379051 0.379051 0.379051
0.398429 0.398429 0.398429
0.418508 0.418508 0.418508
0.439220 0.439220 0.439220
0.460485 0.460485 0.460485
0.482219 0.482219 0.482219
0.359765 0.359765 0.359765
0.378352 0.378352 0.378352
0.397703 0.397703 0.397703
0.417758 0.417758 0.417758
0.438447 0.438447 0.438447
0.459694 0.459694 0.459694
0.481412 0.481412 0.481412
0.503509 0.503509 0.503509
0.525886 0.525886 0.525886
0.396979 0.396979 0.396979
0.417009 0.417009 0.417009
0.437676 0.437676 0.437676
0.458903 0.458903 0.458903
0.480606 0.480606 0.480606
0.502691 0.502691 0.502691
0.525059 0.525059 0.525059
0.547606 0.547606 0.547606
0.570223 0.570223 0.570223
0.436905 0.436905 0.436905
0.458113 0.458113 0.458113
0.479800 0.479800 0.479800
0.501873 0.501873 0.501873
0.524232 0.524232 0.524232
0.546775 0.546775 0.546775
0.569391 0.569391 0.569391
0.591972 0.591972 0.591972
0.614407 0.614407 0.614407
0.478995 0.478995 0.478995
0.501055 0.501055 0.501055
0.523406 0.523406 0.523406
0.545943 0.545943 0.545943
0.568559 0.568559 0.568559
0.591143 0.591143 0.591143
0.613585 0.613585 0.613585
0.635778 0.635778 0.635778
0.657616 0.657616 0.657616
0.522580 0.522580 0.522580
0.545112 0.545112 0.545112
0.567727 0.567727 0.567727
0.590314 0.590314 0.590314
0.612763 0.612763 0.612763
0.634967 0.634967 0.634967
0.656820 0.656820 0.656820
0.678225 0.678225 0.678225
0.699089 0.699089 0.699089
0.566895 0.566895 0.566895
0.589485 0.589485 0.589485
0.611941 0.611941 0.611941
0.634156 0.634156 0.634156
0.656024 0.656024 0.656024
0.677446 0.677446 0.677446
0.698332 0.698332 0.698332
0.718598 0.718598 0.718598
0.738171 0.738171 0.738171
0.273208 0.273208 0.273208
0.286751 0.286751 0.286751
0.301309 0.301309 0.301309
0.316836 0.316836 0.316836
0.333288 0.333288 0.333288
0.350625 0.350625 0.350625
0.368804 0.368804 0.368804
0.387774 0.387774 0.387774
0.407479 0.407479 0.407479
0.300756 0.300756 0.300756
0.316248 0.316248 0.316248
0.332667 0.332667 0.332667
0.349972 0.349972 0.349972
0.368121 0.368121 0.368121
0.387063 0.387063 0.387063
0.406742 0.406742 0.406742
0.427094 0.427094 0.427094
0.448047 0.448047 0.448047
0.332047 0.332047 0.332047
0.349320 0.349320 0.349320
0.367439 0.367439 0.367439
0.386352 0.386352 0.386352
0.406006 0.406006 0.406006
0.426335 0.426335 0.426335
0.447267 0.447267 0.447267
0.468721 0.468721 0.468721
0.490610 0.490610 0.490610
0.366758 0.366758 0.366758
0.385643 0.385643 0.385643
0.405270 0.405270 0.405270
0.425576 0.425576 0.425576
0.446487 0.446487 0.446487
0.467924 0.467924 0.467924
0.489798 0.489798 0.489798
0.512014 0.512014 0.512014
0.534470 0.534470 0.534470
0.404536 0.404536 0.404536
0.424817 0.424817 0.424817
0.445708 0.445708 0.445708
0.467127 0.467127 0.467127
0.488986 0.488986 0.488986
0.511192 0.511192 0.511192
0.533640 0.533640 0.533640
0.556227 0.556227 0.556227
0.578842 0.578842 0.578842
0.444929 0.444929 0.444929
0.466330 0.466330 0.466330
0.488176 0.488176 0.488176
0.510370 0.510370 0.510370
0.532811 0.532811 0.532811
0.555395 0.555395 0.555395
0.578011 0.578011 0.578011
0.600549 0.600549 0.600549
0.622900 0.622900 0.622900
0.487365 0.487365 0.487365
0.509548 0.509548 0.509548
0.531983 0.531983 0.531983
0.554563 0.554563 0.554563
0.577179 0.577179 0.577179
0.599722 0.599722 0.599722
0.622082 0.622082 0.622082
0.644152 0.644152 0.644152
0.665829 0.665829 0.665829
0.531154 0.531154 0.531154
0.553731 0.553731 0.553731
0.576348 0.576348 0.576348
0.598896 0.598896 0.598896
0.621264 0.621264 0.621264
0.643346 0.643346 0.643346
0.665039 0.665039 0.665039
0.686248 0.686248 0.686248
0.706884 0.706884 0.706884
0.575516 0.575516 0.575516
0.598069 0.598069 0.598069
0.620445 0.620445 0.620445
0.642540 0.642540 0.642540
0.664249 0.664249 0.664249
0.685477 0.685477 0.685477
0.706136 0.706136 0.706136
0.726146 0.726146 0.726146
0.745438 0.745438 0.745438
0.278248 0.278248 0.278248
0.292185 0.292185 0.292185
0.307117 0.307117 0.307117
0.323001 0.323001 0.323001
0.339796 0.339796 0.339796
0.357460 0.357460 0.357460
0.375946 0.375946 0.375946
0.395204 0.395204 0.395204
0.415173 0.415173 0.415173
0.306551 0.306551 0.306551
0.322401 0.322401 0.322401
0.339163 0.339163 0.339163
0.356795 0.356795 0.356795
0.375252 0.375252 0.375252
0.394482 0.394482 0.394482
0.414426 0.414426 0.414426
0.435016 0.435016 0.435016
0.456177 0.456177 0.456177
0.338530 0.338530 0.338530
0.356131 0.356131 0.356131
0.374559 0.374559 0.374559
0.393762 0.393762 0.393762
0.413681 0.413681 0.413681
0.434248 0.434248 0.434248
0.455390 0.455390 0.455390
0.477021 0.477021 0.477021
0.499050 0.499050 0.499050
0.373867 0.373867 0.373867
0.393042 0.393042 0.393042
0.412936 0.412936 0.412936
0.433481 0.433481 0.433481
0.454603 0.454603 0.454603
0.476217 0.476217 0.476217
0.498233 0.498233 0.498233
0.520553 0.520553 0.520553
0.543072 0.543072 0.543072
0.412192 0.412192 0.412192
0.432715 0.432715 0.432715
0.453816 0.453816 0.453816
0.475414 0.475414 0.475414
0.497417 0.497417 0.497417
0.519728 0.519728 0.519728
0.542242 0.542242 0.542242
0.564852 0.564852 0.564852
0.587449 0.587449 0.587449
0.453031 0.453031 0.453031
0.474612 0.474612 0.474612
0.496602 0.496602 0.496602
0.518902 0.518902 0.518902
0.541411 0.541411 0.541411
0.564020 0.564020 0.564020
0.586619 0.586619 0.586619
0.609098 0.609098 0.609098
0.631350 0.631350 0.631350
0.495787 0.495787 0.495787
0.518078 0.518078 0.518078
0.540580 0.540580 0.540580
0.563187 0.563187 0.563187
0.585789 0.585789 0.585789
0.608275 0.608275 0.608275
0.630536 0.630536 0.630536
0.652468 0.652468 0.652468
0.673970 0.673970 0.673970
0.539750 0.539750 0.539750
0.562355 0.562355 0.562355
0.584959 0.584959 0.584959
0.607451 0.607451 0.607451
0.629723 0.629723 0.629723
0.651668 0.651668 0.651668
0.673188 0.673188 0.673188
0.694188 0.694188 0.694188
0.714584 0.714584 0.714584
0.584129 0.584129 0.584129
0.606627 0.606627 0.606627
0.628908 0.628908 0.628908
0.650868 0.650868 0.650868
0.672405 0.672405 0.672405
0.693426 0.693426 0.693426
0.713846 0.713846 0.713846
0.733589 0.733589 0.733589
0.752592 0.752592 0.752592
