assets/luts/bw_porcelain.cube
TITLE "Porcelain BW"
LUT_3D_SIZE 17
0.242719 0.242719 0.242719
0.247712 0.247712 0.247712
0.253071 0.253071 0.253071
0.258758 0.258758 0.258758
0.264749 0.264749 0.264749
0.271026 0.271026 0.271026
0.277576 0.277576 0.277576
0.284391 0.284391 0.284391
0.291461 0.291461 0.291461
0.298781 0.298781 0.298781
0.306345 0.306345 0.306345
0.314147 0.314147 0.314147
0.322183 0.322183 0.322183
0.330446 0.330446 0.330446
0.338933 0.338933 0.338933
0.347637 0.347637 0.347637
0.356554 0.356554 0.356554
0.252868 0.252868 0.252868
0.258543 0.258543 0.258543
0.264523 0.264523 0.264523
0.270790 0.270790 0.270790
0.277330 0.277330 0.277330
0.284135 0.284135 0.284135
0.291197 0.291197 0.291197
0.298508 0.298508 0.298508
0.306063 0.306063 0.306063
0.313856 0.313856 0.313856
0.321883 0.321883 0.321883
0.330138 0.330138 0.330138
0.338616 0.338616 0.338616
0.347313 0.347313 0.347313
0.356222 0.356222 0.356222
0.365337 0.365337 0.365337
0.374654 0.374654 0.374654
0.264298 0.264298 0.264298
0.270554 0.270554 0.270554
0.277085 0.277085 0.277085
0.283880 0.283880 0.283880
0.290932 0.290932 0.290932
0.298234 0.298234 0.298234
0.305780 0.305780 0.305780
0.313565 0.313565 0.313565
0.321583 0.321583 0.321583
0.329830 0.329830 0.329830
0.338301 0.338301 0.338301
0.346989 0.346989 0.346989
0.355890 0.355890 0.355890
0.364998 0.364998 0.364998
0.374307 0.374307 0.374307
0.383810 0.383810 0.383810
0.393500 0.393500 0.393500
0.276840 0.276840 0.276840
0.283626 0.283626 0.283626
0.290669 0.290669 0.290669
0.297961 0.297961 0.297961
0.305499 0.305499 0.305499
0.313275 0.313275 0.313275
0.321284 0.321284 0.321284
0.329523 0.329523 0.329523
0.337985 0.337985 0.337985
0.346666 0.346666 0.346666
0.355559 0.355559 0.355559
0.364660 0.364660 0.364660
0.373961 0.373961 0.373961
0.383457 0.383457 0.383457
0.393140 0.393140 0.393140
0.403003 0.403003 0.403003
0.413037 0.413037 0.413037
0.290405 0.290405 0.290405
0.297689 0.297689 0.297689
0.305217 0.305217 0.305217
0.312984 0.312984 0.312984
0.320986 0.320986 0.320986
0.329216 0.329216 0.329216
0.337670 0.337670 0.337670
0.346343 0.346343 0.346343
0.355228 0.355228 0.355228
0.364321 0.364321 0.364321
0.373616 0.373616 0.373616
0.383105 0.383105 0.383105
0.392781 0.392781 0.392781
0.402637 0.402637 0.402637
0.412665 0.412665 0.412665
0.422857 0.422857 0.422857
0.433202 0.433202 0.433202
0.304936 0.304936 0.304936
0.312694 0.312694 0.312694
0.320687 0.320687 0.320687
0.328909 0.328909 0.328909
0.337355 0.337355 0.337355
0.346020 0.346020 0.346020
0.354898 0.354898 0.354898
0.363983 0.363983 0.363983
0.373270 0.373270 0.373270
0.382752 0.382752 0.382752
0.392422 0.392422 0.392422
0.402271 0.402271 0.402271
0.412293 0.412293 0.412293
0.422479 0.422479 0.422479
0.432819 0.432819 0.432819
0.443304 0.443304 0.443304
0.453924 0.453924 0.453924
0.320389 0.320389 0.320389
0.328603 0.328603 0.328603
0.337040 0.337040 0.337040
0.345697 0.345697 0.345697
0.354567 0.354567 0.354567
0.363645 0.363645 0.363645
0.372925 0.372925 0.372925
0.382400 0.382400 0.382400
0.392063 0.392063 0.392063
0.401906 0.401906 0.401906
0.411922 0.411922 0.411922
0.422101 0.422101 0.422101
0.432436 0.432436 0.432436
0.442916 0.442916 0.442916
0.453531 0.453531 0.453531
0.464270 0.464270 0.464270
0.475122 0.475122 0.475122
0.336726 0.336726 0.336726
0.345375 0.345375 0.345375
0.354237 0.354237 0.354237
0.363308 0.363308 0.363308
0.372580 0.372580 0.372580
0.382048 0.382048 0.382048
0.391704 0.391704 0.391704
0.401541 0.401541 0.401541
0.411550 0.411550 0.411550
0.421724 0.421724 0.421724
0.432053 0.432053 0.432053
0.442528 0.442528 0.442528
0.453138 0.453138 0.453138
0.463873 0.463873 0.463873
0.474721 0.474721 0.474721
0.485672 0.485672 0.485672
0.496713 0.496713 0.496713
0.353908 0.353908 0.353908
0.362971 0.362971 0.362971
0.372236 0.372236 0.372236
0.381696 0.381696 0.381696
0.391345 0.391345 0.391345
0.401176 0.401176 0.401176
0.411179 0.411179 0.411179
0.421347 0.421347 0.421347
0.431670 0.431670 0.431670
0.442140 0.442140 0.442140
0.452745 0.452745 0.452745
0.463476 0.463476 0.463476
0.474320 0.474320 0.474320
0.485267 0.485267 0.485267
0.496305 0.496305 0.496305
0.507421 0.507421 0.507421
0.518603 0.518603 0.518603
0.371891 0.371891 0.371891
0.381345 0.381345 0.381345
0.390987 0.390987 0.390987
0.400811 0.400811 0.400811
0.410808 0.410808 0.410808
0.420970 0.420970 0.420970
0.431288 0.431288 0.431288
0.441752 0.441752 0.441752
0.452353 0.452353 0.452353
0.463079 0.463079 0.463079
0.473919 0.473919 0.473919
0.484863 0.484863 0.484863
0.495898 0.495898 0.495898
0.507011 0.507011 0.507011
0.518190 0.518190 0.518190
0.529422 0.529422 0.529422
0.540694 0.540694 0.540694
0.390629 0.390629 0.390629
0.400446 0.400446 0.400446
0.410437 0.410437 0.410437
0.420593 0.420593 0.420593
0.430906 0.430906 0.430906
0.441365 0.441365 0.441365
0.451960 0.451960 0.451960
0.462682 0.462682 0.462682
0.473519 0.473519 0.473519
0.484459 0.484459 0.484459
0.495490 0.495490 0.495490
0.506601 0.506601 0.506601
0.517778 0.517778 0.517778
0.529008 0.529008 0.529008
0.540278 0.540278 0.540278
0.551575 0.551575 0.551575
0.562885 0.562885 0.562885
0.410067 0.410067 0.410067
0.420217 0.420217 0.420217
0.430524 0.430524 0.430524
0.440978 0.440978 0.440978
0.451568 0.451568 0.451568
0.462286 0.462286 0.462286
0.473118 0.473118 0.473118
0.484055 0.484055 0.484055
0.495083 0.495083 0.495083
0.506191 0.506191 0.506191
0.517366 0.517366 0.517366
0.528594 0.528594 0.528594
0.539863 0.539863 0.539863
0.551159 0.551159 0.551159
0.562469 0.562469 0.562469
0.573777 0.573777 0.573777
0.585072 0.585072 0.585072
0.430142 0.430142 0.430142
0.440590 0.440590 0.440590
0.451176 0.451176 0.451176
0.461889 0.461889 0.461889
0.472718 0.472718 0.472718
0.483651 0.483651 0.483651
0.494676 0.494676 0.494676
0.505781 0.505781 0.505781
0.516954 0.516954 0.516954
0.528180 0.528180 0.528180
0.539448 0.539448 0.539448
0.550743 0.550743 0.550743
0.562052 0.562052 0.562052
0.573362 0.573362 0.573362
0.584657 0.584657 0.584657
0.595925 0.595925 0.595925
0.607151 0.607151 0.607151
0.450785 0.450785 0.450785
0.461493 0.461493 0.461493
0.472317 0.472317 0.472317
0.483247 0.483247 0.483247
0.494269 0.494269 0.494269
0.505371 0.505371 0.505371
0.516541 0.516541 0.516541
0.527767 0.527767 0.527767
0.539033 0.539033 0.539033
0.550328 0.550328 0.550328
0.561636 0.561636 0.561636
0.572946 0.572946 0.572946
0.584242 0.584242 0.584242
0.595511 0.595511 0.595511
0.606739 0.606739 0.606739
0.617913 0.617913 0.617913
0.629019 0.629019 0.629019
0.471917 0.471917 0.471917
0.482843 0.482843 0.482843
0.493862 0.493862 0.493862
0.504961 0.504961 0.504961
0.516129 0.516129 0.516129
0.527353 0.527353 0.527353
0.538618 0.538618 0.538618
0.549912 0.549912 0.549912
0.561220 0.561220 0.561220
0.572530 0.572530 0.572530
0.583827 0.583827 0.583827
0.595097 0.595097 0.595097
0.606327 0.606327 0.606327
0.617503 0.617503 0.617503
0.628612 0.628612 0.628612
0.639641 0.639641 0.639641
0.650577 0.650577 0.650577
0.493455 0.493455 0.493455
0.504552 0.504552 0.504552
0.515718 0.515718 0.515718
0.526939 0.526939 0.526939
0.538203 0.538203 0.538203
0.549496 0.549496 0.549496
0.560804 0.560804 0.560804
0.572114 0.572114 0.572114
0.583411 0.583411 0.583411
0.594683 0.594683 0.594683
0.605915 0.605915 0.605915
0.617093 0.617093 0.617093
0.628205 0.628205 0.628205
0.639237 0.639237 0.639237
0.650176 0.650176 0.650176
0.661010 0.661010 0.661010
0.671728 0.671728 0.671728
0.515306 0.515306 0.515306
0.526525 0.526525 0.526525
0.537788 0.537788 0.537788
0.549080 0.549080 0.549080
0.560388 0.560388 0.560388
0.571698 0.571698 0.571698
0.582996 0.582996 0.582996
0.594269 0.594269 0.594269
0.605502 0.605502 0.605502
0.616683 0.616683 0.616683
0.627797 0.627797 0.627797
0.638832 0.638832 0.638832
0.649775 0.649775 0.649775
0.660614 0.660614 0.660614
0.671336 0.671336 0.671336
0.681930 0.681930 0.681930
0.692385 0.692385 0.692385
0.244576 0.244576 0.244576
0.249715 0.249715 0.249715
0.255202 0.255202 0.255202
0.261007 0.261007 0.261007
0.267109 0.267109 0.267109
0.273491 0.273491 0.273491
0.280144 0.280144 0.280144
0.287057 0.287057 0.287057
0.294223 0.294223 0.294223
0.301637 0.301637 0.301637
0.309292 0.309292 0.309292
0.317184 0.317184 0.317184
0.325307 0.325307 0.325307
0.333656 0.333656 0.333656
0.342226 0.342226 0.342226
0.351012 0.351012 0.351012
0.360008 0.360008 0.360008
0.254995 0.254995 0.254995
0.260788 0.260788 0.260788
0.266879 0.266879 0.266879
0.273252 0.273252 0.273252
0.279894 0.279894 0.279894
0.286798 0.286798 0.286798
0.293955 0.293955 0.293955
0.301360 0.301360 0.301360
0.309006 0.309006 0.309006
0.316889 0.316889 0.316889
0.325004 0.325004 0.325004
0.333345 0.333345 0.333345
0.341907 0.341907 0.341907
0.350685 0.350685 0.350685
0.359673 0.359673 0.359673
0.368866 0.368866 0.368866
0.378257 0.378257 0.378257
0.266650 0.266650 0.266650
0.273012 0.273012 0.273012
0.279645 0.279645 0.279645
0.286539 0.286539 0.286539
0.293687 0.293687 0.293687
0.301083 0.301083 0.301083
0.308721 0.308721 0.308721
0.316595 0.316595 0.316595
0.324701 0.324701 0.324701
0.333034 0.333034 0.333034
0.341588 0.341588 0.341588
0.350358 0.350358 0.350358
0.359339 0.359339 0.359339
0.368524 0.368524 0.368524
0.377908 0.377908 0.377908
0.387483 0.387483 0.387483
0.397242 0.397242 0.397242
0.279396 0.279396 0.279396
0.286281 0.286281 0.286281
0.293420 0.293420 0.293420
0.300807 0.300807 0.300807
0.308435 0.308435 0.308435
0.316301 0.316301 0.316301
0.324399 0.324399 0.324399
0.332723 0.332723 0.332723
0.341269 0.341269 0.341269
0.350032 0.350032 0.350032
0.359005 0.359005 0.359005
0.368183 0.368183 0.368183
0.377559 0.377559 0.377559
0.387127 0.387127 0.387127
0.396880 0.396880 0.396880
0.406809 0.406809 0.406809
0.416907 0.416907 0.416907
0.293153 0.293153 0.293153
0.300531 0.300531 0.300531
0.308151 0.308151 0.308151
0.316008 0.316008 0.316008
0.324097 0.324097 0.324097
0.332413 0.332413 0.332413
0.340951 0.340951 0.340951
0.349706 0.349706 0.349706
0.358671 0.358671 0.358671
0.367842 0.367842 0.367842
0.377211 0.377211 0.377211
0.386772 0.386772 0.386772
0.396518 0.396518 0.396518
0.406441 0.406441 0.406441
0.416532 0.416532 0.416532
0.426783 0.426783 0.426783
0.437185 0.437185 0.437185
0.307866 0.307866 0.307866
0.315715 0.315715 0.315715
0.323795 0.323795 0.323795
0.332103 0.332103 0.332103
0.340633 0.340633 0.340633
0.349380 0.349380 0.349380
0.358338 0.358338 0.358338
0.367501 0.367501 0.367501
0.376863 0.376863 0.376863
0.386417 0.386417 0.386417
0.396156 0.396156 0.396156
0.406073 0.406073 0.406073
0.416158 0.416158 0.416158
0.426404 0.426404 0.426404
0.436800 0.436800 0.436800
0.447338 0.447338 0.447338
0.458006 0.458006 0.458006
0.323494 0.323494 0.323494
0.331793 0.331793 0.331793
0.340315 0.340315 0.340315
0.349054 0.349054 0.349054
0.358004 0.358004 0.358004
0.367160 0.367160 0.367160
0.376515 0.376515 0.376515
0.386062 0.386062 0.386062
0.395795 0.395795 0.395795
0.405705 0.405705 0.405705
0.415784 0.415784 0.415784
0.426024 0.426024 0.426024
0.436415 0.436415 0.436415
0.446947 0.446947 0.446947
0.457611 0.457611 0.457611
0.468395 0.468395 0.468395
0.479288 0.479288 0.479288
0.339998 0.339998 0.339998
0.348729 0.348729 0.348729
0.357671 0.357671 0.357671
0.366820 0.366820 0.366820
0.376167 0.376167 0.376167
0.385708 0.385708 0.385708
0.395433 0.395433 0.395433
0.405337 0.405337 0.405337
0.415410 0.415410 0.415410
0.425644 0.425644 0.425644
0.436030 0.436030 0.436030
0.446558 0.446558 0.446558
0.457217 0.457217 0.457217
0.467996 0.467996 0.467996
0.478885 0.478885 0.478885
0.489872 0.489872 0.489872
0.500944 0.500944 0.500944
0.357339 0.357339 0.357339
0.366480 0.366480 0.366480
0.375820 0.375820 0.375820
0.385353 0.385353 0.385353
0.395072 0.395072 0.395072
0.404970 0.404970 0.404970
0.415037 0.415037 0.415037
0.425265 0.425265 0.425265
0.435645 0.435645 0.435645
0.446168 0.446168 0.446168
0.456822 0.456822 0.456822
0.467598 0.467598 0.467598
0.478483 0.478483 0.478483
0.489466 0.489466 0.489466
0.500535 0.500535 0.500535
0.511677 0.511677 0.511677
0.522880 0.522880 0.522880
0.375473 0.375473 0.375473
0.384999 0.384999 0.384999
0.394712 0.394712 0.394712
0.404603 0.404603 0.404603
0.414664 0.414664 0.414664
0.424886 0.424886 0.424886
0.435261 0.435261 0.435261
0.445778 0.445778 0.445778
0.456428 0.456428 0.456428
0.467199 0.467199 0.467199
0.478080 0.478080 0.478080
0.489060 0.489060 0.489060
0.500126 0.500126 0.500126
0.511266 0.511266 0.511266
0.522467 0.522467 0.522467
0.533716 0.533716 0.533716
0.544999 0.544999 0.544999
0.394351 0.394351 0.394351
0.404236 0.404236 0.404236
0.414291 0.414291 0.414291
0.424507 0.424507 0.424507
0.434877 0.434877 0.434877
0.445389 0.445389 0.445389
0.456034 0.456034 0.456034
0.466801 0.466801 0.466801
0.477678 0.477678 0.477678
0.488655 0.488655 0.488655
0.499718 0.499718 0.499718
0.510855 0.510855 0.510855
0.522054 0.522054 0.522054
0.533301 0.533301 0.533301
0.544583 0.544583 0.544583
0.555886 0.555886 0.555886
0.567197 0.567197 0.567197
0.413918 0.413918 0.413918
0.424129 0.424129 0.424129
0.434493 0.434493 0.434493
0.445000 0.445000 0.445000
0.455640 0.455640 0.455640
0.466403 0.466403 0.466403
0.477276 0.477276 0.477276
0.488249 0.488249 0.488249
0.499309 0.499309 0.499309
0.510444 0.510444 0.510444
0.521641 0.521641 0.521641
0.532887 0.532887 0.532887
0.544168 0.544168 0.544168
0.555470 0.555470 0.555470
0.566781 0.566781 0.566781
0.578086 0.578086 0.578086
0.589372 0.589372 0.589372
0.434109 0.434109 0.434109
0.444611 0.444611 0.444611
0.455246 0.455246 0.455246
0.466005 0.466005 0.466005
0.476874 0.476874 0.476874
0.487844 0.487844 0.487844
0.498901 0.498901 0.498901
0.510034 0.510034 0.510034
0.521228 0.521228 0.521228
0.532472 0.532472 0.532472
0.543752 0.543752 0.543752
0.555054 0.555054 0.555054
0.566365 0.566365 0.566365
0.577671 0.577671 0.577671
0.588957 0.588957 0.588957
0.600211 0.600211 0.600211
0.611418 0.611418 0.611418
0.454853 0.454853 0.454853
0.465607 0.465607 0.465607
0.476473 0.476473 0.476473
0.487439 0.487439 0.487439
0.498493 0.498493 0.498493
0.509623 0.509623 0.509623
0.520815 0.520815 0.520815
0.532058 0.532058 0.532058
0.543337 0.543337 0.543337
0.554638 0.554638 0.554638
0.565949 0.565949 0.565949
0.577255 0.577255 0.577255
0.588542 0.588542 0.588542
0.599797 0.599797 0.599797
0.611007 0.611007 0.611007
0.622156 0.622156 0.622156
0.633233 0.633233 0.633233
0.476071 0.476071 0.476071
0.487034 0.487034 0.487034
0.498085 0.498085 0.498085
0.509212 0.509212 0.509212
0.520403 0.520403 0.520403
0.531644 0.531644 0.531644
0.542921 0.542921 0.542921
0.554222 0.554222 0.554222
0.565533 0.565533 0.565533
0.576839 0.576839 0.576839
0.588128 0.588128 0.588128
0.599384 0.599384 0.599384
0.610595 0.610595 0.610595
0.621747 0.621747 0.621747
0.632827 0.632827 0.632827
0.643822 0.643822 0.643822
0.654719 0.654719 0.654719
0.497677 0.497677 0.497677
0.508802 0.508802 0.508802
0.519990 0.519990 0.519990
0.531229 0.531229 0.531229
0.542506 0.542506 0.542506
0.553806 0.553806 0.553806
0.565117 0.565117 0.565117
0.576423 0.576423 0.576423
0.587713 0.587713 0.587713
0.598971 0.598971 0.598971
0.610184 0.610184 0.610184
0.621338 0.621338 0.621338
0.632421 0.632421 0.632421
0.643419 0.643419 0.643419
0.654320 0.654320 0.654320
0.665111 0.665111 0.665111
0.675781 0.675781 0.675781
0.519577 0.519577 0.519577
0.530815 0.530815 0.530815
0.542091 0.542091 0.542091
0.553390 0.553390 0.553390
0.564701 0.564701 0.564701
0.576008 0.576008 0.576008
0.587298 0.587298 0.587298
0.598557 0.598557 0.598557
0.609772 0.609772 0.609772
0.620929 0.620929 0.620929
0.632015 0.632015 0.632015
0.643016 0.643016 0.643016
0.653921 0.653921 0.653921
0.664716 0.664716 0.664716
0.675391 0.675391 0.675391
0.685933 0.685933 0.685933
0.696332 0.696332 0.696332
0.246492 0.246492 0.246492
0.251768 0.251768 0.251768
0.257379 0.257379 0.257379
0.263300 0.263300 0.263300
0.269510 0.269510 0.269510
0.275996 0.275996 0.275996
0.282749 0.282749 0.282749
0.289760 0.289760 0.289760
0.297021 0.297021 0.297021
0.304527 0.304527 0.304527
0.312273 0.312273 0.312273
0.320254 0.320254 0.320254
0.328463 0.328463 0.328463
0.336897 0.336897 0.336897
0.345551 0.345551 0.345551
0.354417 0.354417 0.354417
0.363492 0.363492 0.363492
0.257167 0.257167 0.257167
0.263077 0.263077 0.263077
0.269276 0.269276 0.269276
0.275753 0.275753 0.275753
0.282496 0.282496 0.282496
0.289497 0.289497 0.289497
0.296749 0.296749 0.296749
0.304247 0.304247 0.304247
0.311984 0.311984 0.311984
0.319956 0.319956 0.319956
0.328157 0.328157 0.328157
0.336583 0.336583 0.336583
0.345228 0.345228 0.345228
0.354087 0.354087 0.354087
0.363154 0.363154 0.363154
0.372424 0.372424 0.372424
0.381888 0.381888 0.381888
0.269043 0.269043 0.269043
0.275510 0.275510 0.275510
0.282243 0.282243 0.282243
0.289235 0.289235 0.289235
0.296478 0.296478 0.296478
0.303967 0.303967 0.303967
0.311695 0.311695 0.311695
0.319659 0.319659 0.319659
0.327852 0.327852 0.327852
0.336269 0.336269 0.336269
0.344906 0.344906 0.344906
0.353758 0.353758 0.353758
0.362817 0.362817 0.362817
0.372079 0.372079 0.372079
0.381536 0.381536 0.381536
0.391183 0.391183 0.391183
0.401010 0.401010 0.401010
0.281991 0.281991 0.281991
0.288973 0.288973 0.288973
0.296207 0.296207 0.296207
0.303687 0.303687 0.303687
0.311407 0.311407 0.311407
0.319362 0.319362 0.319362
0.327546 0.327546 0.327546
0.335956 0.335956 0.335956
0.344585 0.344585 0.344585
0.353428 0.353428 0.353428
0.362480 0.362480 0.362480
0.371735 0.371735 0.371735
0.381185 0.381185 0.381185
0.390824 0.390824 0.390824
0.400645 0.400645 0.400645
0.410640 0.410640 0.410640
0.420799 0.420799 0.420799
0.295937 0.295937 0.295937
0.303408 0.303408 0.303408
0.311119 0.311119 0.311119
0.319065 0.319065 0.319065
0.327241 0.327241 0.327241
0.335642 0.335642 0.335642
0.344264 0.344264 0.344264
0.353099 0.353099 0.353099
0.362144 0.362144 0.362144
0.371391 0.371391 0.371391
0.380834 0.380834 0.380834
0.390467 0.390467 0.390467
0.400281 0.400281 0.400281
0.410269 0.410269 0.410269
0.420422 0.420422 0.420422
0.430732 0.430732 0.430732
0.441189 0.441189 0.441189
0.310831 0.310831 0.310831
0.318768 0.318768 0.318768
0.326936 0.326936 0.326936
0.335329 0.335329 0.335329
0.343943 0.343943 0.343943
0.352770 0.352770 0.352770
0.361807 0.361807 0.361807
0.371047 0.371047 0.371047
0.380483 0.380483 0.380483
0.390109 0.390109 0.390109
0.399917 0.399917 0.399917
0.409898 0.409898 0.409898
0.420046 0.420046 0.420046
0.430350 0.430350 0.430350
0.440802 0.440802 0.440802
0.451390 0.451390 0.451390
0.462105 0.462105 0.462105
0.326632 0.326632 0.326632
0.335017 0.335017 0.335017
0.343622 0.343622 0.343622
0.352442 0.352442 0.352442
0.361471 0.361471 0.361471
0.370704 0.370704 0.370704
0.380133 0.380133 0.380133
0.389752 0.389752 0.389752
0.399553 0.399553 0.399553
0.409528 0.409528 0.409528
0.419670 0.419670 0.419670
0.429968 0.429968 0.429968
0.440415 0.440415 0.440415
0.450998 0.450998 0.450998
0.461709 0.461709 0.461709
0.472536 0.472536 0.472536
0.483467 0.483467 0.483467
0.343301 0.343301 0.343301
0.352114 0.352114 0.352114
0.361135 0.361135 0.361135
0.370360 0.370360 0.370360
0.379782 0.379782 0.379782
0.389394 0.389394 0.389394
0.399189 0.399189 0.399189
0.409158 0.409158 0.409158
0.419294 0.419294 0.419294
0.429587 0.429587 0.429587
0.440028 0.440028 0.440028
0.450607 0.450607 0.450607
0.461313 0.461313 0.461313
0.472136 0.472136 0.472136
0.483063 0.483063 0.483063
0.494084 0.494084 0.494084
0.505185 0.505185 0.505185
0.360800 0.360800 0.360800
0.370018 0.370018 0.370018
0.379432 0.379432 0.379432
0.389037 0.389037 0.389037
0.398825 0.398825 0.398825
0.408788 0.408788 0.408788
0.418918 0.418918 0.418918
0.429206 0.429206 0.429206
0.439641 0.439641 0.439641
0.450215 0.450215 0.450215
0.460917 0.460917 0.460917
0.471735 0.471735 0.471735
0.482659 0.482659 0.482659
0.493677 0.493677 0.493677
0.504775 0.504775 0.504775
0.515942 0.515942 0.515942
0.527165 0.527165 0.527165
0.379083 0.379083 0.379083
0.388681 0.388681 0.388681
0.398462 0.398462 0.398462
0.408419 0.408419 0.408419
0.418543 0.418543 0.418543
0.428824 0.428824 0.428824
0.439255 0.439255 0.439255
0.449824 0.449824 0.449824
0.460521 0.460521 0.460521
0.471335 0.471335 0.471335
0.482256 0.482256 0.482256
0.493270 0.493270 0.493270
0.504366 0.504366 0.504366
0.515530 0.515530 0.515530
0.526751 0.526751 0.526751
0.538014 0.538014 0.538014
0.549307 0.549307 0.549307
0.398099 0.398099 0.398099
0.408050 0.408050 0.408050
0.418167 0.418167 0.418167
0.428443 0.428443 0.428443
0.438868 0.438868 0.438868
0.449433 0.449433 0.449433
0.460125 0.460125 0.460125
0.470936 0.470936 0.470936
0.481852 0.481852 0.481852
0.492863 0.492863 0.492863
0.503956 0.503956 0.503956
0.515119 0.515119 0.515119
0.526337 0.526337 0.526337
0.537599 0.537599 0.537599
0.548891 0.548891 0.548891
0.560199 0.560199 0.560199
0.571509 0.571509 0.571509
0.417792 0.417792 0.417792
0.428063 0.428063 0.428063
0.438482 0.438482 0.438482
0.449042 0.449042 0.449042
0.459730 0.459730 0.459730
0.470536 0.470536 0.470536
0.481449 0.481449 0.481449
0.492457 0.492457 0.492457
0.503547 0.503547 0.503547
0.514707 0.514707 0.514707
0.525924 0.525924 0.525924
0.537184 0.537184 0.537184
0.548475 0.548475 0.548475
0.559783 0.559783 0.559783
0.571093 0.571093 0.571093
0.582392 0.582392 0.582392
0.593667 0.593667 0.593667
0.438097 0.438097 0.438097
0.448651 0.448651 0.448651
0.459334 0.459334 0.459334
0.470137 0.470137 0.470137
0.481046 0.481046 0.481046
0.492050 0.492050 0.492050
0.503137 0.503137 0.503137
0.514295 0.514295 0.514295
0.525510 0.525510 0.525510
0.536770 0.536770 0.536770
0.548059 0.548059 0.548059
0.559367 0.559367 0.559367
0.570677 0.570677 0.570677
0.581977 0.581977 0.581977
0.593252 0.593252 0.593252
0.604490 0.604490 0.604490
0.615676 0.615676 0.615676
0.458939 0.458939 0.458939
0.469737 0.469737 0.469737
0.480643 0.480643 0.480643
0.491644 0.491644 0.491644
0.502728 0.502728 0.502728
0.513884 0.513884 0.513884
0.525097 0.525097 0.525097
0.536355 0.536355 0.536355
0.547644 0.547644 0.547644
0.558950 0.558950 0.558950
0.570261 0.570261 0.570261
0.581561 0.581561 0.581561
0.592838 0.592838 0.592838
0.604077 0.604077 0.604077
0.615265 0.615265 0.615265
0.626389 0.626389 0.626389
0.637435 0.637435 0.637435
0.480240 0.480240 0.480240
0.491237 0.491237 0.491237
0.502319 0.502319 0.502319
0.513472 0.513472 0.513472
0.524683 0.524683 0.524683
0.535940 0.535940 0.535940
0.547228 0.547228 0.547228
0.558534 0.558534 0.558534
0.569845 0.569845 0.569845
0.581146 0.581146 0.581146
0.592424 0.592424 0.592424
0.603665 0.603665 0.603665
0.614855 0.614855 0.614855
0.625981 0.625981 0.625981
0.637030 0.637030 0.637030
0.647989 0.647989 0.647989
0.658845 0.658845 0.658845
0.501910 0.501910 0.501910
0.513061 0.513061 0.513061
0.524270 0.524270 0.524270
0.535525 0.535525 0.535525
0.546812 0.546812 0.546812
0.558118 0.558118 0.558118
0.569429 0.569429 0.569429
0.580731 0.580731 0.580731
0.592010 0.592010 0.592010
0.603252 0.603252 0.603252
0.614444 0.614444 0.614444
0.625573 0.625573 0.625573
0.636625 0.636625 0.636625
0.647587 0.647587 0.647587
0.658448 0.658448 0.658448
0.669194 0.669194 0.669194
0.679815 0.679815 0.679815
0.523857 0.523857 0.523857
0.535110 0.535110 0.535110
0.546397 0.546397 0.546397
0.557702 0.557702 0.557702
0.569013 0.569013 0.569013
0.580315 0.580315 0.580315
0.591595 0.591595 0.591595
0.602839 0.602839 0.602839
0.614034 0.614034 0.614034
0.625165 0.625165 0.625165
0.636220 0.636220 0.636220
0.647186 0.647186 0.647186
0.658050 0.658050 0.658050
0.668801 0.668801 0.668801
0.679426 0.679426 0.679426
0.689915 0.689915 0.689915
0.700257 0.700257 0.700257
0.248461 0.248461 0.248461
0.253869 0.253869 0.253869
0.259601 0.259601 0.259601
0.265634 0.265634 0.265634
0.271951 0.271951 0.271951
0.278540 0.278540 0.278540
0.285392 0.285392 0.285392
0.292499 0.292499 0.292499
0.299854 0.299854 0.299854
0.307453 0.307453 0.307453
0.315289 0.315289 0.315289
0.323357 0.323357 0.323357
0.331653 0.331653 0.331653
0.340171 0.340171 0.340171
0.348906 0.348906 0.348906
0.357853 0.357853 0.357853
0.367005 0.367005 0.367005
0.259385 0.259385 0.259385
0.265407 0.265407 0.265407
0.271714 0.271714 0.271714
