assets/luts/bw_pure.cube
TITLE "Pure This"
LUT_3D_SIZE 9
0.000000 0.000000 0.000000
0.061192 0.061192 0.061192
0.110298 0.110298 0.110298
0.155685 0.155685 0.155685
0.198813 0.198813 0.198813
0.240336 0.240336 0.240336
0.280623 0.280623 0.280623
0.319910 0.319910 0.319910
0.358361 0.358361 0.358361
0.108572 0.108572 0.108572
0.154061 0.154061 0.154061
0.197258 0.197258 0.197258
0.238832 0.238832 0.238832
0.279159 0.279159 0.279159
0.318480 0.318480 0.318480
0.356960 0.356960 0.356960
0.394719 0.394719 0.394719
0.431851 0.431851 0.431851
0.195700 0.195700 0.195700
0.237326 0.237326 0.237326
0.277695 0.277695 0.277695
0.317049 0.317049 0.317049
0.355557 0.355557 0.355557
0.393342 0.393342 0.393342
0.430495 0.430495 0.430495
0.467090 0.467090 0.467090
0.503185 0.503185 0.503185
0.276229 0.276229 0.276229
0.315617 0.315617 0.315617
0.354154 0.354154 0.354154
0.391963 0.391963 0.391963
0.429138 0.429138 0.429138
0.465753 0.465753 0.465753
0.501865 0.501865 0.501865
0.537525 0.537525 0.537525
0.572771 0.572771 0.572771
0.352750 0.352750 0.352750
0.390584 0.390584 0.390584
0.427781 0.427781 0.427781
0.464415 0.464415 0.464415
0.500545 0.500545 0.500545
0.536220 0.536220 0.536220
0.571481 0.571481 0.571481
0.606362 0.606362 0.606362
0.640892 0.640892 0.640892
0.426423 0.426423 0.426423
0.463076 0.463076 0.463076
0.499224 0.499224 0.499224
0.534916 0.534916 0.534916
0.570191 0.570191 0.570191
0.605085 0.605085 0.605085
0.639628 0.639628 0.639628
0.673844 0.673844 0.673844
0.707756 0.707756 0.707756
0.497903 0.497903 0.497903
0.533610 0.533610 0.533610
0.568900 0.568900 0.568900
0.603808 0.603808 0.603808
0.638363 0.638363 0.638363
0.672591 0.672591 0.672591
0.706514 0.706514 0.706514
0.740152 0.740152 0.740152
0.773522 0.773522 0.773522
0.567609 0.567609 0.567609
0.602530 0.602530 0.602530
0.637098 0.637098 0.637098
0.671337 0.671337 0.671337
0.705271 0.705271 0.705271
0.738919 0.738919 0.738919
0.772299 0.772299 0.772299
0.805426 0.805426 0.805426
0.838314 0.838314 0.838314
0.635832 0.635832 0.635832
0.670083 0.670083 0.670083
0.704028 0.704028 0.704028
0.737686 0.737686 0.737686
0.771075 0.771075 0.771075
0.804211 0.804211 0.804211
0.837108 0.837108 0.837108
0.869778 0.869778 0.869778
0.902233 0.902233 0.902233
0.026961 0.026961 0.026961
0.080525 0.080525 0.080525
0.127933 0.127933 0.127933
0.172350 0.172350 0.172350
0.214810 0.214810 0.214810
0.255827 0.255827 0.255827
0.295709 0.295709 0.295709
0.334661 0.334661 0.334661
0.372827 0.372827 0.372827
0.126251 0.126251 0.126251
0.170755 0.170755 0.170755
0.213276 0.213276 0.213276
0.254339 0.254339 0.254339
0.294260 0.294260 0.294260
0.333243 0.333243 0.333243
0.371436 0.371436 0.371436
0.408946 0.408946 0.408946
0.445858 0.445858 0.445858
0.211740 0.211740 0.211740
0.252851 0.252851 0.252851
0.292809 0.292809 0.292809
0.331824 0.331824 0.331824
0.370043 0.370043 0.370043
0.407577 0.407577 0.407577
0.444510 0.444510 0.444510
0.480908 0.480908 0.480908
0.516826 0.516826 0.516826
0.291356 0.291356 0.291356
0.330403 0.330403 0.330403
0.368650 0.368650 0.368650
0.406207 0.406207 0.406207
0.443161 0.443161 0.443161
0.479578 0.479578 0.479578
0.515512 0.515512 0.515512
0.551010 0.551010 0.551010
0.586108 0.586108 0.586108
0.367256 0.367256 0.367256
0.404837 0.404837 0.404837
0.441811 0.441811 0.441811
0.478247 0.478247 0.478247
0.514198 0.514198 0.514198
0.549711 0.549711 0.549711
0.584824 0.584824 0.584824
0.619568 0.619568 0.619568
0.653971 0.653971 0.653971
0.440461 0.440461 0.440461
0.476915 0.476915 0.476915
0.512884 0.512884 0.512884
0.548412 0.548412 0.548412
0.583539 0.583539 0.583539
0.618295 0.618295 0.618295
0.652711 0.652711 0.652711
0.686809 0.686809 0.686809
0.720610 0.720610 0.720610
0.511569 0.511569 0.511569
0.547112 0.547112 0.547112
0.582253 0.582253 0.582253
0.617023 0.617023 0.617023
0.651450 0.651450 0.651450
0.685560 0.685560 0.685560
0.719372 0.719372 0.719372
0.752906 0.752906 0.752906
0.786178 0.786178 0.786178
0.580967 0.580967 0.580967
0.615750 0.615750 0.615750
0.650190 0.650190 0.650190
0.684310 0.684310 0.684310
0.718133 0.718133 0.718133
0.751677 0.751677 0.751677
0.784958 0.784958 0.784958
0.817992 0.817992 0.817992
0.850793 0.850793 0.850793
0.648928 0.648928 0.648928
0.683060 0.683060 0.683060
0.716894 0.716894 0.716894
0.750447 0.750447 0.750447
0.783738 0.783738 0.783738
0.816781 0.816781 0.816781
0.849590 0.849590 0.849590
0.882177 0.882177 0.882177
0.914553 0.914553 0.914553
0.048598 0.048598 0.048598
0.099063 0.099063 0.099063
0.145146 0.145146 0.145146
0.188735 0.188735 0.188735
0.230599 0.230599 0.230599
0.271154 0.271154 0.271154
0.310662 0.310662 0.310662
0.349299 0.349299 0.349299
0.387195 0.387195 0.387195
0.143502 0.143502 0.143502
0.187166 0.187166 0.187166
0.229084 0.229084 0.229084
0.269682 0.269682 0.269682
0.309224 0.309224 0.309224
0.347891 0.347891 0.347891
0.385813 0.385813 0.385813
0.423086 0.423086 0.423086
0.459788 0.459788 0.459788
0.227567 0.227567 0.227567
0.268208 0.268208 0.268208
0.307786 0.307786 0.307786
0.346483 0.346483 0.346483
0.384430 0.384430 0.384430
0.421725 0.421725 0.421725
0.458447 0.458447 0.458447
0.494656 0.494656 0.494656
0.530403 0.530403 0.530403
0.306347 0.306347 0.306347
0.345073 0.345073 0.345073
0.383046 0.383046 0.383046
0.420364 0.420364 0.420364
0.457106 0.457106 0.457106
0.493333 0.493333 0.493333
0.529096 0.529096 0.529096
0.564437 0.564437 0.564437
0.599392 0.599392 0.599392
0.381661 0.381661 0.381661
0.419002 0.419002 0.419002
0.455763 0.455763 0.455763
0.492008 0.492008 0.492008
0.527788 0.527788 0.527788
0.563144 0.563144 0.563144
0.598112 0.598112 0.598112
0.632723 0.632723 0.632723
0.667003 0.667003 0.667003
0.454420 0.454420 0.454420
0.490684 0.490684 0.490684
0.526479 0.526479 0.526479
0.561850 0.561850 0.561850
0.596832 0.596832 0.596832
0.631456 0.631456 0.631456
0.665748 0.665748 0.665748
0.699730 0.699730 0.699730
0.733424 0.733424 0.733424
0.525170 0.525170 0.525170
0.560556 0.560556 0.560556
0.595552 0.595552 0.595552
0.630188 0.630188 0.630188
0.664492 0.664492 0.664492
0.698485 0.698485 0.698485
0.732189 0.732189 0.732189
0.765621 0.765621 0.765621
0.798798 0.798798 0.798798
0.594271 0.594271 0.594271
0.628920 0.628920 0.628920
0.663235 0.663235 0.663235
0.697240 0.697240 0.697240
0.730954 0.730954 0.730954
0.764396 0.764396 0.764396
0.797582 0.797582 0.797582
0.830525 0.830525 0.830525
0.863240 0.863240 0.863240
0.661978 0.661978 0.661978
0.695994 0.695994 0.695994
0.729719 0.729719 0.729719
0.763170 0.763170 0.763170
0.796365 0.796365 0.796365
0.829317 0.829317 0.829317
0.862040 0.862040 0.862040
0.894545 0.894545 0.894545
0.926843 0.926843 0.926843
0.068596 0.068596 0.068596
0.117005 0.117005 0.117005
0.162006 0.162006 0.162006
0.204873 0.204873 0.204873
0.246199 0.246199 0.246199
0.286330 0.286330 0.286330
0.325488 0.325488 0.325488
0.363829 0.363829 0.363829
0.401469 0.401469 0.401469
0.160394 0.160394 0.160394
0.203326 0.203326 0.203326
0.244702 0.244702 0.244702
0.284872 0.284872 0.284872
0.324062 0.324062 0.324062
0.362432 0.362432 0.362432
0.400096 0.400096 0.400096
0.437143 0.437143 0.437143
0.473644 0.473644 0.473644
0.243202 0.243202 0.243202
0.283412 0.283412 0.283412
0.322636 0.322636 0.322636
0.361033 0.361033 0.361033
0.398722 0.398722 0.398722
0.435790 0.435790 0.435790
0.472310 0.472310 0.472310
0.508338 0.508338 0.508338
0.543920 0.543920 0.543920
0.321208 0.321208 0.321208
0.359634 0.359634 0.359634
0.397347 0.397347 0.397347
0.434437 0.434437 0.434437
0.470976 0.470976 0.470976
0.507020 0.507020 0.507020
0.542618 0.542618 0.542618
0.577808 0.577808 0.577808
0.612624 0.612624 0.612624
0.395971 0.395971 0.395971
0.433082 0.433082 0.433082
0.469641 0.469641 0.469641
0.505703 0.505703 0.505703
0.541316 0.541316 0.541316
0.576520 0.576520 0.576520
0.611349 0.611349 0.611349
0.645831 0.645831 0.645831
0.679991 0.679991 0.679991
0.468305 0.468305 0.468305
0.504384 0.504384 0.504384
0.540013 0.540013 0.540013
0.575232 0.575232 0.575232
0.610074 0.610074 0.610074
0.644568 0.644568 0.644568
0.678739 0.678739 0.678739
0.712610 0.712610 0.712610
0.746198 0.746198 0.746198
0.538710 0.538710 0.538710
0.573943 0.573943 0.573943
0.608799 0.608799 0.608799
0.643305 0.643305 0.643305
0.677488 0.677488 0.677488
0.711369 0.711369 0.711369
0.744967 0.744967 0.744967
0.778300 0.778300 0.778300
0.811383 0.811383 0.811383
0.607523 0.607523 0.607523
0.642041 0.642041 0.642041
0.676236 0.676236 0.676236
0.710127 0.710127 0.710127
0.743736 0.743736 0.743736
0.777078 0.777078 0.777078
0.810170 0.810170 0.810170
0.843025 0.843025 0.843025
0.875655 0.875655 0.875655
0.674983 0.674983 0.674983
0.708886 0.708886 0.708886
0.742504 0.742504 0.742504
0.775856 0.775856 0.775856
0.808957 0.808957 0.808957
0.841820 0.841820 0.841820
0.874458 0.874458 0.874458
0.906883 0.906883 0.906883
0.939105 0.939105 0.939105
0.087598 0.087598 0.087598
0.134471 0.134471 0.134471
0.178562 0.178562 0.178562
0.220789 0.220789 0.220789
0.261627 0.261627 0.261627
0.301365 0.301365 0.301365
0.340196 0.340196 0.340196
0.378258 0.378258 0.378258
0.415655 0.415655 0.415655
0.176976 0.176976 0.176976
0.219262 0.219262 0.219262
0.260145 0.260145 0.260145
0.299920 0.299920 0.299920
0.338781 0.338781 0.338781
0.376870 0.376870 0.376870
0.414290 0.414290 0.414290
0.451121 0.451121 0.451121
0.487429 0.487429 0.487429
0.258662 0.258662 0.258662
0.298474 0.298474 0.298474
0.337366 0.337366 0.337366
0.375481 0.375481 0.375481
0.412924 0.412924 0.412924
0.449776 0.449776 0.449776
0.486102 0.486102 0.486102
0.521954 0.521954 0.521954
0.557377 0.557377 0.557377
0.335950 0.335950 0.335950
0.374091 0.374091 0.374091
0.411557 0.411557 0.411557
0.448430 0.448430 0.448430
0.484774 0.484774 0.484774
0.520643 0.520643 0.520643
0.556081 0.556081 0.556081
0.591125 0.591125 0.591125
0.625805 0.625805 0.625805
0.410190 0.410190 0.410190
0.447083 0.447083 0.447083
0.483446 0.483446 0.483446
0.519332 0.519332 0.519332
0.554785 0.554785 0.554785
0.589842 0.589842 0.589842
0.624536 0.624536 0.624536
0.658892 0.658892 0.658892
0.692935 0.692935 0.692935
0.482117 0.482117 0.482117
0.518019 0.518019 0.518019
0.553488 0.553488 0.553488
0.588559 0.588559 0.588559
0.623265 0.623265 0.623265
0.657634 0.657634 0.657634
0.691688 0.691688 0.691688
0.725448 0.725448 0.725448
0.758934 0.758934 0.758934
0.552190 0.552190 0.552190
0.587275 0.587275 0.587275
0.621995 0.621995 0.621995
0.656375 0.656375 0.656375
0.690440 0.690440 0.690440
0.724211 0.724211 0.724211
0.757706 0.757706 0.757706
0.790942 0.790942 0.790942
0.823933 0.823933 0.823933
0.620723 0.620723 0.620723
0.655116 0.655116 0.655116
0.689192 0.689192 0.689192
0.722974 0.722974 0.722974
0.756479 0.756479 0.756479
0.789724 0.789724 0.789724
0.822724 0.822724 0.822724
0.855492 0.855492 0.855492
0.888039 0.888039 0.888039
0.687944 0.687944 0.687944
0.721736 0.721736 0.721736
0.755251 0.755251 0.755251
0.788505 0.788505 0.788505
0.821514 0.821514 0.821514
0.854290 0.854290 0.854290
0.886846 0.886846 0.886846
0.919192 0.919192 0.919192
0.951338 0.951338 0.951338
0.105893 0.105893 0.105893
0.151545 0.151545 0.151545
0.194850 0.194850 0.194850
0.236504 0.236504 0.236504
0.276895 0.276895 0.276895
0.316268 0.316268 0.316268
0.354792 0.354792 0.354792
0.392590 0.392590 0.392590
0.429755 0.429755 0.429755
0.193289 0.193289 0.193289
0.234996 0.234996 0.234996
0.275429 0.275429 0.275429
0.314836 0.314836 0.314836
0.353388 0.353388 0.353388
0.391211 0.391211 0.391211
0.428398 0.428398 0.428398
0.465023 0.465023 0.465023
0.501145 0.501145 0.501145
0.273961 0.273961 0.273961
0.313402 0.313402 0.313402
0.351984 0.351984 0.351984
0.389831 0.389831 0.389831
0.427040 0.427040 0.427040
0.463685 0.463685 0.463685
0.499825 0.499825 0.499825
0.535509 0.535509 0.535509
0.570778 0.570778 0.570778
0.350578 0.350578 0.350578
0.388451 0.388451 0.388451
0.425682 0.425682 0.425682
0.462346 0.462346 0.462346
0.498503 0.498503 0.498503
0.534204 0.534204 0.534204
0.569487 0.569487 0.569487
0.604389 0.604389 0.604389
0.638938 0.638938 0.638938
0.424322 0.424322 0.424322
0.461006 0.461006 0.461006
0.497182 0.497182 0.497182
0.532898 0.532898 0.532898
0.568196 0.568196 0.568196
0.603111 0.603111 0.603111
0.637673 0.637673 0.637673
0.671907 0.671907 0.671907
0.705836 0.705836 0.705836
0.495859 0.495859 0.495859
0.531591 0.531591 0.531591
0.566904 0.566904 0.566904
0.601833 0.601833 0.601833
0.636407 0.636407 0.636407
0.670653 0.670653 0.670653
0.704593 0.704593 0.704593
0.738247 0.738247 0.738247
0.771632 0.771632 0.771632
0.565612 0.565612 0.565612
0.600555 0.600555 0.600555
0.635141 0.635141 0.635141
0.669399 0.669399 0.669399
0.703350 0.703350 0.703350
0.737013 0.737013 0.737013
0.770408 0.770408 0.770408
0.803549 0.803549 0.803549
0.836450 0.836450 0.836450
0.633875 0.633875 0.633875
0.668144 0.668144 0.668144
0.702106 0.702106 0.702106
0.735780 0.735780 0.735780
0.769184 0.769184 0.769184
0.802334 0.802334 0.802334
0.835244 0.835244 0.835244
0.867926 0.867926 0.867926
0.900393 0.900393 0.900393
0.700862 0.700862 0.700862
0.734546 0.734546 0.734546
0.767960 0.767960 0.767960
0.801119 0.801119 0.801119
0.834037 0.834037 0.834037
0.866728 0.866728 0.866728
0.899203 0.899203 0.899203
0.931471 0.931471 0.931471
0.963544 0.963544 0.963544
0.123643 0.123643 0.123643
0.168284 0.168284 0.168284
0.210901 0.210901 0.210901
0.252038 0.252038 0.252038
0.292017 0.292017 0.292017
0.331049 0.331049 0.331049
0.369283 0.369283 0.369283
0.406830 0.406830 0.406830
0.443774 0.443774 0.443774
0.209362 0.209362 0.209362
0.250546 0.250546 0.250546
0.290564 0.290564 0.290564
0.329628 0.329628 0.329628
0.367889 0.367889 0.367889
0.405460 0.405460 0.405460
0.442425 0.442425 0.442425
0.478852 0.478852 0.478852
0.514796 0.514796 0.514796
0.289110 0.289110 0.289110
0.328206 0.328206 0.328206
0.366495 0.366495 0.366495
0.404089 0.404089 0.404089
0.441075 0.441075 0.441075
0.477521 0.477521 0.477521
0.513481 0.513481 0.513481
0.549003 0.549003 0.549003
0.584123 0.584123 0.584123
0.365099 0.365099 0.365099
0.402717 0.402717 0.402717
0.439724 0.439724 0.439724
0.476189 0.476189 0.476189
0.512166 0.512166 0.512166
0.547703 0.547703 0.547703
0.582837 0.582837 0.582837
0.617601 0.617601 0.617601
0.652023 0.652023 0.652023
0.438373 0.438373 0.438373
0.474856 0.474856 0.474856
0.510851 0.510851 0.510851
0.546403 0.546403 0.546403
0.581552 0.581552 0.581552
0.616329 0.616329 0.616329
0.650763 0.650763 0.650763
0.684878 0.684878 0.684878
0.718696 0.718696 0.718696
0.509535 0.509535 0.509535
0.545103 0.545103 0.545103
0.580265 0.580265 0.580265
0.615056 0.615056 0.615056
0.649502 0.649502 0.649502
0.683628 0.683628 0.683628
0.717457 0.717457 0.717457
0.751006 0.751006 0.751006
0.784293 0.784293 0.784293
0.578978 0.578978 0.578978
0.613782 0.613782 0.613782
0.648240 0.648240 0.648240
0.682378 0.682378 0.682378
0.716217 0.716217 0.716217
0.749777 0.749777 0.749777
0.783073 0.783073 0.783073
0.816121 0.816121 0.816121
0.848934 0.848934 0.848934
0.646978 0.646978 0.646978
0.681128 0.681128 0.681128
0.714978 0.714978 0.714978
0.748547 0.748547 0.748547
0.781852 0.781852 0.781852
0.814909 0.814909 0.814909
0.847731 0.847731 0.847731
0.880330 0.880330 0.880330
0.912717 0.912717 0.912717
0.713737 0.713737 0.713737
0.747317 0.747317 0.747317
0.780631 0.780631 0.780631
0.813697 0.813697 0.813697
0.846527 0.846527 0.846527
0.879134 0.879134 0.879134
0.911529 0.911529 0.911529
0.943722 0.943722 0.943722
0.975723 0.975723 0.975723
0.140954 0.140954 0.140954
0.184735 0.184735 0.184735
0.226739 0.226739 0.226739
0.267404 0.267404 0.267404
0.307001 0.307001 0.307001
0.345714 0.345714 0.345714
0.383675 0.383675 0.383675
0.420983 0.420983 0.420983
0.457715 0.457715 0.457715
0.225219 0.225219 0.225219
0.265928 0.265928 0.265928
0.305561 0.305561 0.305561
0.344304 0.344304 0.344304
0.382290 0.382290 0.382290
0.419621 0.419621 0.419621
0.456374 0.456374 0.456374
0.492610 0.492610 0.492610
0.528383 0.528383 0.528383
0.304120 0.304120 0.304120
0.342893 0.342893 0.342893
0.380905 0.380905 0.380905
0.418258 0.418258 0.418258
0.455031 0.455031 0.455031
0.491286 0.491286 0.491286
0.527074 0.527074 0.527074
0.562438 0.562438 0.562438
0.597414 0.597414 0.597414
0.379519 0.379519 0.379519
0.416895 0.416895 0.416895
0.453688 0.453688 0.453688
0.489961 0.489961 0.489961
0.525765 0.525765 0.525765
0.561144 0.561144 0.561144
0.596134 0.596134 0.596134
0.630765 0.630765 0.630765
0.665063 0.665063 0.665063
0.452344 0.452344 0.452344
0.488635 0.488635 0.488635
0.524456 0.524456 0.524456
0.559850 0.559850 0.559850
0.594853 0.594853 0.594853
0.629497 0.629497 0.629497
0.663806 0.663806 0.663806
0.697806 0.697806 0.697806
0.731515 0.731515 0.731515
0.523146 0.523146 0.523146
0.558555 0.558555 0.558555
0.593572 0.593572 0.593572
0.628228 0.628228 0.628228
0.662550 0.662550 0.662550
0.696560 0.696560 0.696560
0.730280 0.730280 0.730280
0.763727 0.763727 0.763727
0.796918 0.796918 0.796918
0.592290 0.592290 0.592290
0.626959 0.626959 0.626959
0.661293 0.661293 0.661293
0.695314 0.695314 0.695314
0.729045 0.729045 0.729045
0.762502 0.762502 0.762502
0.795701 0.795701 0.795701
0.828658 0.828658 0.828658
0.861386 0.861386 0.861386
0.660035 0.660035 0.660035
0.694068 0.694068 0.694068
0.727809 0.727809 0.727809
0.761275 0.761275 0.761275
0.794484 0.794484 0.794484
0.827450 0.827450 0.827450
0.860186 0.860186 0.860186
0.892703 0.892703 0.892703
0.925012 0.925012 0.925012
0.726572 0.726572 0.726572
0.760049 0.760049 0.760049
0.793267 0.793267 0.793267
0.826242 0.826242 0.826242
0.858985 0.858985 0.858985
0.891510 0.891510 0.891510
0.923827 0.923827 0.923827
0.955945 0.955945 0.955945
0.987874 0.987874 0.987874
0.157895 0.157895 0.157895
0.200931 0.200931 0.200931
0.242384 0.242384 0.242384
0.282616 0.282616 0.282616
0.321857 0.321857 0.321857
0.360270 0.360270 0.360270
0.397972 0.397972 0.397972
0.435052 0.435052 0.435052
0.471582 0.471582 0.471582
0.240882 0.240882 0.240882
0.281154 0.281154 0.281154
0.320429 0.320429 0.320429
0.358870 0.358870 0.358870
0.396596 0.396596 0.396596
0.433698 0.433698 0.433698
0.470247 0.470247 0.470247
0.506302 0.506302 0.506302
0.541908 0.541908 0.541908
0.319000 0.319000 0.319000
0.357469 0.357469 0.357469
0.395220 0.395220 0.395220
0.432343 0.432343 0.432343
0.468912 0.468912 0.468912
0.504983 0.504983 0.504983
0.540606 0.540606 0.540606
0.575818 0.575818 0.575818
0.610654 0.610654 0.610654
0.393843 0.393843 0.393843
0.430988 0.430988 0.430988
0.467576 0.467576 0.467576
0.503665 0.503665 0.503665
0.539302 0.539302 0.539302
0.574529 0.574529 0.574529
0.609378 0.609378 0.609378
0.643879 0.643879 0.643879
0.678057 0.678057 0.678057
0.466239 0.466239 0.466239
0.502345 0.502345 0.502345
0.537999 0.537999 0.537999
0.573240 0.573240 0.573240
0.608103 0.608103 0.608103
0.642616 0.642616 0.642616
0.676805 0.676805 0.676805
0.710692 0.710692 0.710692
0.744295 0.744295 0.744295
0.536695 0.536695 0.536695
0.571950 0.571950 0.571950
0.606826 0.606826 0.606826
0.641352 0.641352 0.641352
0.675553 0.675553 0.675553
0.709450 0.709450 0.709450
0.743064 0.743064 0.743064
0.776412 0.776412 0.776412
0.809508 0.809508 0.809508
0.605550 0.605550 0.605550
0.640088 0.640088 0.640088
0.674300 0.674300 0.674300
0.708208 0.708208 0.708208
0.741832 0.741832 0.741832
0.775189 0.775189 0.775189
0.808295 0.808295 0.808295
0.841163 0.841163 0.841163
0.873806 0.873806 0.873806
0.673047 0.673047 0.673047
0.706966 0.706966 0.706966
0.740600 0.740600 0.740600
0.773967 0.773967 0.773967
0.807081 0.807081 0.807081
0.839958 0.839958 0.839958
0.872609 0.872609 0.872609
0.905045 0.905045 0.905045
0.937278 0.937278 0.937278
0.739367 0.739367 0.739367
0.772744 0.772744 0.772744
0.805867 0.805867 0.805867
0.838752 0.838752 0.838752
0.871411 0.871411 0.871411
0.903856 0.903856 0.903856
0.936096 0.936096 0.936096
0.968141 0.968141 0.968141
1.000000 1.000000 1.000000
