assets/luts/bw_pure.cube
TITLE "Pure This"
LUT_3D_SIZE 17
0.000000 0.000000 0.000000
0.033948 0.033948 0.033948
0.061192 0.061192 0.061192
0.086372 0.086372 0.086372
0.110298 0.110298 0.110298
0.133335 0.133335 0.133335
0.155685 0.155685 0.155685
0.177481 0.177481 0.177481
0.198813 0.198813 0.198813
0.219748 0.219748 0.219748
0.240336 0.240336 0.240336
0.260617 0.260617 0.260617
0.280623 0.280623 0.280623
0.300380 0.300380 0.300380
0.319910 0.319910 0.319910
0.339231 0.339231 0.339231
0.358361 0.358361 0.358361
0.060234 0.060234 0.060234
0.085471 0.085471 0.085471
0.109436 0.109436 0.109436
0.132500 0.132500 0.132500
0.154873 0.154873 0.154873
0.176688 0.176688 0.176688
0.198036 0.198036 0.198036
0.218984 0.218984 0.218984
0.239584 0.239584 0.239584
0.259876 0.259876 0.259876
0.279891 0.279891 0.279891
0.299657 0.299657 0.299657
0.319195 0.319195 0.319195
0.338524 0.338524 0.338524
0.357660 0.357660 0.357660
0.376617 0.376617 0.376617
0.395407 0.395407 0.395407
0.108572 0.108572 0.108572
0.131665 0.131665 0.131665
0.154061 0.154061 0.154061
0.175894 0.175894 0.175894
0.197258 0.197258 0.197258
0.218220 0.218220 0.218220
0.238832 0.238832 0.238832
0.259134 0.259134 0.259134
0.279159 0.279159 0.279159
0.298934 0.298934 0.298934
0.318480 0.318480 0.318480
0.337817 0.337817 0.337817
0.356960 0.356960 0.356960
0.375923 0.375923 0.375923
0.394719 0.394719 0.394719
0.413358 0.413358 0.413358
0.431851 0.431851 0.431851
0.153248 0.153248 0.153248
0.175100 0.175100 0.175100
0.196479 0.196479 0.196479
0.217455 0.217455 0.217455
0.238079 0.238079 0.238079
0.258392 0.258392 0.258392
0.278427 0.278427 0.278427
0.298211 0.298211 0.298211
0.317765 0.317765 0.317765
0.337109 0.337109 0.337109
0.356259 0.356259 0.356259
0.375228 0.375228 0.375228
0.394030 0.394030 0.394030
0.412675 0.412675 0.412675
0.431173 0.431173 0.431173
0.449531 0.449531 0.449531
0.467758 0.467758 0.467758
0.195700 0.195700 0.195700
0.216690 0.216690 0.216690
0.237326 0.237326 0.237326
0.257650 0.257650 0.257650
0.277695 0.277695 0.277695
0.297487 0.297487 0.297487
0.317049 0.317049 0.317049
0.336401 0.336401 0.336401
0.355557 0.355557 0.355557
0.374534 0.374534 0.374534
0.393342 0.393342 0.393342
0.411992 0.411992 0.411992
0.430495 0.430495 0.430495
0.448858 0.448858 0.448858
0.467090 0.467090 0.467090
0.485197 0.485197 0.485197
0.503185 0.503185 0.503185
0.236573 0.236573 0.236573
0.256908 0.256908 0.256908
0.276962 0.276962 0.276962
0.296763 0.296763 0.296763
0.316333 0.316333 0.316333
0.335692 0.335692 0.335692
0.354856 0.354856 0.354856
0.373838 0.373838 0.373838
0.392652 0.392652 0.392652
0.411309 0.411309 0.411309
0.429817 0.429817 0.429817
0.448185 0.448185 0.448185
0.466421 0.466421 0.466421
0.484533 0.484533 0.484533
0.502525 0.502525 0.502525
0.520405 0.520405 0.520405
0.538177 0.538177 0.538177
0.276229 0.276229 0.276229
0.296039 0.296039 0.296039
0.315617 0.315617 0.315617
0.334984 0.334984 0.334984
0.354154 0.354154 0.354154
0.373143 0.373143 0.373143
0.391963 0.391963 0.391963
0.410625 0.410625 0.410625
0.429138 0.429138 0.429138
0.447511 0.447511 0.447511
0.465753 0.465753 0.465753
0.483868 0.483868 0.483868
0.501865 0.501865 0.501865
0.519749 0.519749 0.519749
0.537525 0.537525 0.537525
0.555197 0.555197 0.555197
0.572771 0.572771 0.572771
0.314901 0.314901 0.314901
0.334275 0.334275 0.334275
0.353452 0.353452 0.353452
0.372448 0.372448 0.372448
0.391274 0.391274 0.391274
0.409941 0.409941 0.409941
0.428460 0.428460 0.428460
0.446838 0.446838 0.446838
0.465084 0.465084 0.465084
0.483204 0.483204 0.483204
0.501205 0.501205 0.501205
0.519093 0.519093 0.519093
0.536873 0.536873 0.536873
0.554549 0.554549 0.554549
0.572126 0.572126 0.572126
0.589609 0.589609 0.589609
0.607001 0.607001 0.607001
0.352750 0.352750 0.352750
0.371752 0.371752 0.371752
0.390584 0.390584 0.390584
0.409257 0.409257 0.409257
0.427781 0.427781 0.427781
0.446164 0.446164 0.446164
0.464415 0.464415 0.464415
0.482540 0.482540 0.482540
0.500545 0.500545 0.500545
0.518437 0.518437 0.518437
0.536220 0.536220 0.536220
0.553900 0.553900 0.553900
0.571481 0.571481 0.571481
0.588967 0.588967 0.588967
0.606362 0.606362 0.606362
0.623669 0.623669 0.623669
0.640892 0.640892 0.640892
0.389894 0.389894 0.389894
0.408573 0.408573 0.408573
0.427102 0.427102 0.427102
0.445490 0.445490 0.445490
0.463746 0.463746 0.463746
0.481875 0.481875 0.481875
0.499885 0.499885 0.499885
0.517781 0.517781 0.517781
0.535568 0.535568 0.535568
0.553252 0.553252 0.553252
0.570836 0.570836 0.570836
0.588326 0.588326 0.588326
0.605724 0.605724 0.605724
0.623034 0.623034 0.623034
0.640260 0.640260 0.640260
0.657405 0.657405 0.657405
0.674471 0.674471 0.674471
0.426423 0.426423 0.426423
0.444816 0.444816 0.444816
0.463076 0.463076 0.463076
0.481210 0.481210 0.481210
0.499224 0.499224 0.499224
0.517124 0.517124 0.517124
0.534916 0.534916 0.534916
0.552603 0.552603 0.552603
0.570191 0.570191 0.570191
0.587684 0.587684 0.587684
0.605085 0.605085 0.605085
0.622399 0.622399 0.622399
0.639628 0.639628 0.639628
0.656775 0.656775 0.656775
0.673844 0.673844 0.673844
0.690837 0.690837 0.690837
0.707756 0.707756 0.707756
0.462407 0.462407 0.462407
0.480545 0.480545 0.480545
0.498563 0.498563 0.498563
0.516468 0.516468 0.516468
0.534263 0.534263 0.534263
0.551954 0.551954 0.551954
0.569546 0.569546 0.569546
0.587042 0.587042 0.587042
0.604447 0.604447 0.604447
0.621764 0.621764 0.621764
0.638996 0.638996 0.638996
0.656146 0.656146 0.656146
0.673218 0.673218 0.673218
0.690213 0.690213 0.690213
0.707135 0.707135 0.707135
0.723986 0.723986 0.723986
0.740768 0.740768 0.740768
0.497903 0.497903 0.497903
0.515811 0.515811 0.515811
0.533610 0.533610 0.533610
0.551305 0.551305 0.551305
0.568900 0.568900 0.568900
0.586400 0.586400 0.586400
0.603808 0.603808 0.603808
0.621128 0.621128 0.621128
0.638363 0.638363 0.638363
0.655516 0.655516 0.655516
0.672591 0.672591 0.672591
0.689589 0.689589 0.689589
0.706514 0.706514 0.706514
0.723367 0.723367 0.723367
0.740152 0.740152 0.740152
0.756869 0.756869 0.756869
0.773522 0.773522 0.773522
0.532957 0.532957 0.532957
0.550656 0.550656 0.550656
0.568255 0.568255 0.568255
0.585758 0.585758 0.585758
0.603169 0.603169 0.603169
0.620492 0.620492 0.620492
0.637730 0.637730 0.637730
0.654887 0.654887 0.654887
0.671964 0.671964 0.671964
0.688965 0.688965 0.688965
0.705893 0.705893 0.705893
0.722749 0.722749 0.722749
0.739536 0.739536 0.739536
0.756255 0.756255 0.756255
0.772910 0.772910 0.772910
0.789502 0.789502 0.789502
0.806033 0.806033 0.806033
0.567609 0.567609 0.567609
0.585116 0.585116 0.585116
0.602530 0.602530 0.602530
0.619857 0.619857 0.619857
0.637098 0.637098 0.637098
0.654257 0.654257 0.654257
0.671337 0.671337 0.671337
0.688341 0.688341 0.688341
0.705271 0.705271 0.705271
0.722130 0.722130 0.722130
0.738919 0.738919 0.738919
0.755642 0.755642 0.755642
0.772299 0.772299 0.772299
0.788893 0.788893 0.788893
0.805426 0.805426 0.805426
0.821899 0.821899 0.821899
0.838314 0.838314 0.838314
0.601891 0.601891 0.601891
0.619221 0.619221 0.619221
0.636465 0.636465 0.636465
0.653627 0.653627 0.653627
0.670710 0.670710 0.670710
0.687717 0.687717 0.687717
0.704650 0.704650 0.704650
0.721511 0.721511 0.721511
0.738303 0.738303 0.738303
0.755027 0.755027 0.755027
0.771687 0.771687 0.771687
0.788284 0.788284 0.788284
0.804819 0.804819 0.804819
0.821294 0.821294 0.821294
0.837711 0.837711 0.837711
0.854072 0.854072 0.854072
0.870377 0.870377 0.870377
0.635832 0.635832 0.635832
0.652997 0.652997 0.652997
0.670083 0.670083 0.670083
0.687092 0.687092 0.687092
0.704028 0.704028 0.704028
0.720892 0.720892 0.720892
0.737686 0.737686 0.737686
0.754413 0.754413 0.754413
0.771075 0.771075 0.771075
0.787674 0.787674 0.787674
0.804211 0.804211 0.804211
0.820689 0.820689 0.820689
0.837108 0.837108 0.837108
0.853471 0.853471 0.853471
0.869778 0.869778 0.869778
0.886032 0.886032 0.886032
0.902233 0.902233 0.902233
0.014958 0.014958 0.014958
0.044674 0.044674 0.044674
0.070975 0.070975 0.070975
0.095617 0.095617 0.095617
0.119173 0.119173 0.119173
0.141929 0.141929 0.141929
0.164055 0.164055 0.164055
0.185665 0.185665 0.185665
0.206839 0.206839 0.206839
0.227636 0.227636 0.227636
0.248103 0.248103 0.248103
0.268275 0.268275 0.268275
0.288183 0.288183 0.288183
0.307852 0.307852 0.307852
0.327300 0.327300 0.327300
0.346547 0.346547 0.346547
0.365607 0.365607 0.365607
0.070042 0.070042 0.070042
0.094732 0.094732 0.094732
0.118322 0.118322 0.118322
0.141104 0.141104 0.141104
0.163251 0.163251 0.163251
0.184878 0.184878 0.184878
0.206067 0.206067 0.206067
0.226877 0.226877 0.226877
0.247355 0.247355 0.247355
0.267538 0.267538 0.267538
0.287455 0.287455 0.287455
0.307132 0.307132 0.307132
0.326588 0.326588 0.326588
0.345842 0.345842 0.345842
0.364909 0.364909 0.364909
0.383801 0.383801 0.383801
0.402530 0.402530 0.402530
0.117470 0.117470 0.117470
0.140278 0.140278 0.140278
0.162446 0.162446 0.162446
0.184091 0.184091 0.184091
0.205294 0.205294 0.205294
0.226118 0.226118 0.226118
0.246607 0.246607 0.246607
0.266800 0.266800 0.266800
0.286727 0.286727 0.286727
0.306412 0.306412 0.306412
0.325876 0.325876 0.325876
0.345137 0.345137 0.345137
0.364210 0.364210 0.364210
0.383109 0.383109 0.383109
0.401844 0.401844 0.401844
0.420426 0.420426 0.420426
0.438864 0.438864 0.438864
0.161640 0.161640 0.161640
0.183303 0.183303 0.183303
0.204521 0.204521 0.204521
0.225358 0.225358 0.225358
0.245859 0.245859 0.245859
0.266062 0.266062 0.266062
0.285998 0.285998 0.285998
0.305692 0.305692 0.305692
0.325164 0.325164 0.325164
0.344432 0.344432 0.344432
0.363512 0.363512 0.363512
0.382416 0.382416 0.382416
0.401157 0.401157 0.401157
0.419745 0.419745 0.419745
0.438188 0.438188 0.438188
0.456496 0.456496 0.456496
0.474674 0.474674 0.474674
0.203748 0.203748 0.203748
0.224597 0.224597 0.224597
0.245110 0.245110 0.245110
0.265324 0.265324 0.265324
0.285269 0.285269 0.285269
0.304971 0.304971 0.304971
0.324451 0.324451 0.324451
0.343727 0.343727 0.343727
0.362813 0.362813 0.362813
0.381724 0.381724 0.381724
0.400470 0.400470 0.400470
0.419064 0.419064 0.419064
0.437512 0.437512 0.437512
0.455824 0.455824 0.455824
0.474008 0.474008 0.474008
0.492069 0.492069 0.492069
0.510013 0.510013 0.510013
0.244361 0.244361 0.244361
0.264585 0.264585 0.264585
0.284540 0.284540 0.284540
0.304251 0.304251 0.304251
0.323738 0.323738 0.323738
0.343021 0.343021 0.343021
0.362114 0.362114 0.362114
0.381031 0.381031 0.381031
0.399784 0.399784 0.399784
0.418382 0.418382 0.418382
0.436836 0.436836 0.436836
0.455153 0.455153 0.455153
0.473341 0.473341 0.473341
0.491406 0.491406 0.491406
0.509355 0.509355 0.509355
0.527193 0.527193 0.527193
0.544925 0.544925 0.544925
0.283810 0.283810 0.283810
0.303530 0.303530 0.303530
0.323025 0.323025 0.323025
0.342315 0.342315 0.342315
0.361415 0.361415 0.361415
0.380338 0.380338 0.380338
0.399096 0.399096 0.399096
0.417701 0.417701 0.417701
0.436159 0.436159 0.436159
0.454481 0.454481 0.454481
0.472674 0.472674 0.472674
0.490744 0.490744 0.490744
0.508697 0.508697 0.508697
0.526539 0.526539 0.526539
0.544275 0.544275 0.544275
0.561909 0.561909 0.561909
0.579446 0.579446 0.579446
0.322312 0.322312 0.322312
0.341609 0.341609 0.341609
0.360715 0.360715 0.360715
0.379645 0.379645 0.379645
0.398409 0.398409 0.398409
0.417019 0.417019 0.417019
0.435483 0.435483 0.435483
0.453810 0.453810 0.453810
0.472007 0.472007 0.472007
0.490081 0.490081 0.490081
0.508038 0.508038 0.508038
0.525884 0.525884 0.525884
0.543624 0.543624 0.543624
0.561262 0.561262 0.561262
0.578803 0.578803 0.578803
0.596250 0.596250 0.596250
0.613608 0.613608 0.613608
0.360016 0.360016 0.360016
0.378951 0.378951 0.378951
0.397722 0.397722 0.397722
0.416337 0.416337 0.416337
0.434806 0.434806 0.434806
0.453138 0.453138 0.453138
0.471340 0.471340 0.471340
0.489418 0.489418 0.489418
0.507380 0.507380 0.507380
0.525230 0.525230 0.525230
0.542973 0.542973 0.542973
0.560615 0.560615 0.560615
0.578159 0.578159 0.578159
0.595610 0.595610 0.595610
0.612971 0.612971 0.612971
0.630246 0.630246 0.630246
0.647437 0.647437 0.647437
0.397034 0.397034 0.397034
0.415655 0.415655 0.415655
0.434129 0.434129 0.434129
0.452466 0.452466 0.452466
0.470672 0.470672 0.470672
0.488755 0.488755 0.488755
0.506721 0.506721 0.506721
0.524575 0.524575 0.524575
0.542322 0.542322 0.542322
0.559968 0.559968 0.559968
0.577516 0.577516 0.577516
0.594970 0.594970 0.594970
0.612334 0.612334 0.612334
0.629612 0.629612 0.629612
0.646806 0.646806 0.646806
0.663921 0.663921 0.663921
0.680957 0.680957 0.680957
0.433452 0.433452 0.433452
0.451794 0.451794 0.451794
0.470005 0.470005 0.470005
0.488092 0.488092 0.488092
0.506062 0.506062 0.506062
0.523920 0.523920 0.523920
0.541671 0.541671 0.541671
0.559320 0.559320 0.559320
0.576872 0.576872 0.576872
0.594329 0.594329 0.594329
0.611697 0.611697 0.611697
0.628978 0.628978 0.628978
0.646175 0.646175 0.646175
0.663292 0.663292 0.663292
0.680332 0.680332 0.680332
0.697296 0.697296 0.697296
0.714188 0.714188 0.714188
0.469337 0.469337 0.469337
0.487429 0.487429 0.487429
0.505403 0.505403 0.505403
0.523265 0.523265 0.523265
0.541020 0.541020 0.541020
0.558673 0.558673 0.558673
0.576228 0.576228 0.576228
0.593689 0.593689 0.593689
0.611059 0.611059 0.611059
0.628343 0.628343 0.628343
0.645544 0.645544 0.645544
0.662664 0.662664 0.662664
0.679706 0.679706 0.679706
0.696674 0.696674 0.696674
0.713568 0.713568 0.713568
0.730393 0.730393 0.730393
0.747149 0.747149 0.747149
0.504744 0.504744 0.504744
0.522610 0.522610 0.522610
0.540369 0.540369 0.540369
0.558025 0.558025 0.558025
0.575583 0.575583 0.575583
0.593048 0.593048 0.593048
0.610422 0.610422 0.610422
0.627709 0.627709 0.627709
0.644913 0.644913 0.644913
0.662036 0.662036 0.662036
0.679081 0.679081 0.679081
0.696051 0.696051 0.696051
0.712948 0.712948 0.712948
0.729775 0.729775 0.729775
0.746533 0.746533 0.746533
0.763226 0.763226 0.763226
0.779854 0.779854 0.779854
0.539717 0.539717 0.539717
0.557377 0.557377 0.557377
0.574939 0.574939 0.574939
0.592407 0.592407 0.592407
0.609784 0.609784 0.609784
0.627075 0.627075 0.627075
0.644281 0.644281 0.644281
0.661407 0.661407 0.661407
0.678455 0.678455 0.678455
0.695428 0.695428 0.695428
0.712328 0.712328 0.712328
0.729157 0.729157 0.729157
0.745918 0.745918 0.745918
0.762613 0.762613 0.762613
0.779244 0.779244 0.779244
0.795812 0.795812 0.795812
0.812320 0.812320 0.812320
0.574295 0.574295 0.574295
0.591766 0.591766 0.591766
0.609147 0.609147 0.609147
0.626440 0.626440 0.626440
0.643650 0.643650 0.643650
0.660778 0.660778 0.660778
0.677829 0.677829 0.677829
0.694805 0.694805 0.694805
0.711707 0.711707 0.711707
0.728539 0.728539 0.728539
0.745303 0.745303 0.745303
0.762000 0.762000 0.762000
0.778633 0.778633 0.778633
0.795204 0.795204 0.795204
0.811713 0.811713 0.811713
0.828164 0.828164 0.828164
0.844557 0.844557 0.844557
0.608509 0.608509 0.608509
0.625805 0.625805 0.625805
0.643018 0.643018 0.643018
0.660150 0.660150 0.660150
0.677203 0.677203 0.677203
0.694181 0.694181 0.694181
0.711087 0.711087 0.711087
0.727921 0.727921 0.727921
0.744687 0.744687 0.744687
0.761387 0.761387 0.761387
0.778022 0.778022 0.778022
0.794595 0.794595 0.794595
0.811107 0.811107 0.811107
0.827560 0.827560 0.827560
0.843955 0.843955 0.843955
0.860295 0.860295 0.860295
0.876580 0.876580 0.876580
0.642386 0.642386 0.642386
0.659521 0.659521 0.659521
0.676577 0.676577 0.676577
0.693558 0.693558 0.693558
0.710466 0.710466 0.710466
0.727303 0.727303 0.727303
0.744072 0.744072 0.744072
0.760774 0.760774 0.760774
0.777411 0.777411 0.777411
0.793986 0.793986 0.793986
0.810501 0.810501 0.810501
0.826956 0.826956 0.826956
0.843353 0.843353 0.843353
0.859695 0.859695 0.859695
0.875981 0.875981 0.875981
0.892215 0.892215 0.892215
0.908396 0.908396 0.908396
0.026961 0.026961 0.026961
0.054959 0.054959 0.054959
0.080525 0.080525 0.080525
0.104707 0.104707 0.104707
0.127933 0.127933 0.127933
0.150432 0.150432 0.150432
0.172350 0.172350 0.172350
0.193786 0.193786 0.193786
0.214810 0.214810 0.214810
0.235476 0.235476 0.235476
0.255827 0.255827 0.255827
0.275895 0.275895 0.275895
0.295709 0.295709 0.295709
0.315292 0.315292 0.315292
0.334661 0.334661 0.334661
0.353835 0.353835 0.353835
0.372827 0.372827 0.372827
0.079613 0.079613 0.079613
0.103837 0.103837 0.103837
0.127092 0.127092 0.127092
0.149615 0.149615 0.149615
0.171553 0.171553 0.171553
0.193005 0.193005 0.193005
0.214043 0.214043 0.214043
0.234722 0.234722 0.234722
0.255083 0.255083 0.255083
0.275162 0.275162 0.275162
0.294985 0.294985 0.294985
0.314575 0.314575 0.314575
0.333952 0.333952 0.333952
0.353133 0.353133 0.353133
0.372131 0.372131 0.372131
0.390960 0.390960 0.390960
0.409630 0.409630 0.409630
0.126251 0.126251 0.126251
0.148798 0.148798 0.148798
0.170755 0.170755 0.170755
0.192223 0.192223 0.192223
0.213276 0.213276 0.213276
0.233967 0.233967 0.233967
0.254339 0.254339 0.254339
0.274428 0.274428 0.274428
0.294260 0.294260 0.294260
0.313858 0.313858 0.313858
0.333243 0.333243 0.333243
0.352431 0.352431 0.352431
0.371436 0.371436 0.371436
0.390270 0.390270 0.390270
0.408946 0.408946 0.408946
0.427472 0.427472 0.427472
0.445858 0.445858 0.445858
0.169956 0.169956 0.169956
0.191441 0.191441 0.191441
0.212508 0.212508 0.212508
0.233211 0.233211 0.233211
0.253595 0.253595 0.253595
0.273693 0.273693 0.273693
0.293534 0.293534 0.293534
0.313141 0.313141 0.313141
0.332533 0.332533 0.332533
0.351728 0.351728 0.351728
0.370739 0.370739 0.370739
0.389580 0.389580 0.389580
0.408262 0.408262 0.408262
0.426793 0.426793 0.426793
0.445184 0.445184 0.445184
0.463441 0.463441 0.463441
0.481573 0.481573 0.481573
0.211740 0.211740 0.211740
0.232456 0.232456 0.232456
0.252851 0.252851 0.252851
0.272959 0.272959 0.272959
0.292809 0.292809 0.292809
0.312424 0.312424 0.312424
0.331824 0.331824 0.331824
0.351025 0.351025 0.351025
0.370043 0.370043 0.370043
0.388890 0.388890 0.388890
0.407577 0.407577 0.407577
0.426114 0.426114 0.426114
0.444510 0.444510 0.444510
0.462772 0.462772 0.462772
0.480908 0.480908 0.480908
0.498924 0.498924 0.498924
0.516826 0.516826 0.516826
0.252106 0.252106 0.252106
0.272224 0.272224 0.272224
0.292083 0.292083 0.292083
0.311706 0.311706 0.311706
0.331113 0.331113 0.331113
0.350322 0.350322 0.350322
0.369347 0.369347 0.369347
0.388200 0.388200 0.388200
0.406892 0.406892 0.406892
0.425435 0.425435 0.425435
0.443835 0.443835 0.443835
0.462102 0.462102 0.462102
0.480243 0.480243 0.480243
0.498263 0.498263 0.498263
0.516169 0.516169 0.516169
0.533966 0.533966 0.533966
0.551659 0.551659 0.551659
0.291356 0.291356 0.291356
0.310988 0.310988 0.310988
0.330403 0.330403 0.330403
0.349619 0.349619 0.349619
0.368650 0.368650 0.368650
0.387509 0.387509 0.387509
0.406207 0.406207 0.406207
0.424755 0.424755 0.424755
0.443161 0.443161 0.443161
0.461433 0.461433 0.461433
0.479578 0.479578 0.479578
0.497602 0.497602 0.497602
0.515512 0.515512 0.515512
0.533313 0.533313 0.533313
0.551010 0.551010 0.551010
0.568607 0.568607 0.568607
0.586108 0.586108 0.586108
0.329692 0.329692 0.329692
0.348915 0.348915 0.348915
0.367953 0.367953 0.367953
0.386818 0.386818 0.386818
0.405522 0.405522 0.405522
0.424075 0.424075 0.424075
0.442486 0.442486 0.442486
0.460763 0.460763 0.460763
0.478912 0.478912 0.478912
0.496941 0.496941 0.496941
0.514855 0.514855 0.514855
0.532660 0.532660 0.532660
0.550361 0.550361 0.550361
0.567961 0.567961 0.567961
0.585466 0.585466 0.585466
0.602879 0.602879 0.602879
0.620203 0.620203 0.620203
0.367256 0.367256 0.367256
0.386127 0.386127 0.386127
0.404837 0.404837 0.404837
0.423395 0.423395 0.423395
0.441811 0.441811 0.441811
0.460093 0.460093 0.460093
0.478247 0.478247 0.478247
0.496280 0.496280 0.496280
0.514198 0.514198 0.514198
0.532007 0.532007 0.532007
0.549711 0.549711 0.549711
0.567315 0.567315 0.567315
0.584824 0.584824 0.584824
0.602240 0.602240 0.602240
0.619568 0.619568 0.619568
0.636810 0.636810 0.636810
0.653971 0.653971 0.653971
0.404151 0.404151 0.404151
0.422715 0.422715 0.422715
0.441136 0.441136 0.441136
0.459422 0.459422 0.459422
0.477581 0.477581 0.477581
0.495619 0.495619 0.495619
0.513541 0.513541 0.513541
0.531354 0.531354 0.531354
0.549062 0.549062 0.549062
0.566669 0.566669 0.566669
0.584181 0.584181 0.584181
0.601601 0.601601 0.601601
0.618932 0.618932 0.618932
0.636177 0.636177 0.636177
0.653341 0.653341 0.653341
0.670425 0.670425 0.670425
0.687433 0.687433 0.687433
0.440461 0.440461 0.440461
0.458752 0.458752 0.458752
0.476915 0.476915 0.476915
0.494957 0.494957 0.494957
0.512884 0.512884 0.512884
0.530700 0.530700 0.530700
0.548412 0.548412 0.548412
0.566023 0.566023 0.566023
0.583539 0.583539 0.583539
0.600961 0.600961 0.600961
0.618295 0.618295 0.618295
0.635544 0.635544 0.635544
0.652711 0.652711 0.652711
0.669798 0.669798 0.669798
0.686809 0.686809 0.686809
0.703745 0.703745 0.703745
0.720610 0.720610 0.720610
0.476249 0.476249 0.476249
0.494295 0.494295 0.494295
0.512226 0.512226 0.512226
0.530047 0.530047 0.530047
0.547762 0.547762 0.547762
0.565377 0.565377 0.565377
0.582896 0.582896 0.582896
0.600322 0.600322 0.600322
0.617659 0.617659 0.617659
0.634911 0.634911 0.634911
0.652081 0.652081 0.652081
0.669171 0.669171 0.669171
0.686184 0.686184 0.686184
0.703123 0.703123 0.703123
0.719991 0.719991 0.719991
0.736789 0.736789 0.736789
0.753520 0.753520 0.753520
0.511569 0.511569 0.511569
0.529393 0.529393 0.529393
0.547112 0.547112 0.547112
0.564731 0.564731 0.564731
0.582253 0.582253 0.582253
0.599682 0.599682 0.599682
0.617023 0.617023 0.617023
0.634278 0.634278 0.634278
0.651450 0.651450 0.651450
0.668543 0.668543 0.668543
0.685560 0.685560 0.685560
0.702502 0.702502 0.702502
0.719372 0.719372 0.719372
0.736172 0.736172 0.736172
0.752906 0.752906 0.752906
0.769573 0.769573 0.769573
0.786178 0.786178 0.786178
0.546462 0.546462 0.546462
0.564084 0.564084 0.564084
0.581610 0.581610 0.581610
0.599043 0.599043 0.599043
0.616387 0.616387 0.616387
0.633645 0.633645 0.633645
0.650820 0.650820 0.650820
0.667916 0.667916 0.667916
0.684935 0.684935 0.684935
0.701880 0.701880 0.701880
0.718752 0.718752 0.718752
0.735555 0.735555 0.735555
0.752291 0.752291 0.752291
0.768961 0.768961 0.768961
0.785568 0.785568 0.785568
0.802113 0.802113 0.802113
0.818598 0.818598 0.818598
0.580967 0.580967 0.580967
0.598403 0.598403 0.598403
0.615750 0.615750 0.615750
0.633011 0.633011 0.633011
0.650190 0.650190 0.650190
0.667288 0.667288 0.667288
0.684310 0.684310 0.684310
0.701257 0.701257 0.701257
0.718133 0.718133 0.718133
0.734939 0.734939 0.734939
0.751677 0.751677 0.751677
0.768349 0.768349 0.768349
0.784958 0.784958 0.784958
0.801505 0.801505 0.801505
0.817992 0.817992 0.817992
0.834421 0.834421 0.834421
0.850793 0.850793 0.850793
0.615113 0.615113 0.615113
0.632378 0.632378 0.632378
0.649559 0.649559 0.649559
0.666661 0.666661 0.666661
0.683685 0.683685 0.683685
0.700635 0.700635 0.700635
0.717513 0.717513 0.717513
0.734321 0.734321 0.734321
0.751062 0.751062 0.751062
0.767737 0.767737 0.767737
0.784348 0.784348 0.784348
0.800898 0.800898 0.800898
0.817387 0.817387 0.817387
0.833818 0.833818 0.833818
0.850192 0.850192 0.850192
0.866510 0.866510 0.866510
0.882774 0.882774 0.882774
0.648928 0.648928 0.648928
0.666033 0.666033 0.666033
0.683060 0.683060 0.683060
0.700013 0.700013 0.700013
0.716894 0.716894 0.716894
0.733704 0.733704 0.733704
0.750447 0.750447 0.750447
0.767125 0.767125 0.767125
0.783738 0.783738 0.783738
0.800290 0.800290 0.800290
0.816781 0.816781 0.816781
0.833214 0.833214 0.833214
0.849590 0.849590 0.849590
0.865911 0.865911 0.865911
0.882177 0.882177 0.882177
0.898390 0.898390 0.898390
0.914553 0.914553 0.914553
0.038056 0.038056 0.038056
0.064912 0.064912 0.064912
0.089879 0.089879 0.089879
0.113660 0.113660 0.113660
0.136587 0.136587 0.136587
0.158851 0.158851 0.158851
0.180576 0.180576 0.180576
0.201847 0.201847 0.201847
0.222729 0.222729 0.222729
0.243271 0.243271 0.243271
0.263510 0.263510 0.263510
0.283479 0.283479 0.283479
0.303202 0.303202 0.303202
0.322701 0.322701 0.322701
0.341994 0.341994 0.341994
0.361097 0.361097 0.361097
0.380023 0.380023 0.380023
0.088984 0.088984 0.088984
0.112802 0.112802 0.112802
0.135757 0.135757 0.135757
