assets/luts/bw_porcelain.cube
TITLE "Porcelain BW"
LUT_3D_SIZE 5
0.242719 0.242719 0.242719
0.264749 0.264749 0.264749
0.291461 0.291461 0.291461
0.322183 0.322183 0.322183
0.356554 0.356554 0.356554
0.290405 0.290405 0.290405
0.320986 0.320986 0.320986
0.355228 0.355228 0.355228
0.392781 0.392781 0.392781
0.433202 0.433202 0.433202
0.353908 0.353908 0.353908
0.391345 0.391345 0.391345
0.431670 0.431670 0.431670
0.474320 0.474320 0.474320
0.518603 0.518603 0.518603
0.430142 0.430142 0.430142
0.472718 0.472718 0.472718
0.516954 0.516954 0.516954
0.562052 0.562052 0.562052
0.607151 0.607151 0.607151
0.515306 0.515306 0.515306
0.560388 0.560388 0.560388
0.605502 0.605502 0.605502
0.649775 0.649775 0.649775
0.692385 0.692385 0.692385
0.250483 0.250483 0.250483
0.274432 0.274432 0.274432
0.302723 0.302723 0.302723
0.334875 0.334875 0.334875
0.370548 0.370548 0.370548
0.301612 0.301612 0.301612
0.333627 0.333627 0.333627
0.369177 0.369177 0.369177
0.407882 0.407882 0.407882
0.449255 0.449255 0.449255
0.367811 0.367811 0.367811
0.406407 0.406407 0.406407
0.447692 0.447692 0.447692
0.491053 0.491053 0.491053
0.535751 0.535751 0.535751
0.446133 0.446133 0.446133
0.489429 0.489429 0.489429
0.534093 0.534093 0.534093
0.579295 0.579295 0.579295
0.624163 0.624163 0.624163
0.532435 0.532435 0.532435
0.577633 0.577633 0.577633
0.622528 0.622528 0.622528
0.666259 0.666259 0.666259
0.708038 0.708038 0.708038
0.259052 0.259052 0.259052
0.284739 0.284739 0.284739
0.314545 0.314545 0.314545
0.348079 0.348079 0.348079
0.384999 0.384999 0.384999
0.313380 0.313380 0.313380
0.346783 0.346783 0.346783
0.383586 0.383586 0.383586
0.423372 0.423372 0.423372
0.465607 0.465607 0.465607
0.382176 0.382176 0.382176
0.421861 0.421861 0.421861
0.464017 0.464017 0.464017
0.507981 0.507981 0.507981
0.552974 0.552974 0.552974
0.462430 0.462430 0.462430
0.506340 0.506340 0.506340
0.551311 0.551311 0.551311
0.596489 0.596489 0.596489
0.640999 0.640999 0.640999
0.549647 0.549647 0.549647
0.594833 0.594833 0.594833
0.639384 0.639384 0.639384
0.682458 0.682458 0.682458
0.723311 0.723311 0.723311
0.268325 0.268325 0.268325
0.295642 0.295642 0.295642
0.326909 0.326909 0.326909
0.361777 0.361777 0.361777
0.399884 0.399884 0.399884
0.325692 0.325692 0.325692
0.360434 0.360434 0.360434
0.398429 0.398429 0.398429
0.439220 0.439220 0.439220
0.482219 0.482219 0.482219
0.396979 0.396979 0.396979
0.437676 0.437676 0.437676
0.480606 0.480606 0.480606
0.525059 0.525059 0.525059
0.570223 0.570223 0.570223
0.478995 0.478995 0.478995
0.523406 0.523406 0.523406
0.568559 0.568559 0.568559
0.613585 0.613585 0.613585
0.657616 0.657616 0.657616
0.566895 0.566895 0.566895
0.611941 0.611941 0.611941
0.656024 0.656024 0.656024
0.698332 0.698332 0.698332
0.738171 0.738171 0.738171
0.278248 0.278248 0.278248
0.307117 0.307117 0.307117
0.339796 0.339796 0.339796
0.375946 0.375946 0.375946
0.415173 0.415173 0.415173
0.338530 0.338530 0.338530
0.374559 0.374559 0.374559
0.413681 0.413681 0.413681
0.455390 0.455390 0.455390
0.499050 0.499050 0.499050
0.412192 0.412192 0.412192
0.453816 0.453816 0.453816
0.497417 0.497417 0.497417
0.542242 0.542242 0.542242
0.587449 0.587449 0.587449
0.495787 0.495787 0.495787
0.540580 0.540580 0.540580
0.585789 0.585789 0.585789
0.630536 0.630536 0.630536
0.673970 0.673970 0.673970
0.584129 0.584129 0.584129
0.628908 0.628908 0.628908
0.672405 0.672405 0.672405
0.713846 0.713846 0.713846
0.752592 0.752592 0.752592
