assets/luts/bw_paper.cube
TITLE "Paper Log"
LUT_3D_SIZE 17
0.062000 0.058000 0.050000
0.077884 0.073884 0.065884
0.093769 0.089769 0.081769
0.109653 0.105653 0.097653
0.125537 0.121537 0.113537
0.141422 0.137422 0.129422
0.157306 0.153306 0.145306
0.173191 0.169191 0.161191
0.189075 0.185075 0.177075
0.204959 0.200959 0.192959
0.220844 0.216844 0.208844
0.236728 0.232728 0.224728
0.252613 0.248613 0.240613
0.268497 0.264497 0.256497
0.284381 0.280381 0.272381
0.300266 0.296266 0.288266
0.316150 0.312150 0.304150
0.093184 0.089184 0.081184
0.109069 0.105069 0.097069
0.124953 0.120953 0.112953
0.140838 0.136838 0.128837
0.156722 0.152722 0.144722
0.172606 0.168606 0.160606
0.188491 0.184491 0.176491
0.204375 0.200375 0.192375
0.220259 0.216259 0.208259
0.236144 0.232144 0.224144
0.252028 0.248028 0.240028
0.267912 0.263912 0.255912
0.283797 0.279797 0.271797
0.299681 0.295681 0.287681
0.315566 0.311566 0.303566
0.331450 0.327450 0.319450
0.347334 0.343334 0.335334
0.124369 0.120369 0.112369
0.140253 0.136253 0.128253
0.156137 0.152137 0.144137
0.172022 0.168022 0.160022
0.187906 0.183906 0.175906
0.203791 0.199791 0.191791
0.219675 0.215675 0.207675
0.235559 0.231559 0.223559
0.251444 0.247444 0.239444
0.267328 0.263328 0.255328
0.283212 0.279212 0.271212
0.299097 0.295097 0.287097
0.314981 0.310981 0.302981
0.330866 0.326866 0.318866
0.346750 0.342750 0.334750
0.362634 0.358634 0.350634
0.378519 0.374519 0.366519
0.155553 0.151553 0.143553
0.171438 0.167438 0.159438
0.187322 0.183322 0.175322
0.203206 0.199206 0.191206
0.219091 0.215091 0.207091
0.234975 0.230975 0.222975
0.250859 0.246859 0.238859
0.266744 0.262744 0.254744
0.282628 0.278628 0.270628
0.298513 0.294513 0.286513
0.314397 0.310397 0.302397
0.330281 0.326281 0.318281
0.346166 0.342166 0.334166
0.362050 0.358050 0.350050
0.377934 0.373934 0.365934
0.393819 0.389819 0.381819
0.409703 0.405703 0.397703
0.186738 0.182737 0.174737
0.202622 0.198622 0.190622
0.218506 0.214506 0.206506
0.234391 0.230391 0.222391
0.250275 0.246275 0.238275
0.266159 0.262159 0.254159
0.282044 0.278044 0.270044
0.297928 0.293928 0.285928
0.313812 0.309812 0.301812
0.329697 0.325697 0.317697
0.345581 0.341581 0.333581
0.361466 0.357466 0.349466
0.377350 0.373350 0.365350
0.393234 0.389234 0.381234
0.409119 0.405119 0.397119
0.425003 0.421003 0.413003
0.440887 0.436887 0.428887
0.217922 0.213922 0.205922
0.233806 0.229806 0.221806
0.249691 0.245691 0.237691
0.265575 0.261575 0.253575
0.281459 0.277459 0.269459
0.297344 0.293344 0.285344
0.313228 0.309228 0.301228
0.329112 0.325112 0.317112
0.344997 0.340997 0.332997
0.360881 0.356881 0.348881
0.376766 0.372766 0.364766
0.392650 0.388650 0.380650
0.408534 0.404534 0.396534
0.424419 0.420419 0.412419
0.440303 0.436303 0.428303
0.456187 0.452187 0.444187
0.472072 0.468072 0.460072
0.249106 0.245106 0.237106
0.264991 0.260991 0.252991
0.280875 0.276875 0.268875
0.296759 0.292759 0.284759
0.312644 0.308644 0.300644
0.328528 0.324528 0.316528
0.344413 0.340413 0.332412
0.360297 0.356297 0.348297
0.376181 0.372181 0.364181
0.392066 0.388066 0.380066
0.407950 0.403950 0.395950
0.423834 0.419834 0.411834
0.439719 0.435719 0.427719
0.455603 0.451603 0.443603
0.471488 0.467488 0.459487
0.487372 0.483372 0.475372
0.503256 0.499256 0.491256
0.280291 0.276291 0.268291
0.296175 0.292175 0.284175
0.312059 0.308059 0.300059
0.327944 0.323944 0.315944
0.343828 0.339828 0.331828
0.359712 0.355712 0.347712
0.375597 0.371597 0.363597
0.391481 0.387481 0.379481
0.407366 0.403366 0.395366
0.423250 0.419250 0.411250
0.439134 0.435134 0.427134
0.455019 0.451019 0.443019
0.470903 0.466903 0.458903
0.486788 0.482788 0.474788
0.502672 0.498672 0.490672
0.518556 0.514556 0.506556
0.534441 0.530441 0.522441
0.311475 0.307475 0.299475
0.327359 0.323359 0.315359
0.343244 0.339244 0.331244
0.359128 0.355128 0.347128
0.375012 0.371012 0.363012
0.390897 0.386897 0.378897
0.406781 0.402781 0.394781
0.422666 0.418666 0.410666
0.438550 0.434550 0.426550
0.454434 0.450434 0.442434
0.470319 0.466319 0.458319
0.486203 0.482203 0.474203
0.502087 0.498087 0.490087
0.517972 0.513972 0.505972
0.533856 0.529856 0.521856
0.549741 0.545741 0.537741
0.565625 0.561625 0.553625
0.342659 0.338659 0.330659
0.358544 0.354544 0.346544
0.374428 0.370428 0.362428
0.390312 0.386312 0.378312
0.406197 0.402197 0.394197
0.422081 0.418081 0.410081
0.437966 0.433966 0.425966
0.453850 0.449850 0.441850
0.469734 0.465734 0.457734
0.485619 0.481619 0.473619
0.501503 0.497503 0.489503
0.517388 0.513387 0.505387
0.533272 0.529272 0.521272
0.549156 0.545156 0.537156
0.565041 0.561041 0.553041
0.580925 0.576925 0.568925
0.596809 0.592809 0.584809
0.373844 0.369844 0.361844
0.389728 0.385728 0.377728
0.405612 0.401612 0.393612
0.421497 0.417497 0.409497
0.437381 0.433381 0.425381
0.453266 0.449266 0.441266
0.469150 0.465150 0.457150
0.485034 0.481034 0.473034
0.500919 0.496919 0.488919
0.516803 0.512803 0.504803
0.532687 0.528687 0.520687
0.548572 0.544572 0.536572
0.564456 0.560456 0.552456
0.580341 0.576341 0.568341
0.596225 0.592225 0.584225
0.612109 0.608109 0.600109
0.627994 0.623994 0.615994
0.405028 0.401028 0.393028
0.420913 0.416913 0.408913
0.436797 0.432797 0.424797
0.452681 0.448681 0.440681
0.468566 0.464566 0.456566
0.484450 0.480450 0.472450
0.500334 0.496334 0.488334
0.516219 0.512219 0.504219
0.532103 0.528103 0.520103
0.547987 0.543987 0.535987
0.563872 0.559872 0.551872
0.579756 0.575756 0.567756
0.595641 0.591641 0.583641
0.611525 0.607525 0.599525
0.627409 0.623409 0.615409
0.643294 0.639294 0.631294
0.659178 0.655178 0.647178
0.436212 0.432212 0.424212
0.452097 0.448097 0.440097
0.467981 0.463981 0.455981
0.483866 0.479866 0.471866
0.499750 0.495750 0.487750
0.515634 0.511634 0.503634
0.531519 0.527519 0.519519
0.547403 0.543403 0.535403
0.563288 0.559288 0.551288
0.579172 0.575172 0.567172
0.595056 0.591056 0.583056
0.610941 0.606941 0.598941
0.626825 0.622825 0.614825
0.642709 0.638709 0.630709
0.658594 0.654594 0.646594
0.674478 0.670478 0.662478
0.690362 0.686362 0.678362
0.467397 0.463397 0.455397
0.483281 0.479281 0.471281
0.499166 0.495166 0.487166
0.515050 0.511050 0.503050
0.530934 0.526934 0.518934
0.546819 0.542819 0.534819
0.562703 0.558703 0.550703
0.578588 0.574588 0.566588
0.594472 0.590472 0.582472
0.610356 0.606356 0.598356
0.626241 0.622241 0.614241
0.642125 0.638125 0.630125
0.658009 0.654009 0.646009
0.673894 0.669894 0.661894
0.689778 0.685778 0.677778
0.705662 0.701662 0.693662
0.721547 0.717547 0.709547
0.498581 0.494581 0.486581
0.514466 0.510466 0.502466
0.530350 0.526350 0.518350
0.546234 0.542234 0.534234
0.562119 0.558119 0.550119
0.578003 0.574003 0.566003
0.593888 0.589888 0.581888
0.609772 0.605772 0.597772
0.625656 0.621656 0.613656
0.641541 0.637541 0.629541
0.657425 0.653425 0.645425
0.673309 0.669309 0.661309
0.689194 0.685194 0.677194
0.705078 0.701078 0.693078
0.720963 0.716963 0.708963
0.736847 0.732847 0.724847
0.752731 0.748731 0.740731
0.529766 0.525766 0.517766
0.545650 0.541650 0.533650
0.561534 0.557534 0.549534
0.577419 0.573419 0.565419
0.593303 0.589303 0.581303
0.609187 0.605187 0.597187
0.625072 0.621072 0.613072
0.640956 0.636956 0.628956
0.656841 0.652841 0.644841
0.672725 0.668725 0.660725
0.688609 0.684609 0.676609
0.704494 0.700494 0.692494
0.720378 0.716378 0.708378
0.736263 0.732263 0.724263
0.752147 0.748147 0.740147
0.768031 0.764031 0.756031
0.783916 0.779916 0.771916
0.560950 0.556950 0.548950
0.576834 0.572834 0.564834
0.592719 0.588719 0.580719
0.608603 0.604603 0.596603
0.624487 0.620487 0.612487
0.640372 0.636372 0.628372
0.656256 0.652256 0.644256
0.672141 0.668141 0.660141
0.688025 0.684025 0.676025
0.703909 0.699909 0.691909
0.719794 0.715794 0.707794
0.735678 0.731678 0.723678
0.751563 0.747563 0.739563
0.767447 0.763447 0.755447
0.783331 0.779331 0.771331
0.799216 0.795216 0.787216
0.815100 0.811100 0.803100
0.068056 0.064056 0.056056
0.083941 0.079941 0.071941
0.099825 0.095825 0.087825
0.115709 0.111709 0.103709
0.131594 0.127594 0.119594
0.147478 0.143478 0.135478
0.163363 0.159363 0.151363
0.179247 0.175247 0.167247
0.195131 0.191131 0.183131
0.211016 0.207016 0.199016
0.226900 0.222900 0.214900
0.242784 0.238784 0.230784
0.258669 0.254669 0.246669
0.274553 0.270553 0.262553
0.290438 0.286438 0.278438
0.306322 0.302322 0.294322
0.322206 0.318206 0.310206
0.099241 0.095241 0.087241
0.115125 0.111125 0.103125
0.131009 0.127009 0.119009
0.146894 0.142894 0.134894
0.162778 0.158778 0.150778
0.178663 0.174662 0.166662
0.194547 0.190547 0.182547
0.210431 0.206431 0.198431
0.226316 0.222316 0.214316
0.242200 0.238200 0.230200
0.258084 0.254084 0.246084
0.273969 0.269969 0.261969
0.289853 0.285853 0.277853
0.305737 0.301737 0.293737
0.321622 0.317622 0.309622
0.337506 0.333506 0.325506
0.353391 0.349391 0.341391
0.130425 0.126425 0.118425
0.146309 0.142309 0.134309
0.162194 0.158194 0.150194
0.178078 0.174078 0.166078
0.193962 0.189962 0.181962
0.209847 0.205847 0.197847
0.225731 0.221731 0.213731
0.241616 0.237616 0.229616
0.257500 0.253500 0.245500
0.273384 0.269384 0.261384
0.289269 0.285269 0.277269
0.305153 0.301153 0.293153
0.321038 0.317038 0.309038
0.336922 0.332922 0.324922
0.352806 0.348806 0.340806
0.368691 0.364691 0.356691
0.384575 0.380575 0.372575
0.161609 0.157609 0.149609
0.177494 0.173494 0.165494
0.193378 0.189378 0.181378
0.209263 0.205263 0.197263
0.225147 0.221147 0.213147
0.241031 0.237031 0.229031
0.256916 0.252916 0.244916
0.272800 0.268800 0.260800
0.288684 0.284684 0.276684
0.304569 0.300569 0.292569
0.320453 0.316453 0.308453
0.336337 0.332337 0.324337
0.352222 0.348222 0.340222
0.368106 0.364106 0.356106
0.383991 0.379991 0.371991
0.399875 0.395875 0.387875
0.415759 0.411759 0.403759
0.192794 0.188794 0.180794
0.208678 0.204678 0.196678
0.224562 0.220562 0.212562
0.240447 0.236447 0.228447
0.256331 0.252331 0.244331
0.272216 0.268216 0.260216
0.288100 0.284100 0.276100
0.303984 0.299984 0.291984
0.319869 0.315869 0.307869
0.335753 0.331753 0.323753
0.351637 0.347637 0.339637
0.367522 0.363522 0.355522
0.383406 0.379406 0.371406
0.399291 0.395291 0.387291
0.415175 0.411175 0.403175
0.431059 0.427059 0.419059
0.446944 0.442944 0.434944
0.223978 0.219978 0.211978
0.239862 0.235862 0.227862
0.255747 0.251747 0.243747
0.271631 0.267631 0.259631
0.287516 0.283516 0.275516
0.303400 0.299400 0.291400
0.319284 0.315284 0.307284
0.335169 0.331169 0.323169
0.351053 0.347053 0.339053
0.366937 0.362937 0.354937
0.382822 0.378822 0.370822
0.398706 0.394706 0.386706
0.414591 0.410591 0.402591
0.430475 0.426475 0.418475
0.446359 0.442359 0.434359
0.462244 0.458244 0.450244
0.478128 0.474128 0.466128
0.255163 0.251163 0.243163
0.271047 0.267047 0.259047
0.286931 0.282931 0.274931
0.302816 0.298816 0.290816
0.318700 0.314700 0.306700
0.334584 0.330584 0.322584
0.350469 0.346469 0.338469
0.366353 0.362353 0.354353
0.382237 0.378237 0.370237
0.398122 0.394122 0.386122
0.414006 0.410006 0.402006
0.429891 0.425891 0.417891
0.445775 0.441775 0.433775
0.461659 0.457659 0.449659
0.477544 0.473544 0.465544
0.493428 0.489428 0.481428
0.509312 0.505312 0.497312
0.286347 0.282347 0.274347
0.302231 0.298231 0.290231
0.318116 0.314116 0.306116
0.334000 0.330000 0.322000
0.349884 0.345884 0.337884
0.365769 0.361769 0.353769
0.381653 0.377653 0.369653
0.397537 0.393537 0.385537
0.413422 0.409422 0.401422
0.429306 0.425306 0.417306
0.445191 0.441191 0.433191
0.461075 0.457075 0.449075
0.476959 0.472959 0.464959
0.492844 0.488844 0.480844
0.508728 0.504728 0.496728
0.524613 0.520613 0.512613
0.540497 0.536497 0.528497
0.317531 0.313531 0.305531
0.333416 0.329416 0.321416
0.349300 0.345300 0.337300
0.365184 0.361184 0.353184
0.381069 0.377069 0.369069
0.396953 0.392953 0.384953
0.412837 0.408837 0.400837
0.428722 0.424722 0.416722
0.444606 0.440606 0.432606
0.460491 0.456491 0.448491
0.476375 0.472375 0.464375
0.492259 0.488259 0.480259
0.508144 0.504144 0.496144
0.524028 0.520028 0.512028
0.539913 0.535913 0.527913
0.555797 0.551797 0.543797
0.571681 0.567681 0.559681
0.348716 0.344716 0.336716
0.364600 0.360600 0.352600
0.380484 0.376484 0.368484
0.396369 0.392369 0.384369
0.412253 0.408253 0.400253
0.428137 0.424137 0.416137
0.444022 0.440022 0.432022
0.459906 0.455906 0.447906
0.475791 0.471791 0.463791
0.491675 0.487675 0.479675
0.507559 0.503559 0.495559
0.523444 0.519444 0.511444
0.539328 0.535328 0.527328
0.555212 0.551212 0.543212
0.571097 0.567097 0.559097
0.586981 0.582981 0.574981
0.602866 0.598866 0.590866
0.379900 0.375900 0.367900
0.395784 0.391784 0.383784
0.411669 0.407669 0.399669
0.427553 0.423553 0.415553
0.443437 0.439437 0.431437
0.459322 0.455322 0.447322
0.475206 0.471206 0.463206
0.491091 0.487091 0.479091
0.506975 0.502975 0.494975
0.522859 0.518859 0.510859
0.538744 0.534744 0.526744
0.554628 0.550628 0.542628
0.570512 0.566512 0.558512
0.586397 0.582397 0.574397
0.602281 0.598281 0.590281
0.618166 0.614166 0.606166
0.634050 0.630050 0.622050
0.411084 0.407084 0.399084
0.426969 0.422969 0.414969
0.442853 0.438853 0.430853
0.458737 0.454737 0.446737
0.474622 0.470622 0.462622
0.490506 0.486506 0.478506
0.506391 0.502391 0.494391
0.522275 0.518275 0.510275
0.538159 0.534159 0.526159
0.554044 0.550044 0.542044
0.569928 0.565928 0.557928
0.585812 0.581812 0.573812
0.601697 0.597697 0.589697
0.617581 0.613581 0.605581
0.633466 0.629466 0.621466
0.649350 0.645350 0.637350
0.665234 0.661234 0.653234
0.442269 0.438269 0.430269
0.458153 0.454153 0.446153
0.474037 0.470037 0.462037
0.489922 0.485922 0.477922
0.505806 0.501806 0.493806
0.521691 0.517691 0.509691
0.537575 0.533575 0.525575
0.553459 0.549459 0.541459
0.569344 0.565344 0.557344
0.585228 0.581228 0.573228
0.601113 0.597113 0.589113
0.616997 0.612997 0.604997
0.632881 0.628881 0.620881
0.648766 0.644766 0.636766
0.664650 0.660650 0.652650
0.680534 0.676534 0.668534
0.696419 0.692419 0.684419
0.473453 0.469453 0.461453
0.489338 0.485338 0.477338
0.505222 0.501222 0.493222
0.521106 0.517106 0.509106
0.536991 0.532991 0.524991
0.552875 0.548875 0.540875
0.568759 0.564759 0.556759
0.584644 0.580644 0.572644
0.600528 0.596528 0.588528
0.616413 0.612413 0.604413
0.632297 0.628297 0.620297
0.648181 0.644181 0.636181
0.664066 0.660066 0.652066
0.679950 0.675950 0.667950
0.695834 0.691834 0.683834
0.711719 0.707719 0.699719
0.727603 0.723603 0.715603
0.504637 0.500637 0.492638
0.520522 0.516522 0.508522
0.536406 0.532406 0.524406
0.552291 0.548291 0.540291
0.568175 0.564175 0.556175
0.584059 0.580059 0.572059
0.599944 0.595944 0.587944
0.615828 0.611828 0.603828
0.631713 0.627713 0.619712
0.647597 0.643597 0.635597
0.663481 0.659481 0.651481
0.679366 0.675366 0.667366
0.695250 0.691250 0.683250
0.711134 0.707134 0.699134
0.727019 0.723019 0.715019
0.742903 0.738903 0.730903
0.758788 0.754788 0.746788
0.535822 0.531822 0.523822
0.551706 0.547706 0.539706
0.567591 0.563591 0.555591
0.583475 0.579475 0.571475
0.599359 0.595359 0.587359
0.615244 0.611244 0.603244
0.631128 0.627128 0.619128
0.647013 0.643013 0.635013
0.662897 0.658897 0.650897
0.678781 0.674781 0.666781
0.694666 0.690666 0.682666
0.710550 0.706550 0.698550
0.726434 0.722434 0.714434
0.742319 0.738319 0.730319
0.758203 0.754203 0.746203
0.774088 0.770088 0.762088
0.789972 0.785972 0.777972
0.567006 0.563006 0.555006
0.582891 0.578891 0.570891
0.598775 0.594775 0.586775
0.614659 0.610659 0.602659
0.630544 0.626544 0.618544
0.646428 0.642428 0.634428
0.662313 0.658313 0.650313
0.678197 0.674197 0.666197
0.694081 0.690081 0.682081
0.709966 0.705966 0.697966
0.725850 0.721850 0.713850
0.741734 0.737734 0.729734
0.757619 0.753619 0.745619
0.773503 0.769503 0.761503
0.789388 0.785388 0.777388
0.805272 0.801272 0.793272
0.821156 0.817156 0.809156
0.074112 0.070112 0.062113
0.089997 0.085997 0.077997
0.105881 0.101881 0.093881
0.121766 0.117766 0.109766
0.137650 0.133650 0.125650
0.153534 0.149534 0.141534
0.169419 0.165419 0.157419
0.185303 0.181303 0.173303
0.201188 0.197188 0.189188
0.217072 0.213072 0.205072
0.232956 0.228956 0.220956
0.248841 0.244841 0.236841
0.264725 0.260725 0.252725
0.280609 0.276609 0.268609
0.296494 0.292494 0.284494
0.312378 0.308378 0.300378
0.328262 0.324262 0.316262
0.105297 0.101297 0.093297
0.121181 0.117181 0.109181
0.137066 0.133066 0.125066
0.152950 0.148950 0.140950
0.168834 0.164834 0.156834
0.184719 0.180719 0.172719
0.200603 0.196603 0.188603
0.216487 0.212487 0.204487
0.232372 0.228372 0.220372
0.248256 0.244256 0.236256
0.264141 0.260141 0.252141
0.280025 0.276025 0.268025
0.295909 0.291909 0.283909
0.311794 0.307794 0.299794
0.327678 0.323678 0.315678
0.343562 0.339562 0.331562
0.359447 0.355447 0.347447
0.136481 0.132481 0.124481
0.152366 0.148366 0.140366
0.168250 0.164250 0.156250
0.184134 0.180134 0.172134
0.200019 0.196019 0.188019
0.215903 0.211903 0.203903
0.231788 0.227788 0.219788
0.247672 0.243672 0.235672
0.263556 0.259556 0.251556
0.279441 0.275441 0.267441
0.295325 0.291325 0.283325
0.311209 0.307209 0.299209
0.327094 0.323094 0.315094
0.342978 0.338978 0.330978
0.358862 0.354862 0.346862
0.374747 0.370747 0.362747
0.390631 0.386631 0.378631
0.167666 0.163666 0.155666
0.183550 0.179550 0.171550
0.199434 0.195434 0.187434
0.215319 0.211319 0.203319
0.231203 0.227203 0.219203
0.247088 0.243088 0.235088
0.262972 0.258972 0.250972
0.278856 0.274856 0.266856
0.294741 0.290741 0.282741
0.310625 0.306625 0.298625
0.326509 0.322509 0.314509
0.342394 0.338394 0.330394
0.358278 0.354278 0.346278
0.374162 0.370162 0.362162
0.390047 0.386047 0.378047
0.405931 0.401931 0.393931
0.421816 0.417816 0.409816
0.198850 0.194850 0.186850
0.214734 0.210734 0.202734
0.230619 0.226619 0.218619
0.246503 0.242503 0.234503
0.262387 0.258387 0.250387
0.278272 0.274272 0.266272
0.294156 0.290156 0.282156
0.310041 0.306041 0.298041
0.325925 0.321925 0.313925
0.341809 0.337809 0.329809
0.357694 0.353694 0.345694
0.373578 0.369578 0.361578
0.389462 0.385462 0.377462
0.405347 0.401347 0.393347
0.421231 0.417231 0.409231
0.437116 0.433116 0.425116
0.453000 0.449000 0.441000
0.230034 0.226034 0.218034
0.245919 0.241919 0.233919
0.261803 0.257803 0.249803
0.277687 0.273687 0.265687
0.293572 0.289572 0.281572
0.309456 0.305456 0.297456
0.325341 0.321341 0.313341
0.341225 0.337225 0.329225
0.357109 0.353109 0.345109
0.372994 0.368994 0.360994
0.388878 0.384878 0.376878
0.404762 0.400762 0.392762
0.420647 0.416647 0.408647
0.436531 0.432531 0.424531
0.452416 0.448416 0.440416
0.468300 0.464300 0.456300
0.484184 0.480184 0.472184
0.261219 0.257219 0.249219
0.277103 0.273103 0.265103
0.292988 0.288988 0.280988
0.308872 0.304872 0.296872
0.324756 0.320756 0.312756
0.340641 0.336641 0.328641
0.356525 0.352525 0.344525
0.372409 0.368409 0.360409
0.388294 0.384294 0.376294
0.404178 0.400178 0.392178
0.420062 0.416062 0.408062
0.435947 0.431947 0.423947
0.451831 0.447831 0.439831
0.467716 0.463716 0.455716
0.483600 0.479600 0.471600
0.499484 0.495484 0.487484
0.515369 0.511369 0.503369
0.292403 0.288403 0.280403
0.308287 0.304287 0.296287
0.324172 0.320172 0.312172
0.340056 0.336056 0.328056
0.355941 0.351941 0.343941
0.371825 0.367825 0.359825
0.387709 0.383709 0.375709
0.403594 0.399594 0.391594
0.419478 0.415478 0.407478
0.435362 0.431362 0.423362
0.451247 0.447247 0.439247
0.467131 0.463131 0.455131
0.483016 0.479016 0.471016
0.498900 0.494900 0.486900
0.514784 0.510784 0.502784
0.530669 0.526669 0.518669
0.546553 0.542553 0.534553
0.323587 0.319587 0.311587
0.339472 0.335472 0.327472
0.355356 0.351356 0.343356
0.371241 0.367241 0.359241
0.387125 0.383125 0.375125
0.403009 0.399009 0.391009
0.418894 0.414894 0.406894
0.434778 0.430778 0.422778
0.450662 0.446662 0.438662
0.466547 0.462547 0.454547
0.482431 0.478431 0.470431
0.498316 0.494316 0.486316
0.514200 0.510200 0.502200
0.530084 0.526084 0.518084
0.545969 0.541969 0.533969
0.561853 0.557853 0.549853
0.577738 0.573738 0.565738
0.354772 0.350772 0.342772
0.370656 0.366656 0.358656
0.386541 0.382541 0.374541
0.402425 0.398425 0.390425
0.418309 0.414309 0.406309
0.434194 0.430194 0.422194
0.450078 0.446078 0.438078
0.465962 0.461962 0.453962
0.481847 0.477847 0.469847
0.497731 0.493731 0.485731
0.513616 0.509616 0.501616
0.529500 0.525500 0.517500
0.545384 0.541384 0.533384
0.561269 0.557269 0.549269
0.577153 0.573153 0.565153
0.593037 0.589037 0.581037
0.608922 0.604922 0.596922
0.385956 0.381956 0.373956
0.401841 0.397841 0.389841
0.417725 0.413725 0.405725
0.433609 0.429609 0.421609
0.449494 0.445494 0.437494
0.465378 0.461378 0.453378
0.481262 0.477262 0.469262
0.497147 0.493147 0.485147
0.513031 0.509031 0.501031
0.528916 0.524916 0.516916
0.544800 0.540800 0.532800
0.560684 0.556684 0.548684
0.576569 0.572569 0.564569
0.592453 0.588453 0.580453
0.608337 0.604337 0.596337
0.624222 0.620222 0.612222
0.640106 0.636106 0.628106
0.417141 0.413141 0.405141
0.433025 0.429025 0.421025
0.448909 0.444909 0.436909
0.464794 0.460794 0.452794
0.480678 0.476678 0.468678
0.496562 0.492562 0.484562
0.512447 0.508447 0.500447
0.528331 0.524331 0.516331
0.544216 0.540216 0.532216
0.560100 0.556100 0.548100
0.575984 0.571984 0.563984
0.591869 0.587869 0.579869
0.607753 0.603753 0.595753
0.623637 0.619637 0.611637
0.639522 0.635522 0.627522
0.655406 0.651406 0.643406
0.671291 0.667291 0.659291
0.448325 0.444325 0.436325
0.464209 0.460209 0.452209
0.480094 0.476094 0.468094
0.495978 0.491978 0.483978
0.511862 0.507862 0.499862
0.527747 0.523747 0.515747
0.543631 0.539631 0.531631
0.559516 0.555516 0.547516
0.575400 0.571400 0.563400
0.591284 0.587284 0.579284
0.607169 0.603169 0.595169
0.623053 0.619053 0.611053
0.638938 0.634938 0.626938
0.654822 0.650822 0.642822
0.670706 0.666706 0.658706
0.686591 0.682591 0.674591
0.702475 0.698475 0.690475
0.479509 0.475509 0.467509
0.495394 0.491394 0.483394
0.511278 0.507278 0.499278
0.527162 0.523162 0.515162
0.543047 0.539047 0.531047
0.558931 0.554931 0.546931
0.574816 0.570816 0.562816
0.590700 0.586700 0.578700
0.606584 0.602584 0.594584
0.622469 0.618469 0.610469
0.638353 0.634353 0.626353
0.654237 0.650237 0.642237
0.670122 0.666122 0.658122
0.686006 0.682006 0.674006
0.701891 0.697891 0.689891
0.717775 0.713775 0.705775
0.733659 0.729659 0.721659
0.510694 0.506694 0.498694
0.526578 0.522578 0.514578
0.542463 0.538463 0.530463
0.558347 0.554347 0.546347
0.574231 0.570231 0.562231
0.590116 0.586116 0.578116
0.606000 0.602000 0.594000
0.621884 0.617884 0.609884
0.637769 0.633769 0.625769
0.653653 0.649653 0.641653
0.669538 0.665538 0.657537
0.685422 0.681422 0.673422
0.701306 0.697306 0.689306
0.717191 0.713191 0.705191
0.733075 0.729075 0.721075
0.748959 0.744959 0.736959
0.764844 0.760844 0.752844
0.541878 0.537878 0.529878
0.557762 0.553762 0.545762
0.573647 0.569647 0.561647
0.589531 0.585531 0.577531
0.605416 0.601416 0.593416
0.621300 0.617300 0.609300
0.637184 0.633184 0.625184
0.653069 0.649069 0.641069
0.668953 0.664953 0.656953
0.684837 0.680837 0.672837
0.700722 0.696722 0.688722
0.716606 0.712606 0.704606
0.732491 0.728491 0.720491
0.748375 0.744375 0.736375
0.764259 0.760259 0.752259
0.780144 0.776144 0.768144
0.796028 0.792028 0.784028
0.573063 0.569063 0.561063
0.588947 0.584947 0.576947
0.604831 0.600831 0.592831
0.620716 0.616716 0.608716
0.636600 0.632600 0.624600
0.652484 0.648484 0.640484
0.668369 0.664369 0.656369
0.684253 0.680253 0.672253
0.700137 0.696137 0.688137
0.716022 0.712022 0.704022
0.731906 0.727906 0.719906
0.747791 0.743791 0.735791
0.763675 0.759675 0.751675
0.779559 0.775559 0.767559
0.795444 0.791444 0.783444
0.811328 0.807328 0.799328
0.827212 0.823212 0.815212
0.080169 0.076169 0.068169
0.096053 0.092053 0.084053
0.111937 0.107937 0.099937
0.127822 0.123822 0.115822
0.143706 0.139706 0.131706
0.159591 0.155591 0.147591
0.175475 0.171475 0.163475
0.191359 0.187359 0.179359
0.207244 0.203244 0.195244
0.223128 0.219128 0.211128
0.239013 0.235013 0.227013
0.254897 0.250897 0.242897
0.270781 0.266781 0.258781
0.286666 0.282666 0.274666
0.302550 0.298550 0.290550
0.318434 0.314434 0.306434
0.334319 0.330319 0.322319
0.111353 0.107353 0.099353
0.127238 0.123237 0.115238
0.143122 0.139122 0.131122
