assets/luts/bw_paper.cube
TITLE "Paper Log"
LUT_3D_SIZE 5
0.062000 0.058000 0.050000
0.125537 0.121537 0.113537
0.189075 0.185075 0.177075
0.252613 0.248613 0.240613
0.316150 0.312150 0.304150
0.186738 0.182737 0.174737
0.250275 0.246275 0.238275
0.313812 0.309812 0.301812
0.377350 0.373350 0.365350
0.440887 0.436887 0.428887
0.311475 0.307475 0.299475
0.375012 0.371012 0.363012
0.438550 0.434550 0.426550
0.502087 0.498087 0.490087
0.565625 0.561625 0.553625
0.436212 0.432212 0.424212
0.499750 0.495750 0.487750
0.563288 0.559288 0.551288
0.626825 0.622825 0.614825
0.690362 0.686362 0.678362
0.560950 0.556950 0.548950
0.624487 0.620487 0.612487
0.688025 0.684025 0.676025
0.751563 0.747563 0.739563
0.815100 0.811100 0.803100
0.086225 0.082225 0.074225
0.149763 0.145763 0.137763
0.213300 0.209300 0.201300
0.276838 0.272838 0.264838
0.340375 0.336375 0.328375
0.210962 0.206962 0.198962
0.274500 0.270500 0.262500
0.338038 0.334038 0.326038
0.401575 0.397575 0.389575
0.465112 0.461112 0.453112
0.335700 0.331700 0.323700
0.399237 0.395237 0.387237
0.462775 0.458775 0.450775
0.526312 0.522312 0.514312
0.589850 0.585850 0.577850
0.460437 0.456437 0.448437
0.523975 0.519975 0.511975
0.587512 0.583512 0.575512
0.651050 0.647050 0.639050
0.714587 0.710587 0.702587
0.585175 0.581175 0.573175
0.648713 0.644713 0.636713
0.712250 0.708250 0.700250
0.775788 0.771788 0.763788
0.839325 0.835325 0.827325
0.110450 0.106450 0.098450
0.173988 0.169988 0.161988
0.237525 0.233525 0.225525
0.301063 0.297063 0.289062
0.364600 0.360600 0.352600
0.235187 0.231187 0.223187
0.298725 0.294725 0.286725
0.362262 0.358262 0.350262
0.425800 0.421800 0.413800
0.489338 0.485338 0.477338
0.359925 0.355925 0.347925
0.423462 0.419462 0.411462
0.487000 0.483000 0.475000
0.550538 0.546538 0.538538
0.614075 0.610075 0.602075
0.484662 0.480662 0.472662
0.548200 0.544200 0.536200
0.611738 0.607738 0.599738
0.675275 0.671275 0.663275
0.738813 0.734813 0.726813
0.609400 0.605400 0.597400
0.672938 0.668938 0.660938
0.736475 0.732475 0.724475
0.800013 0.796013 0.788013
0.863550 0.859550 0.851550
0.134675 0.130675 0.122675
0.198213 0.194213 0.186213
0.261750 0.257750 0.249750
0.325288 0.321288 0.313287
0.388825 0.384825 0.376825
0.259413 0.255413 0.247413
0.322950 0.318950 0.310950
0.386488 0.382488 0.374488
0.450025 0.446025 0.438025
0.513563 0.509563 0.501563
0.384150 0.380150 0.372150
0.447687 0.443687 0.435687
0.511225 0.507225 0.499225
0.574762 0.570762 0.562762
0.638300 0.634300 0.626300
0.508887 0.504887 0.496887
0.572425 0.568425 0.560425
0.635963 0.631963 0.623963
0.699500 0.695500 0.687500
0.763038 0.759038 0.751038
0.633625 0.629625 0.621625
0.697163 0.693163 0.685163
0.760700 0.756700 0.748700
0.824238 0.820238 0.812238
0.887775 0.883775 0.875775
0.158900 0.154900 0.146900
0.222438 0.218438 0.210437
0.285975 0.281975 0.273975
0.349513 0.345513 0.337512
0.413050 0.409050 0.401050
0.283637 0.279637 0.271637
0.347175 0.343175 0.335175
0.410712 0.406712 0.398712
0.474250 0.470250 0.462250
0.537787 0.533787 0.525787
0.408375 0.404375 0.396375
0.471912 0.467912 0.459912
0.535450 0.531450 0.523450
0.598988 0.594988 0.586987
0.662525 0.658525 0.650525
0.533112 0.529112 0.521112
0.596650 0.592650 0.584650
0.660188 0.656188 0.648188
0.723725 0.719725 0.711725
0.787262 0.783262 0.775262
0.657850 0.653850 0.645850
0.721387 0.717387 0.709387
0.784925 0.780925 0.772925
0.848463 0.844463 0.836462
0.912000 0.908000 0.900000
