assets/luts/bw_pure.cube
TITLE "Pure This"
LUT_3D_SIZE 5
0.000000 0.000000 0.000000
0.110298 0.110298 0.110298
0.198813 0.198813 0.198813
0.280623 0.280623 0.280623
0.358361 0.358361 0.358361
0.195700 0.195700 0.195700
0.277695 0.277695 0.277695
0.355557 0.355557 0.355557
0.430495 0.430495 0.430495
0.503185 0.503185 0.503185
0.352750 0.352750 0.352750
0.427781 0.427781 0.427781
0.500545 0.500545 0.500545
0.571481 0.571481 0.571481
0.640892 0.640892 0.640892
0.497903 0.497903 0.497903
0.568900 0.568900 0.568900
0.638363 0.638363 0.638363
0.706514 0.706514 0.706514
0.773522 0.773522 0.773522
0.635832 0.635832 0.635832
0.704028 0.704028 0.704028
0.771075 0.771075 0.771075
0.837108 0.837108 0.837108
0.902233 0.902233 0.902233
0.048598 0.048598 0.048598
0.145146 0.145146 0.145146
0.230599 0.230599 0.230599
0.310662 0.310662 0.310662
0.387195 0.387195 0.387195
0.227567 0.227567 0.227567
0.307786 0.307786 0.307786
0.384430 0.384430 0.384430
0.458447 0.458447 0.458447
0.530403 0.530403 0.530403
0.381661 0.381661 0.381661
0.455763 0.455763 0.455763
0.527788 0.527788 0.527788
0.598112 0.598112 0.598112
0.667003 0.667003 0.667003
0.525170 0.525170 0.525170
0.595552 0.595552 0.595552
0.664492 0.664492 0.664492
0.732189 0.732189 0.732189
0.798798 0.798798 0.798798
0.661978 0.661978 0.661978
0.729719 0.729719 0.729719
0.796365 0.796365 0.796365
0.862040 0.862040 0.862040
0.926843 0.926843 0.926843
0.087598 0.087598 0.087598
0.178562 0.178562 0.178562
0.261627 0.261627 0.261627
0.340196 0.340196 0.340196
0.415655 0.415655 0.415655
0.258662 0.258662 0.258662
0.337366 0.337366 0.337366
0.412924 0.412924 0.412924
0.486102 0.486102 0.486102
0.557377 0.557377 0.557377
0.410190 0.410190 0.410190
0.483446 0.483446 0.483446
0.554785 0.554785 0.554785
0.624536 0.624536 0.624536
0.692935 0.692935 0.692935
0.552190 0.552190 0.552190
0.621995 0.621995 0.621995
0.690440 0.690440 0.690440
0.757706 0.757706 0.757706
0.823933 0.823933 0.823933
0.687944 0.687944 0.687944
0.755251 0.755251 0.755251
0.821514 0.821514 0.821514
0.886846 0.886846 0.886846
0.951338 0.951338 0.951338
0.123643 0.123643 0.123643
0.210901 0.210901 0.210901
0.292017 0.292017 0.292017
0.369283 0.369283 0.369283
0.443774 0.443774 0.443774
0.289110 0.289110 0.289110
0.366495 0.366495 0.366495
0.441075 0.441075 0.441075
0.513481 0.513481 0.513481
0.584123 0.584123 0.584123
0.438373 0.438373 0.438373
0.510851 0.510851 0.510851
0.581552 0.581552 0.581552
0.650763 0.650763 0.650763
0.718696 0.718696 0.718696
0.578978 0.578978 0.578978
0.648240 0.648240 0.648240
0.716217 0.716217 0.716217
0.783073 0.783073 0.783073
0.848934 0.848934 0.848934
0.713737 0.713737 0.713737
0.780631 0.780631 0.780631
0.846527 0.846527 0.846527
0.911529 0.911529 0.911529
0.975723 0.975723 0.975723
0.157895 0.157895 0.157895
0.242384 0.242384 0.242384
0.321857 0.321857 0.321857
0.397972 0.397972 0.397972
0.471582 0.471582 0.471582
0.319000 0.319000 0.319000
0.395220 0.395220 0.395220
0.468912 0.468912 0.468912
0.540606 0.540606 0.540606
0.610654 0.610654 0.610654
0.466239 0.466239 0.466239
0.537999 0.537999 0.537999
0.608103 0.608103 0.608103
0.676805 0.676805 0.676805
0.744295 0.744295 0.744295
0.605550 0.605550 0.605550
0.674300 0.674300 0.674300
0.741832 0.741832 0.741832
0.808295 0.808295 0.808295
0.873806 0.873806 0.873806
0.739367 0.739367 0.739367
0.805867 0.805867 0.805867
0.871411 0.871411 0.871411
0.936096 0.936096 0.936096
1.000000 1.000000 1.000000
