assets/luts/bw_silky.cube
TITLE "Silky BW"
LUT_3D_SIZE 17
0.154228 0.154228 0.154228
0.165064 0.165064 0.165064
0.176025 0.176025 0.176025
0.187102 0.187102 0.187102
0.198287 0.198287 0.198287
0.209574 0.209574 0.209574
0.220958 0.220958 0.220958
0.232434 0.232434 0.232434
0.243997 0.243997 0.243997
0.255643 0.255643 0.255643
0.267370 0.267370 0.267370
0.279172 0.279172 0.279172
0.291048 0.291048 0.291048
0.302995 0.302995 0.302995
0.315010 0.315010 0.315010
0.327090 0.327090 0.327090
0.339234 0.339234 0.339234
0.175620 0.175620 0.175620
0.186692 0.186692 0.186692
0.197873 0.197873 0.197873
0.209157 0.209157 0.209157
0.220538 0.220538 0.220538
0.232010 0.232010 0.232010
0.243570 0.243570 0.243570
0.255213 0.255213 0.255213
0.266937 0.266937 0.266937
0.278737 0.278737 0.278737
0.290610 0.290610 0.290610
0.302554 0.302554 0.302554
0.314566 0.314566 0.314566
0.326645 0.326645 0.326645
0.338786 0.338786 0.338786
0.350990 0.350990 0.350990
0.363253 0.363253 0.363253
0.197460 0.197460 0.197460
0.208740 0.208740 0.208740
0.220117 0.220117 0.220117
0.231586 0.231586 0.231586
0.243143 0.243143 0.243143
0.254784 0.254784 0.254784
0.266504 0.266504 0.266504
0.278301 0.278301 0.278301
0.290172 0.290172 0.290172
0.302113 0.302113 0.302113
0.314123 0.314123 0.314123
0.326199 0.326199 0.326199
0.338339 0.338339 0.338339
0.350540 0.350540 0.350540
0.362801 0.362801 0.362801
0.375119 0.375119 0.375119
0.387495 0.387495 0.387495
0.219697 0.219697 0.219697
0.231163 0.231163 0.231163
0.242717 0.242717 0.242717
0.254354 0.254354 0.254354
0.266072 0.266072 0.266072
0.277866 0.277866 0.277866
0.289734 0.289734 0.289734
0.301673 0.301673 0.301673
0.313680 0.313680 0.313680
0.325754 0.325754 0.325754
0.337891 0.337891 0.337891
0.350090 0.350090 0.350090
0.362348 0.362348 0.362348
0.374665 0.374665 0.374665
0.387038 0.387038 0.387038
0.399466 0.399466 0.399466
0.411947 0.411947 0.411947
0.242290 0.242290 0.242290
0.253924 0.253924 0.253924
0.265639 0.265639 0.265639
0.277431 0.277431 0.277431
0.289296 0.289296 0.289296
0.301232 0.301232 0.301232
0.313237 0.313237 0.313237
0.325308 0.325308 0.325308
0.337443 0.337443 0.337443
0.349640 0.349640 0.349640
0.361896 0.361896 0.361896
0.374211 0.374211 0.374211
0.386582 0.386582 0.386582
0.399008 0.399008 0.399008
0.411487 0.411487 0.411487
0.424018 0.424018 0.424018
0.436600 0.436600 0.436600
0.265207 0.265207 0.265207
0.276996 0.276996 0.276996
0.288858 0.288858 0.288858
0.300792 0.300792 0.300792
0.312795 0.312795 0.312795
0.324863 0.324863 0.324863
0.336996 0.336996 0.336996
0.349190 0.349190 0.349190
0.361445 0.361445 0.361445
0.373757 0.373757 0.373757
0.386126 0.386126 0.386126
0.398550 0.398550 0.398550
0.411027 0.411027 0.411027
0.423556 0.423556 0.423556
0.436136 0.436136 0.436136
0.448765 0.448765 0.448765
0.461443 0.461443 0.461443
0.288421 0.288421 0.288421
0.300352 0.300352 0.300352
0.312352 0.312352 0.312352
0.324418 0.324418 0.324418
0.336548 0.336548 0.336548
0.348740 0.348740 0.348740
0.360993 0.360993 0.360993
0.373303 0.373303 0.373303
0.385670 0.385670 0.385670
0.398092 0.398092 0.398092
0.410567 0.410567 0.410567
0.423094 0.423094 0.423094
0.435672 0.435672 0.435672
0.448300 0.448300 0.448300
0.460976 0.460976 0.460976
0.473698 0.473698 0.473698
0.486467 0.486467 0.486467
0.311909 0.311909 0.311909
0.323973 0.323973 0.323973
0.336101 0.336101 0.336101
0.348291 0.348291 0.348291
0.360541 0.360541 0.360541
0.372849 0.372849 0.372849
0.385214 0.385214 0.385214
0.397634 0.397634 0.397634
0.410107 0.410107 0.410107
0.422633 0.422633 0.422633
0.435209 0.435209 0.435209
0.447834 0.447834 0.447834
0.460508 0.460508 0.460508
0.473229 0.473229 0.473229
0.485996 0.485996 0.485996
0.498809 0.498809 0.498809
0.511665 0.511665 0.511665
0.335654 0.335654 0.335654
0.347841 0.347841 0.347841
0.360089 0.360089 0.360089
0.372395 0.372395 0.372395
0.384758 0.384758 0.384758
0.397176 0.397176 0.397176
0.409647 0.409647 0.409647
0.422171 0.422171 0.422171
0.434745 0.434745 0.434745
0.447369 0.447369 0.447369
0.460041 0.460041 0.460041
0.472761 0.472761 0.472761
0.485526 0.485526 0.485526
0.498336 0.498336 0.498336
0.511191 0.511191 0.511191
0.524089 0.524089 0.524089
0.537029 0.537029 0.537029
0.359637 0.359637 0.359637
0.371942 0.371942 0.371942
0.384302 0.384302 0.384302
0.396718 0.396718 0.396718
0.409188 0.409188 0.409188
0.421709 0.421709 0.421709
0.434282 0.434282 0.434282
0.446904 0.446904 0.446904
0.459574 0.459574 0.459574
0.472292 0.472292 0.472292
0.485056 0.485056 0.485056
0.497864 0.497864 0.497864
0.510717 0.510717 0.510717
0.523613 0.523613 0.523613
0.536552 0.536552 0.536552
0.549532 0.549532 0.549532
0.562552 0.562552 0.562552
0.383847 0.383847 0.383847
0.396260 0.396260 0.396260
0.408728 0.408728 0.408728
0.421248 0.421248 0.421248
0.433818 0.433818 0.433818
0.446439 0.446439 0.446439
0.459107 0.459107 0.459107
0.471823 0.471823 0.471823
0.484585 0.484585 0.484585
0.497392 0.497392 0.497392
0.510244 0.510244 0.510244
0.523138 0.523138 0.523138
0.536075 0.536075 0.536075
0.549053 0.549053 0.549053
0.562072 0.562072 0.562072
0.575131 0.575131 0.575131
0.588229 0.588229 0.588229
0.408268 0.408268 0.408268
0.420786 0.420786 0.420786
0.433355 0.433355 0.433355
0.445973 0.445973 0.445973
0.458640 0.458640 0.458640
0.471354 0.471354 0.471354
0.484115 0.484115 0.484115
0.496920 0.496920 0.496920
0.509770 0.509770 0.509770
0.522663 0.522663 0.522663
0.535598 0.535598 0.535598
0.548575 0.548575 0.548575
0.561593 0.561593 0.561593
0.574650 0.574650 0.574650
0.587747 0.587747 0.587747
0.600881 0.600881 0.600881
0.614054 0.614054 0.614054
0.432892 0.432892 0.432892
0.445508 0.445508 0.445508
0.458173 0.458173 0.458173
0.470886 0.470886 0.470886
0.483645 0.483645 0.483645
0.496449 0.496449 0.496449
0.509297 0.509297 0.509297
0.522188 0.522188 0.522188
0.535122 0.535122 0.535122
0.548097 0.548097 0.548097
0.561113 0.561113 0.561113
0.574169 0.574169 0.574169
0.587264 0.587264 0.587264
0.600398 0.600398 0.600398
0.613569 0.613569 0.613569
0.626777 0.626777 0.626777
0.640022 0.640022 0.640022
0.457707 0.457707 0.457707
0.470417 0.470417 0.470417
0.483174 0.483174 0.483174
0.495977 0.495977 0.495977
0.508823 0.508823 0.508823
0.521713 0.521713 0.521713
0.534645 0.534645 0.534645
0.547619 0.547619 0.547619
0.560634 0.560634 0.560634
0.573688 0.573688 0.573688
0.586782 0.586782 0.586782
0.599914 0.599914 0.599914
0.613083 0.613083 0.613083
0.626290 0.626290 0.626290
0.639534 0.639534 0.639534
0.652813 0.652813 0.652813
0.666127 0.666127 0.666127
0.482704 0.482704 0.482704
0.495505 0.495505 0.495505
0.508350 0.508350 0.508350
0.521238 0.521238 0.521238
0.534169 0.534169 0.534169
0.547141 0.547141 0.547141
0.560154 0.560154 0.560154
0.573207 0.573207 0.573207
0.586299 0.586299 0.586299
0.599430 0.599430 0.599430
0.612598 0.612598 0.612598
0.625804 0.625804 0.625804
0.639046 0.639046 0.639046
0.652324 0.652324 0.652324
0.665637 0.665637 0.665637
0.678984 0.678984 0.678984
0.692366 0.692366 0.692366
0.507876 0.507876 0.507876
0.520763 0.520763 0.520763
0.533692 0.533692 0.533692
0.546663 0.546663 0.546663
0.559675 0.559675 0.559675
0.572726 0.572726 0.572726
0.585817 0.585817 0.585817
0.598946 0.598946 0.598946
0.612113 0.612113 0.612113
0.625317 0.625317 0.625317
0.638558 0.638558 0.638558
0.651834 0.651834 0.651834
0.665146 0.665146 0.665146
0.678493 0.678493 0.678493
0.691873 0.691873 0.691873
0.705287 0.705287 0.705287
0.718734 0.718734 0.718734
0.533216 0.533216 0.533216
0.546185 0.546185 0.546185
0.559195 0.559195 0.559195
0.572245 0.572245 0.572245
0.585335 0.585335 0.585335
0.598462 0.598462 0.598462
0.611628 0.611628 0.611628
0.624831 0.624831 0.624831
0.638070 0.638070 0.638070
0.651345 0.651345 0.651345
0.664656 0.664656 0.664656
0.678001 0.678001 0.678001
0.691380 0.691380 0.691380
0.704793 0.704793 0.704793
0.718239 0.718239 0.718239
0.731717 0.731717 0.731717
0.745228 0.745228 0.745228
0.158344 0.158344 0.158344
0.169229 0.169229 0.169229
0.180235 0.180235 0.180235
0.191354 0.191354 0.191354
0.202579 0.202579 0.202579
0.213903 0.213903 0.213903
0.225323 0.225323 0.225323
0.236832 0.236832 0.236832
0.248428 0.248428 0.248428
0.260105 0.260105 0.260105
0.271861 0.271861 0.271861
0.283692 0.283692 0.283692
0.295595 0.295595 0.295595
0.307568 0.307568 0.307568
0.319608 0.319608 0.319608
0.331713 0.331713 0.331713
0.343881 0.343881 0.343881
0.179828 0.179828 0.179828
0.190943 0.190943 0.190943
0.202164 0.202164 0.202164
0.213485 0.213485 0.213485
0.224901 0.224901 0.224901
0.236407 0.236407 0.236407
0.248000 0.248000 0.248000
0.259674 0.259674 0.259674
0.271427 0.271427 0.271427
0.283255 0.283255 0.283255
0.295156 0.295156 0.295156
0.307126 0.307126 0.307126
0.319164 0.319164 0.319164
0.331267 0.331267 0.331267
0.343432 0.343432 0.343432
0.355658 0.355658 0.355658
0.367944 0.367944 0.367944
0.201749 0.201749 0.201749
0.213067 0.213067 0.213067
0.224480 0.224480 0.224480
0.235983 0.235983 0.235983
0.247572 0.247572 0.247572
0.259243 0.259243 0.259243
0.270993 0.270993 0.270993
0.282819 0.282819 0.282819
0.294717 0.294717 0.294717
0.306685 0.306685 0.306685
0.318720 0.318720 0.318720
0.330820 0.330820 0.330820
0.342983 0.342983 0.342983
0.355207 0.355207 0.355207
0.367491 0.367491 0.367491
0.379831 0.379831 0.379831
0.392227 0.392227 0.392227
0.224058 0.224058 0.224058
0.235558 0.235558 0.235558
0.247144 0.247144 0.247144
0.258812 0.258812 0.258812
0.270559 0.270559 0.270559
0.282382 0.282382 0.282382
0.294278 0.294278 0.294278
0.306243 0.306243 0.306243
0.318276 0.318276 0.318276
0.330374 0.330374 0.330374
0.342535 0.342535 0.342535
0.354757 0.354757 0.354757
0.367038 0.367038 0.367038
0.379376 0.379376 0.379376
0.391770 0.391770 0.391770
0.404219 0.404219 0.404219
0.416720 0.416720 0.416720
0.246716 0.246716 0.246716
0.258382 0.258382 0.258382
0.270126 0.270126 0.270126
0.281946 0.281946 0.281946
0.293839 0.293839 0.293839
0.305802 0.305802 0.305802
0.317832 0.317832 0.317832
0.329928 0.329928 0.329928
0.342086 0.342086 0.342086
0.354306 0.354306 0.354306
0.366585 0.366585 0.366585
0.378921 0.378921 0.378921
0.391313 0.391313 0.391313
0.403760 0.403760 0.403760
0.416259 0.416259 0.416259
0.428809 0.428809 0.428809
0.441410 0.441410 0.441410
0.269693 0.269693 0.269693
0.281510 0.281510 0.281510
0.293400 0.293400 0.293400
0.305360 0.305360 0.305360
0.317388 0.317388 0.317388
0.329482 0.329482 0.329482
0.341638 0.341638 0.341638
0.353855 0.353855 0.353855
0.366132 0.366132 0.366132
0.378466 0.378466 0.378466
0.390856 0.390856 0.390856
0.403301 0.403301 0.403301
0.415798 0.415798 0.415798
0.428347 0.428347 0.428347
0.440946 0.440946 0.440946
0.453593 0.453593 0.453593
0.466289 0.466289 0.466289
0.292961 0.292961 0.292961
0.304919 0.304919 0.304919
0.316945 0.316945 0.316945
0.329035 0.329035 0.329035
0.341190 0.341190 0.341190
0.353405 0.353405 0.353405
0.365679 0.365679 0.365679
0.378012 0.378012 0.378012
0.390400 0.390400 0.390400
0.402842 0.402842 0.402842
0.415337 0.415337 0.415337
0.427884 0.427884 0.427884
0.440481 0.440481 0.440481
0.453127 0.453127 0.453127
0.465821 0.465821 0.465821
0.478561 0.478561 0.478561
0.491347 0.491347 0.491347
0.316501 0.316501 0.316501
0.328590 0.328590 0.328590
0.340741 0.340741 0.340741
0.352954 0.352954 0.352954
0.365227 0.365227 0.365227
0.377557 0.377557 0.377557
0.389943 0.389943 0.389943
0.402383 0.402383 0.402383
0.414877 0.414877 0.414877
0.427422 0.427422 0.427422
0.440017 0.440017 0.440017
0.452661 0.452661 0.452661
0.465353 0.465353 0.465353
0.478092 0.478092 0.478092
0.490876 0.490876 0.490876
0.503705 0.503705 0.503705
0.516578 0.516578 0.516578
0.340293 0.340293 0.340293
0.352504 0.352504 0.352504
0.364774 0.364774 0.364774
0.377102 0.377102 0.377102
0.389486 0.389486 0.389486
0.401925 0.401925 0.401925
0.414416 0.414416 0.414416
0.426959 0.426959 0.426959
0.439553 0.439553 0.439553
0.452195 0.452195 0.452195
0.464885 0.464885 0.464885
0.477622 0.477622 0.477622
0.490405 0.490405 0.490405
0.503232 0.503232 0.503232
0.516103 0.516103 0.516103
0.529017 0.529017 0.529017
0.541973 0.541973 0.541973
0.364322 0.364322 0.364322
0.376648 0.376648 0.376648
0.389030 0.389030 0.389030
0.401466 0.401466 0.401466
0.413956 0.413956 0.413956
0.426497 0.426497 0.426497
0.439088 0.439088 0.439088
0.451729 0.451729 0.451729
0.464418 0.464418 0.464418
0.477153 0.477153 0.477153
0.489934 0.489934 0.489934
0.502760 0.502760 0.502760
0.515629 0.515629 0.515629
0.528542 0.528542 0.528542
0.541496 0.541496 0.541496
0.554491 0.554491 0.554491
0.567527 0.567527 0.567527
0.388573 0.388573 0.388573
0.401008 0.401008 0.401008
0.413495 0.413495 0.413495
0.426035 0.426035 0.426035
0.438624 0.438624 0.438624
0.451263 0.451263 0.451263
0.463950 0.463950 0.463950
0.476684 0.476684 0.476684
0.489463 0.489463 0.489463
0.502287 0.502287 0.502287
0.515155 0.515155 0.515155
0.528066 0.528066 0.528066
0.541019 0.541019 0.541019
0.554012 0.554012 0.554012
0.567047 0.567047 0.567047
0.580120 0.580120 0.580120
0.593233 0.593233 0.593233
0.413035 0.413035 0.413035
0.425572 0.425572 0.425572
0.438160 0.438160 0.438160
0.450797 0.450797 0.450797
0.463482 0.463482 0.463482
0.476214 0.476214 0.476214
0.488992 0.488992 0.488992
0.501814 0.501814 0.501814
0.514681 0.514681 0.514681
0.527590 0.527590 0.527590
0.540541 0.540541 0.540541
0.553534 0.553534 0.553534
0.566566 0.566566 0.566566
0.579639 0.579639 0.579639
0.592750 0.592750 0.592750
0.605899 0.605899 0.605899
0.619086 0.619086 0.619086
0.437696 0.437696 0.437696
0.450332 0.450332 0.450332
0.463015 0.463015 0.463015
0.475745 0.475745 0.475745
0.488521 0.488521 0.488521
0.501342 0.501342 0.501342
0.514207 0.514207 0.514207
0.527114 0.527114 0.527114
0.540064 0.540064 0.540064
0.553055 0.553055 0.553055
0.566086 0.566086 0.566086
0.579157 0.579157 0.579157
0.592267 0.592267 0.592267
0.605415 0.605415 0.605415
0.618600 0.618600 0.618600
0.631822 0.631822 0.631822
0.645081 0.645081 0.645081
0.462547 0.462547 0.462547
0.475276 0.475276 0.475276
0.488050 0.488050 0.488050
0.500870 0.500870 0.500870
0.513733 0.513733 0.513733
0.526639 0.526639 0.526639
0.539587 0.539587 0.539587
0.552576 0.552576 0.552576
0.565606 0.565606 0.565606
0.578676 0.578676 0.578676
0.591784 0.591784 0.591784
0.604931 0.604931 0.604931
0.618115 0.618115 0.618115
0.631335 0.631335 0.631335
0.644592 0.644592 0.644592
0.657885 0.657885 0.657885
0.671213 0.671213 0.671213
0.487579 0.487579 0.487579
0.500397 0.500397 0.500397
0.513259 0.513259 0.513259
0.526163 0.526163 0.526163
0.539110 0.539110 0.539110
0.552098 0.552098 0.552098
0.565126 0.565126 0.565126
0.578194 0.578194 0.578194
0.591301 0.591301 0.591301
0.604446 0.604446 0.604446
0.617629 0.617629 0.617629
0.630848 0.630848 0.630848
0.644104 0.644104 0.644104
0.657395 0.657395 0.657395
0.670722 0.670722 0.670722
0.684082 0.684082 0.684082
0.697477 0.697477 0.697477
0.512785 0.512785 0.512785
0.525688 0.525688 0.525688
0.538633 0.538633 0.538633
0.551619 0.551619 0.551619
0.564646 0.564646 0.564646
0.577713 0.577713 0.577713
0.590818 0.590818 0.590818
0.603962 0.603962 0.603962
0.617143 0.617143 0.617143
0.630361 0.630361 0.630361
0.643616 0.643616 0.643616
0.656906 0.656906 0.656906
0.670231 0.670231 0.670231
0.683590 0.683590 0.683590
0.696983 0.696983 0.696983
0.710410 0.710410 0.710410
0.723870 0.723870 0.723870
0.538156 0.538156 0.538156
0.551141 0.551141 0.551141
0.564166 0.564166 0.564166
0.577231 0.577231 0.577231
0.590335 0.590335 0.590335
0.603478 0.603478 0.603478
0.616658 0.616658 0.616658
0.629874 0.629874 0.629874
0.643127 0.643127 0.643127
0.656416 0.656416 0.656416
0.669740 0.669740 0.669740
0.683098 0.683098 0.683098
0.696490 0.696490 0.696490
0.709916 0.709916 0.709916
0.723374 0.723374 0.723374
0.736865 0.736865 0.736865
0.750387 0.750387 0.750387
0.162479 0.162479 0.162479
0.173412 0.173412 0.173412
0.184461 0.184461 0.184461
0.195621 0.195621 0.195621
0.206885 0.206885 0.206885
0.218246 0.218246 0.218246
0.229701 0.229701 0.229701
0.241243 0.241243 0.241243
0.252870 0.252870 0.252870
0.264578 0.264578 0.264578
0.276363 0.276363 0.276363
0.288222 0.288222 0.288222
0.300152 0.300152 0.300152
0.312151 0.312151 0.312151
0.324216 0.324216 0.324216
0.336345 0.336345 0.336345
0.348536 0.348536 0.348536
0.184053 0.184053 0.184053
0.195209 0.195209 0.195209
0.206469 0.206469 0.206469
0.217827 0.217827 0.217827
0.229278 0.229278 0.229278
0.240817 0.240817 0.240817
0.252441 0.252441 0.252441
0.264146 0.264146 0.264146
0.275928 0.275928 0.275928
0.287784 0.287784 0.287784
0.299712 0.299712 0.299712
0.311708 0.311708 0.311708
0.323771 0.323771 0.323771
0.335898 0.335898 0.335898
0.348086 0.348086 0.348086
0.360336 0.360336 0.360336
0.372643 0.372643 0.372643
0.206053 0.206053 0.206053
0.217407 0.217407 0.217407
0.228855 0.228855 0.228855
0.240391 0.240391 0.240391
0.252012 0.252012 0.252012
0.263714 0.263714 0.263714
0.275493 0.275493 0.275493
0.287347 0.287347 0.287347
0.299272 0.299272 0.299272
0.311265 0.311265 0.311265
0.323326 0.323326 0.323326
0.335450 0.335450 0.335450
0.347637 0.347637 0.347637
0.359884 0.359884 0.359884
0.372189 0.372189 0.372189
0.384551 0.384551 0.384551
0.396968 0.396968 0.396968
0.228432 0.228432 0.228432
0.239965 0.239965 0.239965
0.251583 0.251583 0.251583
0.263282 0.263282 0.263282
0.275058 0.275058 0.275058
0.286909 0.286909 0.286909
0.298832 0.298832 0.298832
0.310823 0.310823 0.310823
0.322881 0.322881 0.322881
0.335003 0.335003 0.335003
0.347188 0.347188 0.347188
0.359432 0.359432 0.359432
0.371735 0.371735 0.371735
0.384095 0.384095 0.384095
0.396510 0.396510 0.396510
0.408979 0.408979 0.408979
0.421499 0.421499 0.421499
0.251154 0.251154 0.251154
0.262850 0.262850 0.262850
0.274624 0.274624 0.274624
0.286472 0.286472 0.286472
0.298392 0.298392 0.298392
0.310381 0.310381 0.310381
0.322436 0.322436 0.322436
0.334556 0.334556 0.334556
0.346738 0.346738 0.346738
0.358981 0.358981 0.358981
0.371282 0.371282 0.371282
0.383639 0.383639 0.383639
0.396052 0.396052 0.396052
0.408519 0.408519 0.408519
0.421038 0.421038 0.421038
0.433608 0.433608 0.433608
0.446227 0.446227 0.446227
0.274189 0.274189 0.274189
0.286035 0.286035 0.286035
0.297952 0.297952 0.297952
0.309938 0.309938 0.309938
0.321992 0.321992 0.321992
0.334109 0.334109 0.334109
0.346289 0.346289 0.346289
0.358529 0.358529 0.358529
0.370828 0.370828 0.370828
0.383184 0.383184 0.383184
0.395595 0.395595 0.395595
0.408060 0.408060 0.408060
0.420576 0.420576 0.420576
0.433144 0.433144 0.433144
0.445762 0.445762 0.445762
0.458428 0.458428 0.458428
0.471141 0.471141 0.471141
0.297512 0.297512 0.297512
0.309496 0.309496 0.309496
0.321547 0.321547 0.321547
0.333662 0.333662 0.333662
0.345840 0.345840 0.345840
0.358078 0.358078 0.358078
0.370375 0.370375 0.370375
0.382728 0.382728 0.382728
0.395137 0.395137 0.395137
0.407600 0.407600 0.407600
0.420115 0.420115 0.420115
0.432681 0.432681 0.432681
0.445297 0.445297 0.445297
0.457961 0.457961 0.457961
0.470673 0.470673 0.470673
0.483431 0.483431 0.483431
0.496234 0.496234 0.496234
0.321102 0.321102 0.321102
0.333215 0.333215 0.333215
0.345391 0.345391 0.345391
0.357627 0.357627 0.357627
0.369921 0.369921 0.369921
0.382273 0.382273 0.382273
0.394680 0.394680 0.394680
0.407141 0.407141 0.407141
0.419654 0.419654 0.419654
0.432218 0.432218 0.432218
0.444832 0.444832 0.444832
0.457495 0.457495 0.457495
0.470204 0.470204 0.470204
0.482961 0.482961 0.482961
0.495762 0.495762 0.495762
0.508608 0.508608 0.508608
0.521497 0.521497 0.521497
0.344942 0.344942 0.344942
0.357175 0.357175 0.357175
0.369468 0.369468 0.369468
0.381817 0.381817 0.381817
0.394222 0.394222 0.394222
0.406681 0.406681 0.406681
0.419192 0.419192 0.419192
0.431755 0.431755 0.431755
0.444367 0.444367 0.444367
0.457028 0.457028 0.457028
0.469736 0.469736 0.469736
0.482491 0.482491 0.482491
0.495290 0.495290 0.495290
0.508135 0.508135 0.508135
0.521022 0.521022 0.521022
0.533952 0.533952 0.533952
0.546924 0.546924 0.546924
0.369015 0.369015 0.369015
0.381362 0.381362 0.381362
0.393765 0.393765 0.393765
0.406222 0.406222 0.406222
0.418731 0.418731 0.418731
0.431292 0.431292 0.431292
0.443902 0.443902 0.443902
0.456561 0.456561 0.456561
0.469268 0.469268 0.469268
0.482021 0.482021 0.482021
0.494819 0.494819 0.494819
0.507661 0.507661 0.507661
0.520547 0.520547 0.520547
0.533476 0.533476 0.533476
0.546446 0.546446 0.546446
0.559457 0.559457 0.559457
0.572508 0.572508 0.572508
0.393308 0.393308 0.393308
0.405763 0.405763 0.405763
0.418270 0.418270 0.418270
0.430829 0.430829 0.430829
0.443437 0.443437 0.443437
0.456095 0.456095 0.456095
0.468799 0.468799 0.468799
0.481551 0.481551 0.481551
0.494347 0.494347 0.494347
0.507188 0.507188 0.507188
0.520072 0.520072 0.520072
0.532999 0.532999 0.532999
0.545968 0.545968 0.545968
0.558977 0.558977 0.558977
0.572027 0.572027 0.572027
0.585115 0.585115 0.585115
0.598243 0.598243 0.598243
0.417809 0.417809 0.417809
0.430366 0.430366 0.430366
0.442973 0.442973 0.442973
0.455628 0.455628 0.455628
0.468331 0.468331 0.468331
0.481081 0.481081 0.481081
0.493876 0.493876 0.493876
0.506715 0.506715 0.506715
0.519598 0.519598 0.519598
0.532523 0.532523 0.532523
0.545490 0.545490 0.545490
0.558498 0.558498 0.558498
0.571546 0.571546 0.571546
0.584633 0.584633 0.584633
0.597759 0.597759 0.597759
0.610923 0.610923 0.610923
0.624124 0.624124 0.624124
0.442508 0.442508 0.442508
0.455162 0.455162 0.455162
0.467863 0.467863 0.467863
0.480611 0.480611 0.480611
0.493404 0.493404 0.493404
0.506242 0.506242 0.506242
0.519123 0.519123 0.519123
0.532047 0.532047 0.532047
0.545012 0.545012 0.545012
0.558019 0.558019 0.558019
0.571065 0.571065 0.571065
0.584151 0.584151 0.584151
0.597275 0.597275 0.597275
0.610438 0.610438 0.610438
0.623637 0.623637 0.623637
0.636873 0.636873 0.636873
0.650145 0.650145 0.650145
0.467395 0.467395 0.467395
0.480141 0.480141 0.480141
0.492933 0.492933 0.492933
0.505769 0.505769 0.505769
0.518648 0.518648 0.518648
0.531571 0.531571 0.531571
0.544535 0.544535 0.544535
0.557540 0.557540 0.557540
0.570585 0.570585 0.570585
0.583669 0.583669 0.583669
0.596792 0.596792 0.596792
0.609953 0.609953 0.609953
0.623151 0.623151 0.623151
0.636386 0.636386 0.636386
0.649656 0.649656 0.649656
0.662962 0.662962 0.662962
0.676303 0.676303 0.676303
0.492461 0.492461 0.492461
0.505296 0.505296 0.505296
0.518174 0.518174 0.518174
0.531094 0.531094 0.531094
0.544057 0.544057 0.544057
0.557060 0.557060 0.557060
0.570104 0.570104 0.570104
0.583187 0.583187 0.583187
0.596308 0.596308 0.596308
0.609468 0.609468 0.609468
0.622665 0.622665 0.622665
0.635898 0.635898 0.635898
0.649167 0.649167 0.649167
0.662472 0.662472 0.662472
0.675812 0.675812 0.675812
0.689185 0.689185 0.689185
0.702593 0.702593 0.702593
0.517699 0.517699 0.517699
0.530618 0.530618 0.530618
0.543579 0.543579 0.543579
0.556581 0.556581 0.556581
0.569623 0.569623 0.569623
0.582705 0.582705 0.582705
0.595825 0.595825 0.595825
0.608983 0.608983 0.608983
0.622179 0.622179 0.622179
0.635411 0.635411 0.635411
0.648679 0.648679 0.648679
0.661982 0.661982 0.661982
0.675320 0.675320 0.675320
0.688693 0.688693 0.688693
0.702099 0.702099 0.702099
0.715538 0.715538 0.715538
0.729010 0.729010 0.729010
0.543102 0.543102 0.543102
0.556102 0.556102 0.556102
0.569143 0.569143 0.569143
0.582223 0.582223 0.582223
0.595342 0.595342 0.595342
0.608498 0.608498 0.608498
0.621692 0.621692 0.621692
0.634923 0.634923 0.634923
0.648190 0.648190 0.648190
0.661492 0.661492 0.661492
0.674829 0.674829 0.674829
0.688200 0.688200 0.688200
0.701605 0.701605 0.701605
0.715043 0.715043 0.715043
0.728514 0.728514 0.728514
0.742017 0.742017 0.742017
0.755551 0.755551 0.755551
0.166633 0.166633 0.166633
0.177611 0.177611 0.177611
0.188704 0.188704 0.188704
0.199904 0.199904 0.199904
0.211205 0.211205 0.211205
0.222603 0.222603 0.222603
0.234091 0.234091 0.234091
0.245667 0.245667 0.245667
0.257325 0.257325 0.257325
0.269062 0.269062 0.269062
0.280876 0.280876 0.280876
0.292762 0.292762 0.292762
0.304719 0.304719 0.304719
0.316743 0.316743 0.316743
0.328833 0.328833 0.328833
0.340986 0.340986 0.340986
0.353200 0.353200 0.353200
0.188294 0.188294 0.188294
0.199490 0.199490 0.199490
0.210788 0.210788 0.210788
