assets/luts/bw_soft.cube
TITLE "Soft Grey"
LUT_3D_SIZE 9
0.100000 0.100000 0.100000
0.129900 0.129900 0.129900
0.159800 0.159800 0.159800
0.189700 0.189700 0.189700
0.219600 0.219600 0.219600
0.249500 0.249500 0.249500
0.279400 0.279400 0.279400
0.309300 0.309300 0.309300
0.339200 0.339200 0.339200
0.158700 0.158700 0.158700
0.188600 0.188600 0.188600
0.218500 0.218500 0.218500
0.248400 0.248400 0.248400
0.278300 0.278300 0.278300
0.308200 0.308200 0.308200
0.338100 0.338100 0.338100
0.368000 0.368000 0.368000
0.397900 0.397900 0.397900
0.217400 0.217400 0.217400
0.247300 0.247300 0.247300
0.277200 0.277200 0.277200
0.307100 0.307100 0.307100
0.337000 0.337000 0.337000
0.366900 0.366900 0.366900
0.396800 0.396800 0.396800
0.426700 0.426700 0.426700
0.456600 0.456600 0.456600
0.276100 0.276100 0.276100
0.306000 0.306000 0.306000
0.335900 0.335900 0.335900
0.365800 0.365800 0.365800
0.395700 0.395700 0.395700
0.425600 0.425600 0.425600
0.455500 0.455500 0.455500
0.485400 0.485400 0.485400
0.515300 0.515300 0.515300
0.334800 0.334800 0.334800
0.364700 0.364700 0.364700
0.394600 0.394600 0.394600
0.424500 0.424500 0.424500
0.454400 0.454400 0.454400
0.484300 0.484300 0.484300
0.514200 0.514200 0.514200
0.544100 0.544100 0.544100
0.574000 0.574000 0.574000
0.393500 0.393500 0.393500
0.423400 0.423400 0.423400
0.453300 0.453300 0.453300
0.483200 0.483200 0.483200
0.513100 0.513100 0.513100
0.543000 0.543000 0.543000
0.572900 0.572900 0.572900
0.602800 0.602800 0.602800
0.632700 0.632700 0.632700
0.452200 0.452200 0.452200
0.482100 0.482100 0.482100
0.512000 0.512000 0.512000
0.541900 0.541900 0.541900
0.571800 0.571800 0.571800
0.601700 0.601700 0.601700
0.631600 0.631600 0.631600
0.661500 0.661500 0.661500
0.691400 0.691400 0.691400
0.510900 0.510900 0.510900
0.540800 0.540800 0.540800
0.570700 0.570700 0.570700
0.600600 0.600600 0.600600
0.630500 0.630500 0.630500
0.660400 0.660400 0.660400
0.690300 0.690300 0.690300
0.720200 0.720200 0.720200
0.750100 0.750100 0.750100
0.569600 0.569600 0.569600
0.599500 0.599500 0.599500
0.629400 0.629400 0.629400
0.659300 0.659300 0.659300
0.689200 0.689200 0.689200
0.719100 0.719100 0.719100
0.749000 0.749000 0.749000
0.778900 0.778900 0.778900
0.808800 0.808800 0.808800
0.111400 0.111400 0.111400
0.141300 0.141300 0.141300
0.171200 0.171200 0.171200
0.201100 0.201100 0.201100
0.231000 0.231000 0.231000
0.260900 0.260900 0.260900
0.290800 0.290800 0.290800
0.320700 0.320700 0.320700
0.350600 0.350600 0.350600
0.170100 0.170100 0.170100
0.200000 0.200000 0.200000
0.229900 0.229900 0.229900
0.259800 0.259800 0.259800
0.289700 0.289700 0.289700
0.319600 0.319600 0.319600
0.349500 0.349500 0.349500
0.379400 0.379400 0.379400
0.409300 0.409300 0.409300
0.228800 0.228800 0.228800
0.258700 0.258700 0.258700
0.288600 0.288600 0.288600
0.318500 0.318500 0.318500
0.348400 0.348400 0.348400
0.378300 0.378300 0.378300
0.408200 0.408200 0.408200
0.438100 0.438100 0.438100
0.468000 0.468000 0.468000
0.287500 0.287500 0.287500
0.317400 0.317400 0.317400
0.347300 0.347300 0.347300
0.377200 0.377200 0.377200
0.407100 0.407100 0.407100
0.437000 0.437000 0.437000
0.466900 0.466900 0.466900
0.496800 0.496800 0.496800
0.526700 0.526700 0.526700
0.346200 0.346200 0.346200
0.376100 0.376100 0.376100
0.406000 0.406000 0.406000
0.435900 0.435900 0.435900
0.465800 0.465800 0.465800
0.495700 0.495700 0.495700
0.525600 0.525600 0.525600
0.555500 0.555500 0.555500
0.585400 0.585400 0.585400
0.404900 0.404900 0.404900
0.434800 0.434800 0.434800
0.464700 0.464700 0.464700
0.494600 0.494600 0.494600
0.524500 0.524500 0.524500
0.554400 0.554400 0.554400
0.584300 0.584300 0.584300
0.614200 0.614200 0.614200
0.644100 0.644100 0.644100
0.463600 0.463600 0.463600
0.493500 0.493500 0.493500
0.523400 0.523400 0.523400
0.553300 0.553300 0.553300
0.583200 0.583200 0.583200
0.613100 0.613100 0.613100
0.643000 0.643000 0.643000
0.672900 0.672900 0.672900
0.702800 0.702800 0.702800
0.522300 0.522300 0.522300
0.552200 0.552200 0.552200
0.582100 0.582100 0.582100
0.612000 0.612000 0.612000
0.641900 0.641900 0.641900
0.671800 0.671800 0.671800
0.701700 0.701700 0.701700
0.731600 0.731600 0.731600
0.761500 0.761500 0.761500
0.581000 0.581000 0.581000
0.610900 0.610900 0.610900
0.640800 0.640800 0.640800
0.670700 0.670700 0.670700
0.700600 0.700600 0.700600
0.730500 0.730500 0.730500
0.760400 0.760400 0.760400
0.790300 0.790300 0.790300
0.820200 0.820200 0.820200
0.122800 0.122800 0.122800
0.152700 0.152700 0.152700
0.182600 0.182600 0.182600
0.212500 0.212500 0.212500
0.242400 0.242400 0.242400
0.272300 0.272300 0.272300
0.302200 0.302200 0.302200
0.332100 0.332100 0.332100
0.362000 0.362000 0.362000
0.181500 0.181500 0.181500
0.211400 0.211400 0.211400
0.241300 0.241300 0.241300
0.271200 0.271200 0.271200
0.301100 0.301100 0.301100
0.331000 0.331000 0.331000
0.360900 0.360900 0.360900
0.390800 0.390800 0.390800
0.420700 0.420700 0.420700
0.240200 0.240200 0.240200
0.270100 0.270100 0.270100
0.300000 0.300000 0.300000
0.329900 0.329900 0.329900
0.359800 0.359800 0.359800
0.389700 0.389700 0.389700
0.419600 0.419600 0.419600
0.449500 0.449500 0.449500
0.479400 0.479400 0.479400
0.298900 0.298900 0.298900
0.328800 0.328800 0.328800
0.358700 0.358700 0.358700
0.388600 0.388600 0.388600
0.418500 0.418500 0.418500
0.448400 0.448400 0.448400
0.478300 0.478300 0.478300
0.508200 0.508200 0.508200
0.538100 0.538100 0.538100
0.357600 0.357600 0.357600
0.387500 0.387500 0.387500
0.417400 0.417400 0.417400
0.447300 0.447300 0.447300
0.477200 0.477200 0.477200
0.507100 0.507100 0.507100
0.537000 0.537000 0.537000
0.566900 0.566900 0.566900
0.596800 0.596800 0.596800
0.416300 0.416300 0.416300
0.446200 0.446200 0.446200
0.476100 0.476100 0.476100
0.506000 0.506000 0.506000
0.535900 0.535900 0.535900
0.565800 0.565800 0.565800
0.595700 0.595700 0.595700
0.625600 0.625600 0.625600
0.655500 0.655500 0.655500
0.475000 0.475000 0.475000
0.504900 0.504900 0.504900
0.534800 0.534800 0.534800
0.564700 0.564700 0.564700
0.594600 0.594600 0.594600
0.624500 0.624500 0.624500
0.654400 0.654400 0.654400
0.684300 0.684300 0.684300
0.714200 0.714200 0.714200
0.533700 0.533700 0.533700
0.563600 0.563600 0.563600
0.593500 0.593500 0.593500
0.623400 0.623400 0.623400
0.653300 0.653300 0.653300
0.683200 0.683200 0.683200
0.713100 0.713100 0.713100
0.743000 0.743000 0.743000
0.772900 0.772900 0.772900
0.592400 0.592400 0.592400
0.622300 0.622300 0.622300
0.652200 0.652200 0.652200
0.682100 0.682100 0.682100
0.712000 0.712000 0.712000
0.741900 0.741900 0.741900
0.771800 0.771800 0.771800
0.801700 0.801700 0.801700
0.831600 0.831600 0.831600
0.134200 0.134200 0.134200
0.164100 0.164100 0.164100
0.194000 0.194000 0.194000
0.223900 0.223900 0.223900
0.253800 0.253800 0.253800
0.283700 0.283700 0.283700
0.313600 0.313600 0.313600
0.343500 0.343500 0.343500
0.373400 0.373400 0.373400
0.192900 0.192900 0.192900
0.222800 0.222800 0.222800
0.252700 0.252700 0.252700
0.282600 0.282600 0.282600
0.312500 0.312500 0.312500
0.342400 0.342400 0.342400
0.372300 0.372300 0.372300
0.402200 0.402200 0.402200
0.432100 0.432100 0.432100
0.251600 0.251600 0.251600
0.281500 0.281500 0.281500
0.311400 0.311400 0.311400
0.341300 0.341300 0.341300
0.371200 0.371200 0.371200
0.401100 0.401100 0.401100
0.431000 0.431000 0.431000
0.460900 0.460900 0.460900
0.490800 0.490800 0.490800
0.310300 0.310300 0.310300
0.340200 0.340200 0.340200
0.370100 0.370100 0.370100
0.400000 0.400000 0.400000
0.429900 0.429900 0.429900
0.459800 0.459800 0.459800
0.489700 0.489700 0.489700
0.519600 0.519600 0.519600
0.549500 0.549500 0.549500
0.369000 0.369000 0.369000
0.398900 0.398900 0.398900
0.428800 0.428800 0.428800
0.458700 0.458700 0.458700
0.488600 0.488600 0.488600
0.518500 0.518500 0.518500
0.548400 0.548400 0.548400
0.578300 0.578300 0.578300
0.608200 0.608200 0.608200
0.427700 0.427700 0.427700
0.457600 0.457600 0.457600
0.487500 0.487500 0.487500
0.517400 0.517400 0.517400
0.547300 0.547300 0.547300
0.577200 0.577200 0.577200
0.607100 0.607100 0.607100
0.637000 0.637000 0.637000
0.666900 0.666900 0.666900
0.486400 0.486400 0.486400
0.516300 0.516300 0.516300
0.546200 0.546200 0.546200
0.576100 0.576100 0.576100
0.606000 0.606000 0.606000
0.635900 0.635900 0.635900
0.665800 0.665800 0.665800
0.695700 0.695700 0.695700
0.725600 0.725600 0.725600
0.545100 0.545100 0.545100
0.575000 0.575000 0.575000
0.604900 0.604900 0.604900
0.634800 0.634800 0.634800
0.664700 0.664700 0.664700
0.694600 0.694600 0.694600
0.724500 0.724500 0.724500
0.754400 0.754400 0.754400
0.784300 0.784300 0.784300
0.603800 0.603800 0.603800
0.633700 0.633700 0.633700
0.663600 0.663600 0.663600
0.693500 0.693500 0.693500
0.723400 0.723400 0.723400
0.753300 0.753300 0.753300
0.783200 0.783200 0.783200
0.813100 0.813100 0.813100
0.843000 0.843000 0.843000
0.145600 0.145600 0.145600
0.175500 0.175500 0.175500
0.205400 0.205400 0.205400
0.235300 0.235300 0.235300
0.265200 0.265200 0.265200
0.295100 0.295100 0.295100
0.325000 0.325000 0.325000
0.354900 0.354900 0.354900
0.384800 0.384800 0.384800
0.204300 0.204300 0.204300
0.234200 0.234200 0.234200
0.264100 0.264100 0.264100
0.294000 0.294000 0.294000
0.323900 0.323900 0.323900
0.353800 0.353800 0.353800
0.383700 0.383700 0.383700
0.413600 0.413600 0.413600
0.443500 0.443500 0.443500
0.263000 0.263000 0.263000
0.292900 0.292900 0.292900
0.322800 0.322800 0.322800
0.352700 0.352700 0.352700
0.382600 0.382600 0.382600
0.412500 0.412500 0.412500
0.442400 0.442400 0.442400
0.472300 0.472300 0.472300
0.502200 0.502200 0.502200
0.321700 0.321700 0.321700
0.351600 0.351600 0.351600
0.381500 0.381500 0.381500
0.411400 0.411400 0.411400
0.441300 0.441300 0.441300
0.471200 0.471200 0.471200
0.501100 0.501100 0.501100
0.531000 0.531000 0.531000
0.560900 0.560900 0.560900
0.380400 0.380400 0.380400
0.410300 0.410300 0.410300
0.440200 0.440200 0.440200
0.470100 0.470100 0.470100
0.500000 0.500000 0.500000
0.529900 0.529900 0.529900
0.559800 0.559800 0.559800
0.589700 0.589700 0.589700
0.619600 0.619600 0.619600
0.439100 0.439100 0.439100
0.469000 0.469000 0.469000
0.498900 0.498900 0.498900
0.528800 0.528800 0.528800
0.558700 0.558700 0.558700
0.588600 0.588600 0.588600
0.618500 0.618500 0.618500
0.648400 0.648400 0.648400
0.678300 0.678300 0.678300
0.497800 0.497800 0.497800
0.527700 0.527700 0.527700
0.557600 0.557600 0.557600
0.587500 0.587500 0.587500
0.617400 0.617400 0.617400
0.647300 0.647300 0.647300
0.677200 0.677200 0.677200
0.707100 0.707100 0.707100
0.737000 0.737000 0.737000
0.556500 0.556500 0.556500
0.586400 0.586400 0.586400
0.616300 0.616300 0.616300
0.646200 0.646200 0.646200
0.676100 0.676100 0.676100
0.706000 0.706000 0.706000
0.735900 0.735900 0.735900
0.765800 0.765800 0.765800
0.795700 0.795700 0.795700
0.615200 0.615200 0.615200
0.645100 0.645100 0.645100
0.675000 0.675000 0.675000
0.704900 0.704900 0.704900
0.734800 0.734800 0.734800
0.764700 0.764700 0.764700
0.794600 0.794600 0.794600
0.824500 0.824500 0.824500
0.854400 0.854400 0.854400
0.157000 0.157000 0.157000
0.186900 0.186900 0.186900
0.216800 0.216800 0.216800
0.246700 0.246700 0.246700
0.276600 0.276600 0.276600
0.306500 0.306500 0.306500
0.336400 0.336400 0.336400
0.366300 0.366300 0.366300
0.396200 0.396200 0.396200
0.215700 0.215700 0.215700
0.245600 0.245600 0.245600
0.275500 0.275500 0.275500
0.305400 0.305400 0.305400
0.335300 0.335300 0.335300
0.365200 0.365200 0.365200
0.395100 0.395100 0.395100
0.425000 0.425000 0.425000
0.454900 0.454900 0.454900
0.274400 0.274400 0.274400
0.304300 0.304300 0.304300
0.334200 0.334200 0.334200
0.364100 0.364100 0.364100
0.394000 0.394000 0.394000
0.423900 0.423900 0.423900
0.453800 0.453800 0.453800
0.483700 0.483700 0.483700
0.513600 0.513600 0.513600
0.333100 0.333100 0.333100
0.363000 0.363000 0.363000
0.392900 0.392900 0.392900
0.422800 0.422800 0.422800
0.452700 0.452700 0.452700
0.482600 0.482600 0.482600
0.512500 0.512500 0.512500
0.542400 0.542400 0.542400
0.572300 0.572300 0.572300
0.391800 0.391800 0.391800
0.421700 0.421700 0.421700
0.451600 0.451600 0.451600
0.481500 0.481500 0.481500
0.511400 0.511400 0.511400
0.541300 0.541300 0.541300
0.571200 0.571200 0.571200
0.601100 0.601100 0.601100
0.631000 0.631000 0.631000
0.450500 0.450500 0.450500
0.480400 0.480400 0.480400
0.510300 0.510300 0.510300
0.540200 0.540200 0.540200
0.570100 0.570100 0.570100
0.600000 0.600000 0.600000
0.629900 0.629900 0.629900
0.659800 0.659800 0.659800
0.689700 0.689700 0.689700
0.509200 0.509200 0.509200
0.539100 0.539100 0.539100
0.569000 0.569000 0.569000
0.598900 0.598900 0.598900
0.628800 0.628800 0.628800
0.658700 0.658700 0.658700
0.688600 0.688600 0.688600
0.718500 0.718500 0.718500
0.748400 0.748400 0.748400
0.567900 0.567900 0.567900
0.597800 0.597800 0.597800
0.627700 0.627700 0.627700
0.657600 0.657600 0.657600
0.687500 0.687500 0.687500
0.717400 0.717400 0.717400
0.747300 0.747300 0.747300
0.777200 0.777200 0.777200
0.807100 0.807100 0.807100
0.626600 0.626600 0.626600
0.656500 0.656500 0.656500
0.686400 0.686400 0.686400
0.716300 0.716300 0.716300
0.746200 0.746200 0.746200
0.776100 0.776100 0.776100
0.806000 0.806000 0.806000
0.835900 0.835900 0.835900
0.865800 0.865800 0.865800
0.168400 0.168400 0.168400
0.198300 0.198300 0.198300
0.228200 0.228200 0.228200
0.258100 0.258100 0.258100
0.288000 0.288000 0.288000
0.317900 0.317900 0.317900
0.347800 0.347800 0.347800
0.377700 0.377700 0.377700
0.407600 0.407600 0.407600
0.227100 0.227100 0.227100
0.257000 0.257000 0.257000
0.286900 0.286900 0.286900
0.316800 0.316800 0.316800
0.346700 0.346700 0.346700
0.376600 0.376600 0.376600
0.406500 0.406500 0.406500
0.436400 0.436400 0.436400
0.466300 0.466300 0.466300
0.285800 0.285800 0.285800
0.315700 0.315700 0.315700
0.345600 0.345600 0.345600
0.375500 0.375500 0.375500
0.405400 0.405400 0.405400
0.435300 0.435300 0.435300
0.465200 0.465200 0.465200
0.495100 0.495100 0.495100
0.525000 0.525000 0.525000
0.344500 0.344500 0.344500
0.374400 0.374400 0.374400
0.404300 0.404300 0.404300
0.434200 0.434200 0.434200
0.464100 0.464100 0.464100
0.494000 0.494000 0.494000
0.523900 0.523900 0.523900
0.553800 0.553800 0.553800
0.583700 0.583700 0.583700
0.403200 0.403200 0.403200
0.433100 0.433100 0.433100
0.463000 0.463000 0.463000
0.492900 0.492900 0.492900
0.522800 0.522800 0.522800
0.552700 0.552700 0.552700
0.582600 0.582600 0.582600
0.612500 0.612500 0.612500
0.642400 0.642400 0.642400
0.461900 0.461900 0.461900
0.491800 0.491800 0.491800
0.521700 0.521700 0.521700
0.551600 0.551600 0.551600
0.581500 0.581500 0.581500
0.611400 0.611400 0.611400
0.641300 0.641300 0.641300
0.671200 0.671200 0.671200
0.701100 0.701100 0.701100
0.520600 0.520600 0.520600
0.550500 0.550500 0.550500
0.580400 0.580400 0.580400
0.610300 0.610300 0.610300
0.640200 0.640200 0.640200
0.670100 0.670100 0.670100
0.700000 0.700000 0.700000
0.729900 0.729900 0.729900
0.759800 0.759800 0.759800
0.579300 0.579300 0.579300
0.609200 0.609200 0.609200
0.639100 0.639100 0.639100
0.669000 0.669000 0.669000
0.698900 0.698900 0.698900
0.728800 0.728800 0.728800
0.758700 0.758700 0.758700
0.788600 0.788600 0.788600
0.818500 0.818500 0.818500
0.638000 0.638000 0.638000
0.667900 0.667900 0.667900
0.697800 0.697800 0.697800
0.727700 0.727700 0.727700
0.757600 0.757600 0.757600
0.787500 0.787500 0.787500
0.817400 0.817400 0.817400
0.847300 0.847300 0.847300
0.877200 0.877200 0.877200
0.179800 0.179800 0.179800
0.209700 0.209700 0.209700
0.239600 0.239600 0.239600
0.269500 0.269500 0.269500
0.299400 0.299400 0.299400
0.329300 0.329300 0.329300
0.359200 0.359200 0.359200
0.389100 0.389100 0.389100
0.419000 0.419000 0.419000
0.238500 0.238500 0.238500
0.268400 0.268400 0.268400
0.298300 0.298300 0.298300
0.328200 0.328200 0.328200
0.358100 0.358100 0.358100
0.388000 0.388000 0.388000
0.417900 0.417900 0.417900
0.447800 0.447800 0.447800
0.477700 0.477700 0.477700
0.297200 0.297200 0.297200
0.327100 0.327100 0.327100
0.357000 0.357000 0.357000
0.386900 0.386900 0.386900
0.416800 0.416800 0.416800
0.446700 0.446700 0.446700
0.476600 0.476600 0.476600
0.506500 0.506500 0.506500
0.536400 0.536400 0.536400
0.355900 0.355900 0.355900
0.385800 0.385800 0.385800
0.415700 0.415700 0.415700
0.445600 0.445600 0.445600
0.475500 0.475500 0.475500
0.505400 0.505400 0.505400
0.535300 0.535300 0.535300
0.565200 0.565200 0.565200
0.595100 0.595100 0.595100
0.414600 0.414600 0.414600
0.444500 0.444500 0.444500
0.474400 0.474400 0.474400
0.504300 0.504300 0.504300
0.534200 0.534200 0.534200
0.564100 0.564100 0.564100
0.594000 0.594000 0.594000
0.623900 0.623900 0.623900
0.653800 0.653800 0.653800
0.473300 0.473300 0.473300
0.503200 0.503200 0.503200
0.533100 0.533100 0.533100
0.563000 0.563000 0.563000
0.592900 0.592900 0.592900
0.622800 0.622800 0.622800
0.652700 0.652700 0.652700
0.682600 0.682600 0.682600
0.712500 0.712500 0.712500
0.532000 0.532000 0.532000
0.561900 0.561900 0.561900
0.591800 0.591800 0.591800
0.621700 0.621700 0.621700
0.651600 0.651600 0.651600
0.681500 0.681500 0.681500
0.711400 0.711400 0.711400
0.741300 0.741300 0.741300
0.771200 0.771200 0.771200
0.590700 0.590700 0.590700
0.620600 0.620600 0.620600
0.650500 0.650500 0.650500
0.680400 0.680400 0.680400
0.710300 0.710300 0.710300
0.740200 0.740200 0.740200
0.770100 0.770100 0.770100
0.800000 0.800000 0.800000
0.829900 0.829900 0.829900
0.649400 0.649400 0.649400
0.679300 0.679300 0.679300
0.709200 0.709200 0.709200
0.739100 0.739100 0.739100
0.769000 0.769000 0.769000
0.798900 0.798900 0.798900
0.828800 0.828800 0.828800
0.858700 0.858700 0.858700
0.888600 0.888600 0.888600
0.191200 0.191200 0.191200
0.221100 0.221100 0.221100
0.251000 0.251000 0.251000
0.280900 0.280900 0.280900
0.310800 0.310800 0.310800
0.340700 0.340700 0.340700
0.370600 0.370600 0.370600
0.400500 0.400500 0.400500
0.430400 0.430400 0.430400
0.249900 0.249900 0.249900
0.279800 0.279800 0.279800
0.309700 0.309700 0.309700
0.339600 0.339600 0.339600
0.369500 0.369500 0.369500
0.399400 0.399400 0.399400
0.429300 0.429300 0.429300
0.459200 0.459200 0.459200
0.489100 0.489100 0.489100
0.308600 0.308600 0.308600
0.338500 0.338500 0.338500
0.368400 0.368400 0.368400
0.398300 0.398300 0.398300
0.428200 0.428200 0.428200
0.458100 0.458100 0.458100
0.488000 0.488000 0.488000
0.517900 0.517900 0.517900
0.547800 0.547800 0.547800
0.367300 0.367300 0.367300
0.397200 0.397200 0.397200
0.427100 0.427100 0.427100
0.457000 0.457000 0.457000
0.486900 0.486900 0.486900
0.516800 0.516800 0.516800
0.546700 0.546700 0.546700
0.576600 0.576600 0.576600
0.606500 0.606500 0.606500
0.426000 0.426000 0.426000
0.455900 0.455900 0.455900
0.485800 0.485800 0.485800
0.515700 0.515700 0.515700
0.545600 0.545600 0.545600
0.575500 0.575500 0.575500
0.605400 0.605400 0.605400
0.635300 0.635300 0.635300
0.665200 0.665200 0.665200
0.484700 0.484700 0.484700
0.514600 0.514600 0.514600
0.544500 0.544500 0.544500
0.574400 0.574400 0.574400
0.604300 0.604300 0.604300
0.634200 0.634200 0.634200
0.664100 0.664100 0.664100
0.694000 0.694000 0.694000
0.723900 0.723900 0.723900
0.543400 0.543400 0.543400
0.573300 0.573300 0.573300
0.603200 0.603200 0.603200
0.633100 0.633100 0.633100
0.663000 0.663000 0.663000
0.692900 0.692900 0.692900
0.722800 0.722800 0.722800
0.752700 0.752700 0.752700
0.782600 0.782600 0.782600
0.602100 0.602100 0.602100
0.632000 0.632000 0.632000
0.661900 0.661900 0.661900
0.691800 0.691800 0.691800
0.721700 0.721700 0.721700
0.751600 0.751600 0.751600
0.781500 0.781500 0.781500
0.811400 0.811400 0.811400
0.841300 0.841300 0.841300
0.660800 0.660800 0.660800
0.690700 0.690700 0.690700
0.720600 0.720600 0.720600
0.750500 0.750500 0.750500
0.780400 0.780400 0.780400
0.810300 0.810300 0.810300
0.840200 0.840200 0.840200
0.870100 0.870100 0.870100
0.900000 0.900000 0.900000
