assets/luts/bw_soft.cube
TITLE "Soft Grey"
LUT_3D_SIZE 17
0.100000 0.100000 0.100000
0.114950 0.114950 0.114950
0.129900 0.129900 0.129900
0.144850 0.144850 0.144850
0.159800 0.159800 0.159800
0.174750 0.174750 0.174750
0.189700 0.189700 0.189700
0.204650 0.204650 0.204650
0.219600 0.219600 0.219600
0.234550 0.234550 0.234550
0.249500 0.249500 0.249500
0.264450 0.264450 0.264450
0.279400 0.279400 0.279400
0.294350 0.294350 0.294350
0.309300 0.309300 0.309300
0.324250 0.324250 0.324250
0.339200 0.339200 0.339200
0.129350 0.129350 0.129350
0.144300 0.144300 0.144300
0.159250 0.159250 0.159250
0.174200 0.174200 0.174200
0.189150 0.189150 0.189150
0.204100 0.204100 0.204100
0.219050 0.219050 0.219050
0.234000 0.234000 0.234000
0.248950 0.248950 0.248950
0.263900 0.263900 0.263900
0.278850 0.278850 0.278850
0.293800 0.293800 0.293800
0.308750 0.308750 0.308750
0.323700 0.323700 0.323700
0.338650 0.338650 0.338650
0.353600 0.353600 0.353600
0.368550 0.368550 0.368550
0.158700 0.158700 0.158700
0.173650 0.173650 0.173650
0.188600 0.188600 0.188600
0.203550 0.203550 0.203550
0.218500 0.218500 0.218500
0.233450 0.233450 0.233450
0.248400 0.248400 0.248400
0.263350 0.263350 0.263350
0.278300 0.278300 0.278300
0.293250 0.293250 0.293250
0.308200 0.308200 0.308200
0.323150 0.323150 0.323150
0.338100 0.338100 0.338100
0.353050 0.353050 0.353050
0.368000 0.368000 0.368000
0.382950 0.382950 0.382950
0.397900 0.397900 0.397900
0.188050 0.188050 0.188050
0.203000 0.203000 0.203000
0.217950 0.217950 0.217950
0.232900 0.232900 0.232900
0.247850 0.247850 0.247850
0.262800 0.262800 0.262800
0.277750 0.277750 0.277750
0.292700 0.292700 0.292700
0.307650 0.307650 0.307650
0.322600 0.322600 0.322600
0.337550 0.337550 0.337550
0.352500 0.352500 0.352500
0.367450 0.367450 0.367450
0.382400 0.382400 0.382400
0.397350 0.397350 0.397350
0.412300 0.412300 0.412300
0.427250 0.427250 0.427250
0.217400 0.217400 0.217400
0.232350 0.232350 0.232350
0.247300 0.247300 0.247300
0.262250 0.262250 0.262250
0.277200 0.277200 0.277200
0.292150 0.292150 0.292150
0.307100 0.307100 0.307100
0.322050 0.322050 0.322050
0.337000 0.337000 0.337000
0.351950 0.351950 0.351950
0.366900 0.366900 0.366900
0.381850 0.381850 0.381850
0.396800 0.396800 0.396800
0.411750 0.411750 0.411750
0.426700 0.426700 0.426700
0.441650 0.441650 0.441650
0.456600 0.456600 0.456600
0.246750 0.246750 0.246750
0.261700 0.261700 0.261700
0.276650 0.276650 0.276650
0.291600 0.291600 0.291600
0.306550 0.306550 0.306550
0.321500 0.321500 0.321500
0.336450 0.336450 0.336450
0.351400 0.351400 0.351400
0.366350 0.366350 0.366350
0.381300 0.381300 0.381300
0.396250 0.396250 0.396250
0.411200 0.411200 0.411200
0.426150 0.426150 0.426150
0.441100 0.441100 0.441100
0.456050 0.456050 0.456050
0.471000 0.471000 0.471000
0.485950 0.485950 0.485950
0.276100 0.276100 0.276100
0.291050 0.291050 0.291050
0.306000 0.306000 0.306000
0.320950 0.320950 0.320950
0.335900 0.335900 0.335900
0.350850 0.350850 0.350850
0.365800 0.365800 0.365800
0.380750 0.380750 0.380750
0.395700 0.395700 0.395700
0.410650 0.410650 0.410650
0.425600 0.425600 0.425600
0.440550 0.440550 0.440550
0.455500 0.455500 0.455500
0.470450 0.470450 0.470450
0.485400 0.485400 0.485400
0.500350 0.500350 0.500350
0.515300 0.515300 0.515300
0.305450 0.305450 0.305450
0.320400 0.320400 0.320400
0.335350 0.335350 0.335350
0.350300 0.350300 0.350300
0.365250 0.365250 0.365250
0.380200 0.380200 0.380200
0.395150 0.395150 0.395150
0.410100 0.410100 0.410100
0.425050 0.425050 0.425050
0.440000 0.440000 0.440000
0.454950 0.454950 0.454950
0.469900 0.469900 0.469900
0.484850 0.484850 0.484850
0.499800 0.499800 0.499800
0.514750 0.514750 0.514750
0.529700 0.529700 0.529700
0.544650 0.544650 0.544650
0.334800 0.334800 0.334800
0.349750 0.349750 0.349750
0.364700 0.364700 0.364700
0.379650 0.379650 0.379650
0.394600 0.394600 0.394600
0.409550 0.409550 0.409550
0.424500 0.424500 0.424500
0.439450 0.439450 0.439450
0.454400 0.454400 0.454400
0.469350 0.469350 0.469350
0.484300 0.484300 0.484300
0.499250 0.499250 0.499250
0.514200 0.514200 0.514200
0.529150 0.529150 0.529150
0.544100 0.544100 0.544100
0.559050 0.559050 0.559050
0.574000 0.574000 0.574000
0.364150 0.364150 0.364150
0.379100 0.379100 0.379100
0.394050 0.394050 0.394050
0.409000 0.409000 0.409000
0.423950 0.423950 0.423950
0.438900 0.438900 0.438900
0.453850 0.453850 0.453850
0.468800 0.468800 0.468800
0.483750 0.483750 0.483750
0.498700 0.498700 0.498700
0.513650 0.513650 0.513650
0.528600 0.528600 0.528600
0.543550 0.543550 0.543550
0.558500 0.558500 0.558500
0.573450 0.573450 0.573450
0.588400 0.588400 0.588400
0.603350 0.603350 0.603350
0.393500 0.393500 0.393500
0.408450 0.408450 0.408450
0.423400 0.423400 0.423400
0.438350 0.438350 0.438350
0.453300 0.453300 0.453300
0.468250 0.468250 0.468250
0.483200 0.483200 0.483200
0.498150 0.498150 0.498150
0.513100 0.513100 0.513100
0.528050 0.528050 0.528050
0.543000 0.543000 0.543000
0.557950 0.557950 0.557950
0.572900 0.572900 0.572900
0.587850 0.587850 0.587850
0.602800 0.602800 0.602800
0.617750 0.617750 0.617750
0.632700 0.632700 0.632700
0.422850 0.422850 0.422850
0.437800 0.437800 0.437800
0.452750 0.452750 0.452750
0.467700 0.467700 0.467700
0.482650 0.482650 0.482650
0.497600 0.497600 0.497600
0.512550 0.512550 0.512550
0.527500 0.527500 0.527500
0.542450 0.542450 0.542450
0.557400 0.557400 0.557400
0.572350 0.572350 0.572350
0.587300 0.587300 0.587300
0.602250 0.602250 0.602250
0.617200 0.617200 0.617200
0.632150 0.632150 0.632150
0.647100 0.647100 0.647100
0.662050 0.662050 0.662050
0.452200 0.452200 0.452200
0.467150 0.467150 0.467150
0.482100 0.482100 0.482100
0.497050 0.497050 0.497050
0.512000 0.512000 0.512000
0.526950 0.526950 0.526950
0.541900 0.541900 0.541900
0.556850 0.556850 0.556850
0.571800 0.571800 0.571800
0.586750 0.586750 0.586750
0.601700 0.601700 0.601700
0.616650 0.616650 0.616650
0.631600 0.631600 0.631600
0.646550 0.646550 0.646550
0.661500 0.661500 0.661500
0.676450 0.676450 0.676450
0.691400 0.691400 0.691400
0.481550 0.481550 0.481550
0.496500 0.496500 0.496500
0.511450 0.511450 0.511450
0.526400 0.526400 0.526400
0.541350 0.541350 0.541350
0.556300 0.556300 0.556300
0.571250 0.571250 0.571250
0.586200 0.586200 0.586200
0.601150 0.601150 0.601150
0.616100 0.616100 0.616100
0.631050 0.631050 0.631050
0.646000 0.646000 0.646000
0.660950 0.660950 0.660950
0.675900 0.675900 0.675900
0.690850 0.690850 0.690850
0.705800 0.705800 0.705800
0.720750 0.720750 0.720750
0.510900 0.510900 0.510900
0.525850 0.525850 0.525850
0.540800 0.540800 0.540800
0.555750 0.555750 0.555750
0.570700 0.570700 0.570700
0.585650 0.585650 0.585650
0.600600 0.600600 0.600600
0.615550 0.615550 0.615550
0.630500 0.630500 0.630500
0.645450 0.645450 0.645450
0.660400 0.660400 0.660400
0.675350 0.675350 0.675350
0.690300 0.690300 0.690300
0.705250 0.705250 0.705250
0.720200 0.720200 0.720200
0.735150 0.735150 0.735150
0.750100 0.750100 0.750100
0.540250 0.540250 0.540250
0.555200 0.555200 0.555200
0.570150 0.570150 0.570150
0.585100 0.585100 0.585100
0.600050 0.600050 0.600050
0.615000 0.615000 0.615000
0.629950 0.629950 0.629950
0.644900 0.644900 0.644900
0.659850 0.659850 0.659850
0.674800 0.674800 0.674800
0.689750 0.689750 0.689750
0.704700 0.704700 0.704700
0.719650 0.719650 0.719650
0.734600 0.734600 0.734600
0.749550 0.749550 0.749550
0.764500 0.764500 0.764500
0.779450 0.779450 0.779450
0.569600 0.569600 0.569600
0.584550 0.584550 0.584550
0.599500 0.599500 0.599500
0.614450 0.614450 0.614450
0.629400 0.629400 0.629400
0.644350 0.644350 0.644350
0.659300 0.659300 0.659300
0.674250 0.674250 0.674250
0.689200 0.689200 0.689200
0.704150 0.704150 0.704150
0.719100 0.719100 0.719100
0.734050 0.734050 0.734050
0.749000 0.749000 0.749000
0.763950 0.763950 0.763950
0.778900 0.778900 0.778900
0.793850 0.793850 0.793850
0.808800 0.808800 0.808800
0.105700 0.105700 0.105700
0.120650 0.120650 0.120650
0.135600 0.135600 0.135600
0.150550 0.150550 0.150550
0.165500 0.165500 0.165500
0.180450 0.180450 0.180450
0.195400 0.195400 0.195400
0.210350 0.210350 0.210350
0.225300 0.225300 0.225300
0.240250 0.240250 0.240250
0.255200 0.255200 0.255200
0.270150 0.270150 0.270150
0.285100 0.285100 0.285100
0.300050 0.300050 0.300050
0.315000 0.315000 0.315000
0.329950 0.329950 0.329950
0.344900 0.344900 0.344900
0.135050 0.135050 0.135050
0.150000 0.150000 0.150000
0.164950 0.164950 0.164950
0.179900 0.179900 0.179900
0.194850 0.194850 0.194850
0.209800 0.209800 0.209800
0.224750 0.224750 0.224750
0.239700 0.239700 0.239700
0.254650 0.254650 0.254650
0.269600 0.269600 0.269600
0.284550 0.284550 0.284550
0.299500 0.299500 0.299500
0.314450 0.314450 0.314450
0.329400 0.329400 0.329400
0.344350 0.344350 0.344350
0.359300 0.359300 0.359300
0.374250 0.374250 0.374250
0.164400 0.164400 0.164400
0.179350 0.179350 0.179350
0.194300 0.194300 0.194300
0.209250 0.209250 0.209250
0.224200 0.224200 0.224200
0.239150 0.239150 0.239150
0.254100 0.254100 0.254100
0.269050 0.269050 0.269050
0.284000 0.284000 0.284000
0.298950 0.298950 0.298950
0.313900 0.313900 0.313900
0.328850 0.328850 0.328850
0.343800 0.343800 0.343800
0.358750 0.358750 0.358750
0.373700 0.373700 0.373700
0.388650 0.388650 0.388650
0.403600 0.403600 0.403600
0.193750 0.193750 0.193750
0.208700 0.208700 0.208700
0.223650 0.223650 0.223650
0.238600 0.238600 0.238600
0.253550 0.253550 0.253550
0.268500 0.268500 0.268500
0.283450 0.283450 0.283450
0.298400 0.298400 0.298400
0.313350 0.313350 0.313350
0.328300 0.328300 0.328300
0.343250 0.343250 0.343250
0.358200 0.358200 0.358200
0.373150 0.373150 0.373150
0.388100 0.388100 0.388100
0.403050 0.403050 0.403050
0.418000 0.418000 0.418000
0.432950 0.432950 0.432950
0.223100 0.223100 0.223100
0.238050 0.238050 0.238050
0.253000 0.253000 0.253000
0.267950 0.267950 0.267950
0.282900 0.282900 0.282900
0.297850 0.297850 0.297850
0.312800 0.312800 0.312800
0.327750 0.327750 0.327750
0.342700 0.342700 0.342700
0.357650 0.357650 0.357650
0.372600 0.372600 0.372600
0.387550 0.387550 0.387550
0.402500 0.402500 0.402500
0.417450 0.417450 0.417450
0.432400 0.432400 0.432400
0.447350 0.447350 0.447350
0.462300 0.462300 0.462300
0.252450 0.252450 0.252450
0.267400 0.267400 0.267400
0.282350 0.282350 0.282350
0.297300 0.297300 0.297300
0.312250 0.312250 0.312250
0.327200 0.327200 0.327200
0.342150 0.342150 0.342150
0.357100 0.357100 0.357100
0.372050 0.372050 0.372050
0.387000 0.387000 0.387000
0.401950 0.401950 0.401950
0.416900 0.416900 0.416900
0.431850 0.431850 0.431850
0.446800 0.446800 0.446800
0.461750 0.461750 0.461750
0.476700 0.476700 0.476700
0.491650 0.491650 0.491650
0.281800 0.281800 0.281800
0.296750 0.296750 0.296750
0.311700 0.311700 0.311700
0.326650 0.326650 0.326650
0.341600 0.341600 0.341600
0.356550 0.356550 0.356550
0.371500 0.371500 0.371500
0.386450 0.386450 0.386450
0.401400 0.401400 0.401400
0.416350 0.416350 0.416350
0.431300 0.431300 0.431300
0.446250 0.446250 0.446250
0.461200 0.461200 0.461200
0.476150 0.476150 0.476150
0.491100 0.491100 0.491100
0.506050 0.506050 0.506050
0.521000 0.521000 0.521000
0.311150 0.311150 0.311150
0.326100 0.326100 0.326100
0.341050 0.341050 0.341050
0.356000 0.356000 0.356000
0.370950 0.370950 0.370950
0.385900 0.385900 0.385900
0.400850 0.400850 0.400850
0.415800 0.415800 0.415800
0.430750 0.430750 0.430750
0.445700 0.445700 0.445700
0.460650 0.460650 0.460650
0.475600 0.475600 0.475600
0.490550 0.490550 0.490550
0.505500 0.505500 0.505500
0.520450 0.520450 0.520450
0.535400 0.535400 0.535400
0.550350 0.550350 0.550350
0.340500 0.340500 0.340500
0.355450 0.355450 0.355450
0.370400 0.370400 0.370400
0.385350 0.385350 0.385350
0.400300 0.400300 0.400300
0.415250 0.415250 0.415250
0.430200 0.430200 0.430200
0.445150 0.445150 0.445150
0.460100 0.460100 0.460100
0.475050 0.475050 0.475050
0.490000 0.490000 0.490000
0.504950 0.504950 0.504950
0.519900 0.519900 0.519900
0.534850 0.534850 0.534850
0.549800 0.549800 0.549800
0.564750 0.564750 0.564750
0.579700 0.579700 0.579700
0.369850 0.369850 0.369850
0.384800 0.384800 0.384800
0.399750 0.399750 0.399750
0.414700 0.414700 0.414700
0.429650 0.429650 0.429650
0.444600 0.444600 0.444600
0.459550 0.459550 0.459550
0.474500 0.474500 0.474500
0.489450 0.489450 0.489450
0.504400 0.504400 0.504400
0.519350 0.519350 0.519350
0.534300 0.534300 0.534300
0.549250 0.549250 0.549250
0.564200 0.564200 0.564200
0.579150 0.579150 0.579150
0.594100 0.594100 0.594100
0.609050 0.609050 0.609050
0.399200 0.399200 0.399200
0.414150 0.414150 0.414150
0.429100 0.429100 0.429100
0.444050 0.444050 0.444050
0.459000 0.459000 0.459000
0.473950 0.473950 0.473950
0.488900 0.488900 0.488900
0.503850 0.503850 0.503850
0.518800 0.518800 0.518800
0.533750 0.533750 0.533750
0.548700 0.548700 0.548700
0.563650 0.563650 0.563650
0.578600 0.578600 0.578600
0.593550 0.593550 0.593550
0.608500 0.608500 0.608500
0.623450 0.623450 0.623450
0.638400 0.638400 0.638400
0.428550 0.428550 0.428550
0.443500 0.443500 0.443500
0.458450 0.458450 0.458450
0.473400 0.473400 0.473400
0.488350 0.488350 0.488350
0.503300 0.503300 0.503300
0.518250 0.518250 0.518250
0.533200 0.533200 0.533200
0.548150 0.548150 0.548150
0.563100 0.563100 0.563100
0.578050 0.578050 0.578050
0.593000 0.593000 0.593000
0.607950 0.607950 0.607950
0.622900 0.622900 0.622900
0.637850 0.637850 0.637850
0.652800 0.652800 0.652800
0.667750 0.667750 0.667750
0.457900 0.457900 0.457900
0.472850 0.472850 0.472850
0.487800 0.487800 0.487800
0.502750 0.502750 0.502750
0.517700 0.517700 0.517700
0.532650 0.532650 0.532650
0.547600 0.547600 0.547600
0.562550 0.562550 0.562550
0.577500 0.577500 0.577500
0.592450 0.592450 0.592450
0.607400 0.607400 0.607400
0.622350 0.622350 0.622350
0.637300 0.637300 0.637300
0.652250 0.652250 0.652250
0.667200 0.667200 0.667200
0.682150 0.682150 0.682150
0.697100 0.697100 0.697100
0.487250 0.487250 0.487250
0.502200 0.502200 0.502200
0.517150 0.517150 0.517150
0.532100 0.532100 0.532100
0.547050 0.547050 0.547050
0.562000 0.562000 0.562000
0.576950 0.576950 0.576950
0.591900 0.591900 0.591900
0.606850 0.606850 0.606850
0.621800 0.621800 0.621800
0.636750 0.636750 0.636750
0.651700 0.651700 0.651700
0.666650 0.666650 0.666650
0.681600 0.681600 0.681600
0.696550 0.696550 0.696550
0.711500 0.711500 0.711500
0.726450 0.726450 0.726450
0.516600 0.516600 0.516600
0.531550 0.531550 0.531550
0.546500 0.546500 0.546500
0.561450 0.561450 0.561450
0.576400 0.576400 0.576400
0.591350 0.591350 0.591350
0.606300 0.606300 0.606300
0.621250 0.621250 0.621250
0.636200 0.636200 0.636200
0.651150 0.651150 0.651150
0.666100 0.666100 0.666100
0.681050 0.681050 0.681050
0.696000 0.696000 0.696000
0.710950 0.710950 0.710950
0.725900 0.725900 0.725900
0.740850 0.740850 0.740850
0.755800 0.755800 0.755800
0.545950 0.545950 0.545950
0.560900 0.560900 0.560900
0.575850 0.575850 0.575850
0.590800 0.590800 0.590800
0.605750 0.605750 0.605750
0.620700 0.620700 0.620700
0.635650 0.635650 0.635650
0.650600 0.650600 0.650600
0.665550 0.665550 0.665550
0.680500 0.680500 0.680500
0.695450 0.695450 0.695450
0.710400 0.710400 0.710400
0.725350 0.725350 0.725350
0.740300 0.740300 0.740300
0.755250 0.755250 0.755250
0.770200 0.770200 0.770200
0.785150 0.785150 0.785150
0.575300 0.575300 0.575300
0.590250 0.590250 0.590250
0.605200 0.605200 0.605200
0.620150 0.620150 0.620150
0.635100 0.635100 0.635100
0.650050 0.650050 0.650050
0.665000 0.665000 0.665000
0.679950 0.679950 0.679950
0.694900 0.694900 0.694900
0.709850 0.709850 0.709850
0.724800 0.724800 0.724800
0.739750 0.739750 0.739750
0.754700 0.754700 0.754700
0.769650 0.769650 0.769650
0.784600 0.784600 0.784600
0.799550 0.799550 0.799550
0.814500 0.814500 0.814500
0.111400 0.111400 0.111400
0.126350 0.126350 0.126350
0.141300 0.141300 0.141300
0.156250 0.156250 0.156250
0.171200 0.171200 0.171200
0.186150 0.186150 0.186150
0.201100 0.201100 0.201100
0.216050 0.216050 0.216050
0.231000 0.231000 0.231000
0.245950 0.245950 0.245950
0.260900 0.260900 0.260900
0.275850 0.275850 0.275850
0.290800 0.290800 0.290800
0.305750 0.305750 0.305750
0.320700 0.320700 0.320700
0.335650 0.335650 0.335650
0.350600 0.350600 0.350600
0.140750 0.140750 0.140750
0.155700 0.155700 0.155700
0.170650 0.170650 0.170650
0.185600 0.185600 0.185600
0.200550 0.200550 0.200550
0.215500 0.215500 0.215500
0.230450 0.230450 0.230450
0.245400 0.245400 0.245400
0.260350 0.260350 0.260350
0.275300 0.275300 0.275300
0.290250 0.290250 0.290250
0.305200 0.305200 0.305200
0.320150 0.320150 0.320150
0.335100 0.335100 0.335100
0.350050 0.350050 0.350050
0.365000 0.365000 0.365000
0.379950 0.379950 0.379950
0.170100 0.170100 0.170100
0.185050 0.185050 0.185050
0.200000 0.200000 0.200000
0.214950 0.214950 0.214950
0.229900 0.229900 0.229900
0.244850 0.244850 0.244850
0.259800 0.259800 0.259800
0.274750 0.274750 0.274750
0.289700 0.289700 0.289700
0.304650 0.304650 0.304650
0.319600 0.319600 0.319600
0.334550 0.334550 0.334550
0.349500 0.349500 0.349500
0.364450 0.364450 0.364450
0.379400 0.379400 0.379400
0.394350 0.394350 0.394350
0.409300 0.409300 0.409300
0.199450 0.199450 0.199450
0.214400 0.214400 0.214400
0.229350 0.229350 0.229350
0.244300 0.244300 0.244300
0.259250 0.259250 0.259250
0.274200 0.274200 0.274200
0.289150 0.289150 0.289150
0.304100 0.304100 0.304100
0.319050 0.319050 0.319050
0.334000 0.334000 0.334000
0.348950 0.348950 0.348950
0.363900 0.363900 0.363900
0.378850 0.378850 0.378850
0.393800 0.393800 0.393800
0.408750 0.408750 0.408750
0.423700 0.423700 0.423700
0.438650 0.438650 0.438650
0.228800 0.228800 0.228800
0.243750 0.243750 0.243750
0.258700 0.258700 0.258700
0.273650 0.273650 0.273650
0.288600 0.288600 0.288600
0.303550 0.303550 0.303550
0.318500 0.318500 0.318500
0.333450 0.333450 0.333450
0.348400 0.348400 0.348400
0.363350 0.363350 0.363350
0.378300 0.378300 0.378300
0.393250 0.393250 0.393250
0.408200 0.408200 0.408200
0.423150 0.423150 0.423150
0.438100 0.438100 0.438100
0.453050 0.453050 0.453050
0.468000 0.468000 0.468000
0.258150 0.258150 0.258150
0.273100 0.273100 0.273100
0.288050 0.288050 0.288050
0.303000 0.303000 0.303000
0.317950 0.317950 0.317950
0.332900 0.332900 0.332900
0.347850 0.347850 0.347850
0.362800 0.362800 0.362800
0.377750 0.377750 0.377750
0.392700 0.392700 0.392700
0.407650 0.407650 0.407650
0.422600 0.422600 0.422600
0.437550 0.437550 0.437550
0.452500 0.452500 0.452500
0.467450 0.467450 0.467450
0.482400 0.482400 0.482400
0.497350 0.497350 0.497350
0.287500 0.287500 0.287500
0.302450 0.302450 0.302450
0.317400 0.317400 0.317400
0.332350 0.332350 0.332350
0.347300 0.347300 0.347300
0.362250 0.362250 0.362250
0.377200 0.377200 0.377200
0.392150 0.392150 0.392150
0.407100 0.407100 0.407100
0.422050 0.422050 0.422050
0.437000 0.437000 0.437000
0.451950 0.451950 0.451950
0.466900 0.466900 0.466900
0.481850 0.481850 0.481850
0.496800 0.496800 0.496800
0.511750 0.511750 0.511750
0.526700 0.526700 0.526700
0.316850 0.316850 0.316850
0.331800 0.331800 0.331800
0.346750 0.346750 0.346750
0.361700 0.361700 0.361700
0.376650 0.376650 0.376650
0.391600 0.391600 0.391600
0.406550 0.406550 0.406550
0.421500 0.421500 0.421500
0.436450 0.436450 0.436450
0.451400 0.451400 0.451400
0.466350 0.466350 0.466350
0.481300 0.481300 0.481300
0.496250 0.496250 0.496250
0.511200 0.511200 0.511200
0.526150 0.526150 0.526150
0.541100 0.541100 0.541100
0.556050 0.556050 0.556050
0.346200 0.346200 0.346200
0.361150 0.361150 0.361150
0.376100 0.376100 0.376100
0.391050 0.391050 0.391050
0.406000 0.406000 0.406000
0.420950 0.420950 0.420950
0.435900 0.435900 0.435900
0.450850 0.450850 0.450850
0.465800 0.465800 0.465800
0.480750 0.480750 0.480750
0.495700 0.495700 0.495700
0.510650 0.510650 0.510650
0.525600 0.525600 0.525600
0.540550 0.540550 0.540550
0.555500 0.555500 0.555500
0.570450 0.570450 0.570450
0.585400 0.585400 0.585400
0.375550 0.375550 0.375550
0.390500 0.390500 0.390500
0.405450 0.405450 0.405450
0.420400 0.420400 0.420400
0.435350 0.435350 0.435350
0.450300 0.450300 0.450300
0.465250 0.465250 0.465250
0.480200 0.480200 0.480200
0.495150 0.495150 0.495150
0.510100 0.510100 0.510100
0.525050 0.525050 0.525050
0.540000 0.540000 0.540000
0.554950 0.554950 0.554950
0.569900 0.569900 0.569900
0.584850 0.584850 0.584850
0.599800 0.599800 0.599800
0.614750 0.614750 0.614750
0.404900 0.404900 0.404900
0.419850 0.419850 0.419850
0.434800 0.434800 0.434800
0.449750 0.449750 0.449750
0.464700 0.464700 0.464700
0.479650 0.479650 0.479650
0.494600 0.494600 0.494600
0.509550 0.509550 0.509550
0.524500 0.524500 0.524500
0.539450 0.539450 0.539450
0.554400 0.554400 0.554400
0.569350 0.569350 0.569350
0.584300 0.584300 0.584300
0.599250 0.599250 0.599250
0.614200 0.614200 0.614200
0.629150 0.629150 0.629150
0.644100 0.644100 0.644100
0.434250 0.434250 0.434250
0.449200 0.449200 0.449200
0.464150 0.464150 0.464150
0.479100 0.479100 0.479100
0.494050 0.494050 0.494050
0.509000 0.509000 0.509000
0.523950 0.523950 0.523950
0.538900 0.538900 0.538900
0.553850 0.553850 0.553850
0.568800 0.568800 0.568800
0.583750 0.583750 0.583750
0.598700 0.598700 0.598700
0.613650 0.613650 0.613650
0.628600 0.628600 0.628600
0.643550 0.643550 0.643550
0.658500 0.658500 0.658500
0.673450 0.673450 0.673450
0.463600 0.463600 0.463600
0.478550 0.478550 0.478550
0.493500 0.493500 0.493500
0.508450 0.508450 0.508450
0.523400 0.523400 0.523400
0.538350 0.538350 0.538350
0.553300 0.553300 0.553300
0.568250 0.568250 0.568250
0.583200 0.583200 0.583200
0.598150 0.598150 0.598150
0.613100 0.613100 0.613100
0.628050 0.628050 0.628050
0.643000 0.643000 0.643000
0.657950 0.657950 0.657950
0.672900 0.672900 0.672900
0.687850 0.687850 0.687850
0.702800 0.702800 0.702800
0.492950 0.492950 0.492950
0.507900 0.507900 0.507900
0.522850 0.522850 0.522850
0.537800 0.537800 0.537800
0.552750 0.552750 0.552750
0.567700 0.567700 0.567700
0.582650 0.582650 0.582650
0.597600 0.597600 0.597600
0.612550 0.612550 0.612550
0.627500 0.627500 0.627500
0.642450 0.642450 0.642450
0.657400 0.657400 0.657400
0.672350 0.672350 0.672350
0.687300 0.687300 0.687300
0.702250 0.702250 0.702250
0.717200 0.717200 0.717200
0.732150 0.732150 0.732150
0.522300 0.522300 0.522300
0.537250 0.537250 0.537250
0.552200 0.552200 0.552200
0.567150 0.567150 0.567150
0.582100 0.582100 0.582100
0.597050 0.597050 0.597050
0.612000 0.612000 0.612000
0.626950 0.626950 0.626950
0.641900 0.641900 0.641900
0.656850 0.656850 0.656850
0.671800 0.671800 0.671800
0.686750 0.686750 0.686750
0.701700 0.701700 0.701700
0.716650 0.716650 0.716650
0.731600 0.731600 0.731600
0.746550 0.746550 0.746550
0.761500 0.761500 0.761500
0.551650 0.551650 0.551650
0.566600 0.566600 0.566600
0.581550 0.581550 0.581550
0.596500 0.596500 0.596500
0.611450 0.611450 0.611450
0.626400 0.626400 0.626400
0.641350 0.641350 0.641350
0.656300 0.656300 0.656300
0.671250 0.671250 0.671250
0.686200 0.686200 0.686200
0.701150 0.701150 0.701150
0.716100 0.716100 0.716100
0.731050 0.731050 0.731050
0.746000 0.746000 0.746000
0.760950 0.760950 0.760950
0.775900 0.775900 0.775900
0.790850 0.790850 0.790850
0.581000 0.581000 0.581000
0.595950 0.595950 0.595950
0.610900 0.610900 0.610900
0.625850 0.625850 0.625850
0.640800 0.640800 0.640800
0.655750 0.655750 0.655750
0.670700 0.670700 0.670700
0.685650 0.685650 0.685650
0.700600 0.700600 0.700600
0.715550 0.715550 0.715550
0.730500 0.730500 0.730500
0.745450 0.745450 0.745450
0.760400 0.760400 0.760400
0.775350 0.775350 0.775350
0.790300 0.790300 0.790300
0.805250 0.805250 0.805250
0.820200 0.820200 0.820200
0.117100 0.117100 0.117100
0.132050 0.132050 0.132050
0.147000 0.147000 0.147000
0.161950 0.161950 0.161950
0.176900 0.176900 0.176900
0.191850 0.191850 0.191850
0.206800 0.206800 0.206800
0.221750 0.221750 0.221750
0.236700 0.236700 0.236700
0.251650 0.251650 0.251650
0.266600 0.266600 0.266600
0.281550 0.281550 0.281550
0.296500 0.296500 0.296500
0.311450 0.311450 0.311450
0.326400 0.326400 0.326400
0.341350 0.341350 0.341350
0.356300 0.356300 0.356300
0.146450 0.146450 0.146450
0.161400 0.161400 0.161400
0.176350 0.176350 0.176350
