assets/luts/bw_silky.cube
TITLE "Silky BW"
LUT_3D_SIZE 5
0.154228 0.154228 0.154228
0.198287 0.198287 0.198287
0.243997 0.243997 0.243997
0.291048 0.291048 0.291048
0.339234 0.339234 0.339234
0.242290 0.242290 0.242290
0.289296 0.289296 0.289296
0.337443 0.337443 0.337443
0.386582 0.386582 0.386582
0.436600 0.436600 0.436600
0.335654 0.335654 0.335654
0.384758 0.384758 0.384758
0.434745 0.434745 0.434745
0.485526 0.485526 0.485526
0.537029 0.537029 0.537029
0.432892 0.432892 0.432892
0.483645 0.483645 0.483645
0.535122 0.535122 0.535122
0.587264 0.587264 0.587264
0.640022 0.640022 0.640022
0.533216 0.533216 0.533216
0.585335 0.585335 0.585335
0.638070 0.638070 0.638070
0.691380 0.691380 0.691380
0.745228 0.745228 0.745228
0.170805 0.170805 0.170805
0.215540 0.215540 0.215540
0.261791 0.261791 0.261791
0.309295 0.309295 0.309295
0.357873 0.357873 0.357873
0.260066 0.260066 0.260066
0.307528 0.307528 0.307528
0.356068 0.356068 0.356068
0.405554 0.405554 0.405554
0.455883 0.455883 0.455883
0.354265 0.354265 0.354265
0.403718 0.403718 0.403718
0.454017 0.454017 0.454017
0.505081 0.505081 0.505081
0.556843 0.556843 0.556843
0.452153 0.452153 0.452153
0.503189 0.503189 0.503189
0.554927 0.554927 0.554927
0.607309 0.607309 0.607309
0.660289 0.660289 0.660289
0.553011 0.553011 0.553011
0.605371 0.605371 0.605371
0.658330 0.658330 0.658330
0.711849 0.711849 0.711849
0.765893 0.765893 0.765893
0.187660 0.187660 0.187660
0.233012 0.233012 0.233012
0.279766 0.279766 0.279766
0.327698 0.327698 0.327698
0.376648 0.376648 0.376648
0.278024 0.278024 0.278024
0.325916 0.325916 0.325916
0.374830 0.374830 0.374830
0.424648 0.424648 0.424648
0.475276 0.475276 0.475276
0.373014 0.373014 0.373014
0.422801 0.422801 0.422801
0.473400 0.473400 0.473400
0.524737 0.524737 0.524737
0.576750 0.576750 0.576750
0.471525 0.471525 0.471525
0.522836 0.522836 0.522836
0.574825 0.574825 0.574825
0.627441 0.627441 0.627441
0.680638 0.680638 0.680638
0.572901 0.572901 0.572901
0.625494 0.625494 0.625494
0.678671 0.678671 0.678671
0.732394 0.732394 0.732394
0.786630 0.786630 0.786630
0.204768 0.204768 0.204768
0.250687 0.250687 0.250687
0.297912 0.297912 0.297912
0.346248 0.346248 0.346248
0.395553 0.395553 0.395553
0.296154 0.296154 0.296154
0.344452 0.344452 0.344452
0.393723 0.393723 0.393723
0.443860 0.443860 0.443860
0.494776 0.494776 0.494776
0.391895 0.391895 0.391895
0.442001 0.442001 0.442001
0.492890 0.492890 0.492890
0.544491 0.544491 0.544491
0.596748 0.596748 0.596748
0.491005 0.491005 0.491005
0.542581 0.542581 0.542581
0.594814 0.594814 0.594814
0.647657 0.647657 0.647657
0.701066 0.701066 0.701066
0.592882 0.592882 0.592882
0.645702 0.645702 0.645702
0.699092 0.699092 0.699092
0.753014 0.753014 0.753014
0.807437 0.807437 0.807437
0.222105 0.222105 0.222105
0.268550 0.268550 0.268550
0.316219 0.316219 0.316219
0.364939 0.364939 0.364939
0.414584 0.414584 0.414584
0.314446 0.314446 0.314446
0.363129 0.363129 0.363129
0.412742 0.412742 0.412742
0.463185 0.463185 0.463185
0.514379 0.514379 0.514379
0.410902 0.410902 0.410902
0.461315 0.461315 0.461315
0.512483 0.512483 0.512483
0.564341 0.564341 0.564341
0.616834 0.616834 0.616834
0.510588 0.510588 0.510588
0.562421 0.562421 0.562421
0.614892 0.614892 0.614892
0.667955 0.667955 0.667955
0.721572 0.721572 0.721572
0.612951 0.612951 0.612951
0.665993 0.665993 0.665993
0.719590 0.719590 0.719590
0.773706 0.773706 0.773706
0.828314 0.828314 0.828314
