assets/luts/bw_silky.cube
TITLE "Silky BW"
LUT_3D_SIZE 9
0.154228 0.154228 0.154228
0.176025 0.176025 0.176025
0.198287 0.198287 0.198287
0.220958 0.220958 0.220958
0.243997 0.243997 0.243997
0.267370 0.267370 0.267370
0.291048 0.291048 0.291048
0.315010 0.315010 0.315010
0.339234 0.339234 0.339234
0.197460 0.197460 0.197460
0.220117 0.220117 0.220117
0.243143 0.243143 0.243143
0.266504 0.266504 0.266504
0.290172 0.290172 0.290172
0.314123 0.314123 0.314123
0.338339 0.338339 0.338339
0.362801 0.362801 0.362801
0.387495 0.387495 0.387495
0.242290 0.242290 0.242290
0.265639 0.265639 0.265639
0.289296 0.289296 0.289296
0.313237 0.313237 0.313237
0.337443 0.337443 0.337443
0.361896 0.361896 0.361896
0.386582 0.386582 0.386582
0.411487 0.411487 0.411487
0.436600 0.436600 0.436600
0.288421 0.288421 0.288421
0.312352 0.312352 0.312352
0.336548 0.336548 0.336548
0.360993 0.360993 0.360993
0.385670 0.385670 0.385670
0.410567 0.410567 0.410567
0.435672 0.435672 0.435672
0.460976 0.460976 0.460976
0.486467 0.486467 0.486467
0.335654 0.335654 0.335654
0.360089 0.360089 0.360089
0.384758 0.384758 0.384758
0.409647 0.409647 0.409647
0.434745 0.434745 0.434745
0.460041 0.460041 0.460041
0.485526 0.485526 0.485526
0.511191 0.511191 0.511191
0.537029 0.537029 0.537029
0.383847 0.383847 0.383847
0.408728 0.408728 0.408728
0.433818 0.433818 0.433818
0.459107 0.459107 0.459107
0.484585 0.484585 0.484585
0.510244 0.510244 0.510244
0.536075 0.536075 0.536075
0.562072 0.562072 0.562072
0.588229 0.588229 0.588229
0.432892 0.432892 0.432892
0.458173 0.458173 0.458173
0.483645 0.483645 0.483645
0.509297 0.509297 0.509297
0.535122 0.535122 0.535122
0.561113 0.561113 0.561113
0.587264 0.587264 0.587264
0.613569 0.613569 0.613569
0.640022 0.640022 0.640022
0.482704 0.482704 0.482704
0.508350 0.508350 0.508350
0.534169 0.534169 0.534169
0.560154 0.560154 0.560154
0.586299 0.586299 0.586299
0.612598 0.612598 0.612598
0.639046 0.639046 0.639046
0.665637 0.665637 0.665637
0.692366 0.692366 0.692366
0.533216 0.533216 0.533216
0.559195 0.559195 0.559195
0.585335 0.585335 0.585335
0.611628 0.611628 0.611628
0.638070 0.638070 0.638070
0.664656 0.664656 0.664656
0.691380 0.691380 0.691380
0.718239 0.718239 0.718239
0.745228 0.745228 0.745228
0.162479 0.162479 0.162479
0.184461 0.184461 0.184461
0.206885 0.206885 0.206885
0.229701 0.229701 0.229701
0.252870 0.252870 0.252870
0.276363 0.276363 0.276363
0.300152 0.300152 0.300152
0.324216 0.324216 0.324216
0.348536 0.348536 0.348536
0.206053 0.206053 0.206053
0.228855 0.228855 0.228855
0.252012 0.252012 0.252012
0.275493 0.275493 0.275493
0.299272 0.299272 0.299272
0.323326 0.323326 0.323326
0.347637 0.347637 0.347637
0.372189 0.372189 0.372189
0.396968 0.396968 0.396968
0.251154 0.251154 0.251154
0.274624 0.274624 0.274624
0.298392 0.298392 0.298392
0.322436 0.322436 0.322436
0.346738 0.346738 0.346738
0.371282 0.371282 0.371282
0.396052 0.396052 0.396052
0.421038 0.421038 0.421038
0.446227 0.446227 0.446227
0.297512 0.297512 0.297512
0.321547 0.321547 0.321547
0.345840 0.345840 0.345840
0.370375 0.370375 0.370375
0.395137 0.395137 0.395137
0.420115 0.420115 0.420115
0.445297 0.445297 0.445297
0.470673 0.470673 0.470673
0.496234 0.496234 0.496234
0.344942 0.344942 0.344942
0.369468 0.369468 0.369468
0.394222 0.394222 0.394222
0.419192 0.419192 0.419192
0.444367 0.444367 0.444367
0.469736 0.469736 0.469736
0.495290 0.495290 0.495290
0.521022 0.521022 0.521022
0.546924 0.546924 0.546924
0.393308 0.393308 0.393308
0.418270 0.418270 0.418270
0.443437 0.443437 0.443437
0.468799 0.468799 0.468799
0.494347 0.494347 0.494347
0.520072 0.520072 0.520072
0.545968 0.545968 0.545968
0.572027 0.572027 0.572027
0.598243 0.598243 0.598243
0.442508 0.442508 0.442508
0.467863 0.467863 0.467863
0.493404 0.493404 0.493404
0.519123 0.519123 0.519123
0.545012 0.545012 0.545012
0.571065 0.571065 0.571065
0.597275 0.597275 0.597275
0.623637 0.623637 0.623637
0.650145 0.650145 0.650145
0.492461 0.492461 0.492461
0.518174 0.518174 0.518174
0.544057 0.544057 0.544057
0.570104 0.570104 0.570104
0.596308 0.596308 0.596308
0.622665 0.622665 0.622665
0.649167 0.649167 0.649167
0.675812 0.675812 0.675812
0.702593 0.702593 0.702593
0.543102 0.543102 0.543102
0.569143 0.569143 0.569143
0.595342 0.595342 0.595342
0.621692 0.621692 0.621692
0.648190 0.648190 0.648190
0.674829 0.674829 0.674829
0.701605 0.701605 0.701605
0.728514 0.728514 0.728514
0.755551 0.755551 0.755551
0.170805 0.170805 0.170805
0.192962 0.192962 0.192962
0.215540 0.215540 0.215540
0.238495 0.238495 0.238495
0.261791 0.261791 0.261791
0.285399 0.285399 0.285399
0.309295 0.309295 0.309295
0.333459 0.333459 0.333459
0.357873 0.357873 0.357873
0.214702 0.214702 0.214702
0.237644 0.237644 0.237644
0.260928 0.260928 0.260928
0.284525 0.284525 0.284525
0.308411 0.308411 0.308411
0.332566 0.332566 0.332566
0.356970 0.356970 0.356970
0.381610 0.381610 0.381610
0.406472 0.406472 0.406472
0.260066 0.260066 0.260066
0.283652 0.283652 0.283652
0.307528 0.307528 0.307528
0.331672 0.331672 0.331672
0.356068 0.356068 0.356068
0.380700 0.380700 0.380700
0.405554 0.405554 0.405554
0.430618 0.430618 0.430618
0.455883 0.455883 0.455883
0.306644 0.306644 0.306644
0.330780 0.330780 0.330780
0.355166 0.355166 0.355166
0.379790 0.379790 0.379790
0.404636 0.404636 0.404636
0.429693 0.429693 0.429693
0.454950 0.454950 0.454950
0.480397 0.480397 0.480397
0.506027 0.506027 0.506027
0.354265 0.354265 0.354265
0.378880 0.378880 0.378880
0.403718 0.403718 0.403718
0.428767 0.428767 0.428767
0.454017 0.454017 0.454017
0.479458 0.479458 0.479458
0.505081 0.505081 0.505081
0.530878 0.530878 0.530878
0.556843 0.556843 0.556843
0.402800 0.402800 0.402800
0.427842 0.427842 0.427842
0.453085 0.453085 0.453085
0.478519 0.478519 0.478519
0.504135 0.504135 0.504135
0.529926 0.529926 0.529926
0.555884 0.555884 0.555884
0.582004 0.582004 0.582004
0.608278 0.608278 0.608278
0.452153 0.452153 0.452153
0.477580 0.477580 0.477580
0.503189 0.503189 0.503189
0.528974 0.528974 0.528974
0.554927 0.554927 0.554927
0.581040 0.581040 0.581040
0.607309 0.607309 0.607309
0.633727 0.633727 0.633727
0.660289 0.660289 0.660289
0.502244 0.502244 0.502244
0.528023 0.528023 0.528023
0.553969 0.553969 0.553969
0.580077 0.580077 0.580077
0.606340 0.606340 0.606340
0.632752 0.632752 0.632752
0.659310 0.659310 0.659310
0.686007 0.686007 0.686007
0.712839 0.712839 0.712839
0.553011 0.553011 0.553011
0.579113 0.579113 0.579113
0.605371 0.605371 0.605371
0.631778 0.631778 0.631778
0.658330 0.658330 0.658330
0.685022 0.685022 0.685022
0.711849 0.711849 0.711849
0.738807 0.738807 0.738807
0.765893 0.765893 0.765893
0.179200 0.179200 0.179200
0.201523 0.201523 0.201523
0.224250 0.224250 0.224250
0.247338 0.247338 0.247338
0.270757 0.270757 0.270757
0.294477 0.294477 0.294477
0.318478 0.318478 0.318478
0.342739 0.342739 0.342739
0.367244 0.367244 0.367244
0.223407 0.223407 0.223407
0.246483 0.246483 0.246483
0.269890 0.269890 0.269890
0.293599 0.293599 0.293599
0.317590 0.317590 0.317590
0.341842 0.341842 0.341842
0.366338 0.366338 0.366338
0.391064 0.391064 0.391064
0.416007 0.416007 0.416007
0.269023 0.269023 0.269023
0.292722 0.292722 0.292722
0.316703 0.316703 0.316703
0.340945 0.340945 0.340945
0.365433 0.365433 0.365433
0.390151 0.390151 0.390151
0.415086 0.415086 0.415086
0.440228 0.440228 0.440228
0.465566 0.465566 0.465566
0.315816 0.315816 0.315816
0.340049 0.340049 0.340049
0.364528 0.364528 0.364528
0.389237 0.389237 0.389237
0.414165 0.414165 0.414165
0.439299 0.439299 0.439299
0.464630 0.464630 0.464630
0.490148 0.490148 0.490148
0.515845 0.515845 0.515845
0.363623 0.363623 0.363623
0.388324 0.388324 0.388324
0.413244 0.413244 0.413244
0.438371 0.438371 0.438371
0.463695 0.463695 0.463695
0.489206 0.489206 0.489206
0.514896 0.514896 0.514896
0.540758 0.540758 0.540758
0.566785 0.566785 0.566785
0.412324 0.412324 0.412324
0.437443 0.437443 0.437443
0.462760 0.462760 0.462760
0.488264 0.488264 0.488264
0.513948 0.513948 0.513948
0.539804 0.539804 0.539804
0.565824 0.565824 0.565824
0.592004 0.592004 0.592004
0.618335 0.618335 0.618335
0.461825 0.461825 0.461825
0.487323 0.487323 0.487323
0.513000 0.513000 0.513000
0.538850 0.538850 0.538850
0.564864 0.564864 0.564864
0.591038 0.591038 0.591038
0.617364 0.617364 0.617364
0.643838 0.643838 0.643838
0.670454 0.670454 0.670454
0.512052 0.512052 0.512052
0.537896 0.537896 0.537896
0.563904 0.563904 0.563904
0.590072 0.590072 0.590072
0.616393 0.616393 0.616393
0.642861 0.642861 0.642861
0.669472 0.669472 0.669472
0.696221 0.696221 0.696221
0.723104 0.723104 0.723104
0.562945 0.562945 0.562945
0.589107 0.589107 0.589107
0.615422 0.615422 0.615422
0.641885 0.641885 0.641885
0.668491 0.668491 0.668491
0.695235 0.695235 0.695235
0.722112 0.722112 0.722112
0.749120 0.749120 0.749120
0.776253 0.776253 0.776253
0.187660 0.187660 0.187660
0.210143 0.210143 0.210143
0.233012 0.233012 0.233012
0.256230 0.256230 0.256230
0.279766 0.279766 0.279766
0.303596 0.303596 0.303596
0.327698 0.327698 0.327698
0.352054 0.352054 0.352054
0.376648 0.376648 0.376648
0.232164 0.232164 0.232164
0.255370 0.255370 0.255370
0.278895 0.278895 0.278895
0.302714 0.302714 0.302714
0.326807 0.326807 0.326807
0.351153 0.351153 0.351153
0.375739 0.375739 0.375739
0.400549 0.400549 0.400549
0.425572 0.425572 0.425572
0.278024 0.278024 0.278024
0.301833 0.301833 0.301833
0.325916 0.325916 0.325916
0.350253 0.350253 0.350253
0.374830 0.374830 0.374830
0.399633 0.399633 0.399633
0.424648 0.424648 0.424648
0.449866 0.449866 0.449866
0.475276 0.475276 0.475276
0.325025 0.325025 0.325025
0.349354 0.349354 0.349354
0.373922 0.373922 0.373922
0.398716 0.398716 0.398716
0.423724 0.423724 0.423724
0.448935 0.448935 0.448935
0.474338 0.474338 0.474338
0.499925 0.499925 0.499925
0.525688 0.525688 0.525688
0.373014 0.373014 0.373014
0.397800 0.397800 0.397800
0.422801 0.422801 0.422801
0.448004 0.448004 0.448004
0.473400 0.473400 0.473400
0.498980 0.498980 0.498980
0.524737 0.524737 0.524737
0.550662 0.550662 0.550662
0.576750 0.576750 0.576750
0.421877 0.421877 0.421877
0.447073 0.447073 0.447073
0.472462 0.472462 0.472462
0.498036 0.498036 0.498036
0.523786 0.523786 0.523786
0.549706 0.549706 0.549706
0.575787 0.575787 0.575787
0.602025 0.602025 0.602025
0.628414 0.628414 0.628414
0.471525 0.471525 0.471525
0.497092 0.497092 0.497092
0.522836 0.522836 0.522836
0.548749 0.548749 0.548749
0.574825 0.574825 0.574825
0.601057 0.601057 0.601057
0.627441 0.627441 0.627441
0.653969 0.653969 0.653969
0.680638 0.680638 0.680638
0.521886 0.521886 0.521886
0.547793 0.547793 0.547793
0.573863 0.573863 0.573863
0.600090 0.600090 0.600090
0.626467 0.626467 0.626467
0.652991 0.652991 0.652991
0.679655 0.679655 0.679655
0.706455 0.706455 0.706455
0.733387 0.733387 0.733387
0.572901 0.572901 0.572901
0.599122 0.599122 0.599122
0.625494 0.625494 0.625494
0.652012 0.652012 0.652012
0.678671 0.678671 0.678671
0.705467 0.705467 0.705467
0.732394 0.732394 0.732394
0.759450 0.759450 0.759450
0.786630 0.786630 0.786630
0.196184 0.196184 0.196184
0.218819 0.218819 0.218819
0.241825 0.241825 0.241825
0.265167 0.265167 0.265167
0.288818 0.288818 0.288818
0.312754 0.312754 0.312754
0.336955 0.336955 0.336955
0.361403 0.361403 0.361403
0.386085 0.386085 0.386085
0.240972 0.240972 0.240972
0.264303 0.264303 0.264303
0.287943 0.287943 0.287943
0.311869 0.311869 0.311869
0.336060 0.336060 0.336060
0.360500 0.360500 0.360500
0.385173 0.385173 0.385173
0.410065 0.410065 0.410065
0.435167 0.435167 0.435167
0.287068 0.287068 0.287068
0.310984 0.310984 0.310984
0.335166 0.335166 0.335166
0.359596 0.359596 0.359596
0.384261 0.384261 0.384261
0.409146 0.409146 0.409146
0.434240 0.434240 0.434240
0.459532 0.459532 0.459532
0.485013 0.485013 0.485013
0.334272 0.334272 0.334272
0.358693 0.358693 0.358693
0.383350 0.383350 0.383350
0.408227 0.408227 0.408227
0.433313 0.433313 0.433313
0.458598 0.458598 0.458598
0.484072 0.484072 0.484072
0.509727 0.509727 0.509727
0.535555 0.535555 0.535555
0.382438 0.382438 0.382438
0.407308 0.407308 0.407308
0.432386 0.432386 0.432386
0.457664 0.457664 0.457664
0.483132 0.483132 0.483132
0.508780 0.508780 0.508780
0.534602 0.534602 0.534602
0.560590 0.560590 0.560590
0.586738 0.586738 0.586738
0.431460 0.431460 0.431460
0.456731 0.456731 0.456731
0.482191 0.482191 0.482191
0.507833 0.507833 0.507833
0.533649 0.533649 0.533649
0.559631 0.559631 0.559631
0.585773 0.585773 0.585773
0.612069 0.612069 0.612069
0.638514 0.638514 0.638514
0.481252 0.481252 0.481252
0.506887 0.506887 0.506887
0.532696 0.532696 0.532696
0.558672 0.558672 0.558672
0.584809 0.584809 0.584809
0.611099 0.611099 0.611099
0.637538 0.637538 0.637538
0.664121 0.664121 0.664121
0.690843 0.690843 0.690843
0.531744 0.531744 0.531744
0.557714 0.557714 0.557714
0.583844 0.583844 0.583844
0.610129 0.610129 0.610129
0.636563 0.636563 0.636563
0.663141 0.663141 0.663141
0.689857 0.689857 0.689857
0.716708 0.716708 0.716708
0.743690 0.743690 0.743690
0.582880 0.582880 0.582880
0.609159 0.609159 0.609159
0.635588 0.635588 0.635588
0.662160 0.662160 0.662160
0.688872 0.688872 0.688872
0.715718 0.715718 0.715718
0.742695 0.742695 0.742695
0.769798 0.769798 0.769798
0.797025 0.797025 0.797025
0.204768 0.204768 0.204768
0.227549 0.227549 0.227549
0.250687 0.250687 0.250687
0.274150 0.274150 0.274150
0.297912 0.297912 0.297912
0.321951 0.321951 0.321951
0.346248 0.346248 0.346248
0.370787 0.370787 0.370787
0.395553 0.395553 0.395553
0.249829 0.249829 0.249829
0.273281 0.273281 0.273281
0.297033 0.297033 0.297033
0.321062 0.321062 0.321062
0.345350 0.345350 0.345350
0.369880 0.369880 0.369880
0.394638 0.394638 0.394638
0.419612 0.419612 0.419612
0.444790 0.444790 0.444790
0.296154 0.296154 0.296154
0.320173 0.320173 0.320173
0.344452 0.344452 0.344452
0.368973 0.368973 0.368973
0.393723 0.393723 0.393723
0.418689 0.418689 0.418689
0.443860 0.443860 0.443860
0.469225 0.469225 0.469225
0.494776 0.494776 0.494776
0.343554 0.343554 0.343554
0.368067 0.368067 0.368067
0.392809 0.392809 0.392809
0.417767 0.417767 0.417767
0.442930 0.442930 0.442930
0.468289 0.468289 0.468289
0.493833 0.493833 0.493833
0.519555 0.519555 0.519555
0.545447 0.545447 0.545447
0.391895 0.391895 0.391895
0.416845 0.416845 0.416845
0.442001 0.442001 0.442001
0.467352 0.467352 0.467352
0.492890 0.492890 0.492890
0.518605 0.518605 0.518605
0.544491 0.544491 0.544491
0.570541 0.570541 0.570541
0.596748 0.596748 0.596748
0.441072 0.441072 0.441072
0.466416 0.466416 0.466416
0.491947 0.491947 0.491947
0.517656 0.517656 0.517656
0.543536 0.543536 0.543536
0.569580 0.569580 0.569580
0.595781 0.595781 0.595781
0.622134 0.622134 0.622134
0.648634 0.648634 0.648634
0.491005 0.491005 0.491005
0.516707 0.516707 0.516707
0.542581 0.542581 0.542581
0.568619 0.568619 0.568619
0.594814 0.594814 0.594814
0.621162 0.621162 0.621162
0.647657 0.647657 0.647657
0.674293 0.674293 0.674293
0.701066 0.701066 0.701066
0.541626 0.541626 0.541626
0.567658 0.567658 0.567658
0.593848 0.593848 0.593848
0.620190 0.620190 0.620190
0.646680 0.646680 0.646680
0.673311 0.673311 0.673311
0.700079 0.700079 0.700079
0.726980 0.726980 0.726980
0.754011 0.754011 0.754011
0.592882 0.592882 0.592882
0.619219 0.619219 0.619219
0.645702 0.645702 0.645702
0.672328 0.672328 0.672328
0.699092 0.699092 0.699092
0.725988 0.725988 0.725988
0.753014 0.753014 0.753014
0.780165 0.780165 0.780165
0.807437 0.807437 0.807437
0.213409 0.213409 0.213409
0.236330 0.236330 0.236330
0.259596 0.259596 0.259596
0.283176 0.283176 0.283176
0.307046 0.307046 0.307046
0.331185 0.331185 0.331185
0.355576 0.355576 0.355576
0.380203 0.380203 0.380203
0.405053 0.405053 0.405053
0.258734 0.258734 0.258734
0.282303 0.282303 0.282303
0.306163 0.306163 0.306163
0.330293 0.330293 0.330293
0.354675 0.354675 0.354675
0.379293 0.379293 0.379293
0.404135 0.404135 0.404135
0.429188 0.429188 0.429188
0.454441 0.454441 0.454441
0.305280 0.305280 0.305280
0.329400 0.329400 0.329400
0.353773 0.353773 0.353773
0.378384 0.378384 0.378384
0.403217 0.403217 0.403217
0.428263 0.428263 0.428263
0.453508 0.453508 0.453508
0.478945 0.478945 0.478945
0.504565 0.504565 0.504565
0.352873 0.352873 0.352873
0.377474 0.377474 0.377474
0.402300 0.402300 0.402300
0.427338 0.427338 0.427338
0.452576 0.452576 0.452576
0.478006 0.478006 0.478006
0.503619 0.503619 0.503619
0.529407 0.529407 0.529407
0.555362 0.555362 0.555362
0.401383 0.401383 0.401383
0.426413 0.426413 0.426413
0.451644 0.451644 0.451644
0.477068 0.477068 0.477068
0.502674 0.502674 0.502674
0.528455 0.528455 0.528455
0.554404 0.554404 0.554404
0.580515 0.580515 0.580515
0.606780 0.606780 0.606780
0.450713 0.450713 0.450713
0.476129 0.476129 0.476129
0.501729 0.501729 0.501729
0.527504 0.527504 0.527504
0.553447 0.553447 0.553447
0.579551 0.579551 0.579551
0.605811 0.605811 0.605811
0.632221 0.632221 0.632221
0.658775 0.658775 0.658775
0.500784 0.500784 0.500784
0.526552 0.526552 0.526552
0.552489 0.552489 0.552489
0.578588 0.578588 0.578588
0.604842 0.604842 0.604842
0.631247 0.631247 0.631247
0.657796 0.657796 0.657796
0.684485 0.684485 0.684485
0.711309 0.711309 0.711309
0.551532 0.551532 0.551532
0.577625 0.577625 0.577625
0.603874 0.603874 0.603874
0.630273 0.630273 0.630273
0.656817 0.656817 0.656817
0.683501 0.683501 0.683501
0.710320 0.710320 0.710320
0.737271 0.737271 0.737271
0.764350 0.764350 0.764350
0.602906 0.602906 0.602906
0.629299 0.629299 0.629299
0.655838 0.655838 0.655838
0.682517 0.682517 0.682517
0.709331 0.709331 0.709331
0.736277 0.736277 0.736277
0.763351 0.763351 0.763351
0.790549 0.790549 0.790549
0.817867 0.817867 0.817867
0.222105 0.222105 0.222105
0.245162 0.245162 0.245162
0.268550 0.268550 0.268550
0.292244 0.292244 0.292244
0.316219 0.316219 0.316219
0.340456 0.340456 0.340456
0.364939 0.364939 0.364939
0.389652 0.389652 0.389652
0.414584 0.414584 0.414584
0.267684 0.267684 0.267684
0.291367 0.291367 0.291367
0.315332 0.315332 0.315332
0.339560 0.339560 0.339560
0.364034 0.364034 0.364034
0.388739 0.388739 0.388739
0.413663 0.413663 0.413663
0.438793 0.438793 0.438793
0.464120 0.464120 0.464120
0.314446 0.314446 0.314446
0.338664 0.338664 0.338664
0.363129 0.363129 0.363129
0.387826 0.387826 0.387826
0.412742 0.412742 0.412742
0.437865 0.437865 0.437865
0.463185 0.463185 0.463185
0.488692 0.488692 0.488692
0.514379 0.514379 0.514379
0.362225 0.362225 0.362225
0.386914 0.386914 0.386914
0.411822 0.411822 0.411822
0.436937 0.436937 0.436937
0.462250 0.462250 0.462250
0.487751 0.487751 0.487751
0.513431 0.513431 0.513431
0.539283 0.539283 0.539283
0.565301 0.565301 0.565301
0.410902 0.410902 0.410902
0.436010 0.436010 0.436010
0.461315 0.461315 0.461315
0.486809 0.486809 0.486809
0.512483 0.512483 0.512483
0.538329 0.538329 0.538329
0.564341 0.564341 0.564341
0.590511 0.590511 0.590511
0.616834 0.616834 0.616834
0.460381 0.460381 0.460381
0.485868 0.485868 0.485868
0.511536 0.511536 0.511536
0.537375 0.537375 0.537375
0.563381 0.563381 0.563381
0.589545 0.589545 0.589545
0.615863 0.615863 0.615863
0.642329 0.642329 0.642329
0.668937 0.668937 0.668937
0.510588 0.510588 0.510588
0.536422 0.536422 0.536422
0.562421 0.562421 0.562421
0.588580 0.588580 0.588580
0.614892 0.614892 0.614892
0.641352 0.641352 0.641352
0.667955 0.667955 0.667955
0.694697 0.694697 0.694697
0.721572 0.721572 0.721572
0.561462 0.561462 0.561462
0.587615 0.587615 0.587615
0.613922 0.613922 0.613922
0.640376 0.640376 0.640376
0.666974 0.666974 0.666974
0.693710 0.693710 0.693710
0.720581 0.720581 0.720581
0.747581 0.747581 0.747581
0.774707 0.774707 0.774707
0.612951 0.612951 0.612951
0.639401 0.639401 0.639401
0.665993 0.665993 0.665993
0.692724 0.692724 0.692724
0.719590 0.719590 0.719590
0.746585 0.746585 0.746585
0.773706 0.773706 0.773706
0.800950 0.800950 0.800950
0.828314 0.828314 0.828314
