assets/luts/bw_soft.cube
TITLE "Soft Grey"
LUT_3D_SIZE 5
0.100000 0.100000 0.100000
0.159800 0.159800 0.159800
0.219600 0.219600 0.219600
0.279400 0.279400 0.279400
0.339200 0.339200 0.339200
0.217400 0.217400 0.217400
0.277200 0.277200 0.277200
0.337000 0.337000 0.337000
0.396800 0.396800 0.396800
0.456600 0.456600 0.456600
0.334800 0.334800 0.334800
0.394600 0.394600 0.394600
0.454400 0.454400 0.454400
0.514200 0.514200 0.514200
0.574000 0.574000 0.574000
0.452200 0.452200 0.452200
0.512000 0.512000 0.512000
0.571800 0.571800 0.571800
0.631600 0.631600 0.631600
0.691400 0.691400 0.691400
0.569600 0.569600 0.569600
0.629400 0.629400 0.629400
0.689200 0.689200 0.689200
0.749000 0.749000 0.749000
0.808800 0.808800 0.808800
0.122800 0.122800 0.122800
0.182600 0.182600 0.182600
0.242400 0.242400 0.242400
0.302200 0.302200 0.302200
0.362000 0.362000 0.362000
0.240200 0.240200 0.240200
0.300000 0.300000 0.300000
0.359800 0.359800 0.359800
0.419600 0.419600 0.419600
0.479400 0.479400 0.479400
0.357600 0.357600 0.357600
0.417400 0.417400 0.417400
0.477200 0.477200 0.477200
0.537000 0.537000 0.537000
0.596800 0.596800 0.596800
0.475000 0.475000 0.475000
0.534800 0.534800 0.534800
0.594600 0.594600 0.594600
0.654400 0.654400 0.654400
0.714200 0.714200 0.714200
0.592400 0.592400 0.592400
0.652200 0.652200 0.652200
0.712000 0.712000 0.712000
0.771800 0.771800 0.771800
0.831600 0.831600 0.831600
0.145600 0.145600 0.145600
0.205400 0.205400 0.205400
0.265200 0.265200 0.265200
0.325000 0.325000 0.325000
0.384800 0.384800 0.384800
0.263000 0.263000 0.263000
0.322800 0.322800 0.322800
0.382600 0.382600 0.382600
0.442400 0.442400 0.442400
0.502200 0.502200 0.502200
0.380400 0.380400 0.380400
0.440200 0.440200 0.440200
0.500000 0.500000 0.500000
0.559800 0.559800 0.559800
0.619600 0.619600 0.619600
0.497800 0.497800 0.497800
0.557600 0.557600 0.557600
0.617400 0.617400 0.617400
0.677200 0.677200 0.677200
0.737000 0.737000 0.737000
0.615200 0.615200 0.615200
0.675000 0.675000 0.675000
0.734800 0.734800 0.734800
0.794600 0.794600 0.794600
0.854400 0.854400 0.854400
0.168400 0.168400 0.168400
0.228200 0.228200 0.228200
0.288000 0.288000 0.288000
0.347800 0.347800 0.347800
0.407600 0.407600 0.407600
0.285800 0.285800 0.285800
0.345600 0.345600 0.345600
0.405400 0.405400 0.405400
0.465200 0.465200 0.465200
0.525000 0.525000 0.525000
0.403200 0.403200 0.403200
0.463000 0.463000 0.463000
0.522800 0.522800 0.522800
0.582600 0.582600 0.582600
0.642400 0.642400 0.642400
0.520600 0.520600 0.520600
0.580400 0.580400 0.580400
0.640200 0.640200 0.640200
0.700000 0.700000 0.700000
0.759800 0.759800 0.759800
0.638000 0.638000 0.638000
0.697800 0.697800 0.697800
0.757600 0.757600 0.757600
0.817400 0.817400 0.817400
0.877200 0.877200 0.877200
0.191200 0.191200 0.191200
0.251000 0.251000 0.251000
0.310800 0.310800 0.310800
0.370600 0.370600 0.370600
0.430400 0.430400 0.430400
0.308600 0.308600 0.308600
0.368400 0.368400 0.368400
0.428200 0.428200 0.428200
0.488000 0.488000 0.488000
0.547800 0.547800 0.547800
0.426000 0.426000 0.426000
0.485800 0.485800 0.485800
0.545600 0.545600 0.545600
0.605400 0.605400 0.605400
0.665200 0.665200 0.665200
0.543400 0.543400 0.543400
0.603200 0.603200 0.603200
0.663000 0.663000 0.663000
0.722800 0.722800 0.722800
0.782600 0.782600 0.782600
0.660800 0.660800 0.660800
0.720600 0.720600 0.720600
0.780400 0.780400 0.780400
0.840200 0.840200 0.840200
0.900000 0.900000 0.900000
